mathias31415/evaluate_motion_primitives_from_trajectory_controller/data/trajectory_20250716_093119_planned.csv
time_from_start,shoulder_pan_joint_pos,shoulder_lift_joint_pos,elbow_joint_pos,wrist_1_joint_pos,wrist_2_joint_pos,wrist_3_joint_pos,pose_x,pose_y,pose_z,pose_qx,pose_qy,pose_qz,pose_qw
0.0,2.0712311267852783,-1.470618800526001,1.499265495930807,-1.5748359165587367,-1.6294358412372034,-1.5106671492206019,0.5064376198171942,-0.5773481707713296,0.6546940902589596,0.8442235664426309,-0.5350477159985471,-0.02494715597297911,0.01970154502781154
0.1,2.0692109477097786,-1.4706074267368618,1.499412996961757,-1.576445094152555,-1.6316994112661045,-1.5131671492206018,0.5051237989992408,-0.578651912540854,0.6547881207252554,0.8443262861740644,-0.5348385810517058,-0.024907555379551263,0.02098638556599301
0.2,2.0631504104832796,-1.4705733053694445,1.4998555000546065,-1.5812726269340096,-1.6384901213528074,-1.5206671492206019,0.5011625207393386,-0.5825437199312612,0.6550752968919701,0.84461971065577,-0.5342135893077851,-0.024824421224007742,0.024842171433868902
0.30000000000000004,2.0530495151057817,-1.4705164364237489,1.5005930052093561,-1.5893185149031008,-1.6498079714973124,-1.5331671492206018,0.4944948247767952,-0.5889646513662004,0.6555708426858136,0.8450596600584515,-0.5331800833400976,-0.02480485721406916,0.03127121247938215
0.4,2.038908261577284,-1.470436819899775,1.5016255124260054,-1.6005827580598284,-1.6656529616996196,-1.550667149220602,0.48502410705208604,-0.597814196113966,0.6563000207361932,0.8455725899308394,-0.5317506432901772,-0.025027620500773465,0.040272406560876876
0.5,2.0220560516307873,-1.470341940448352,1.5028559569796782,-1.6140064188536207,-1.6845355240517732,-1.5715219958909756,0.47353439993614244,-0.608142431708683,0.6572226755395867,0.8460271368730183,-0.5300745240602253,-0.025674515020799368,0.05098923313029359
0.6000000000000001,2.005131838984053,-1.4702466556152773,1.504091658726956,-1.6274874335391158,-1.7034987639815902,-1.5924659469149076,0.46177792288075764,-0.6182702749129275,0.6582076479066673,0.8463124191817031,-0.528422112050673,-0.02674159725318073,0.06172720316900695
0.7000000000000001,1.988207626337318,-1.470151370782203,1.5053273604742337,-1.640968448224611,-1.7224620039114074,-1.6134098979388396,0.44980874723063785,-0.6281466937272372,0.6592506603209204,0.8464264996832433,-0.5268016128382346,-0.02822648269721068,0.07242587258398275
0.7999999990000001,1.9712834136905835,-1.4700560859491283,1.5065630622215114,-1.654449462910106,-1.7414252438412245,-1.6343538489627716,0.43763254654435624,-0.6377654313003428,0.6603511983547834,0.8463697927078926,-0.5252139945926475,-0.03012815670028089,0.08307062085645293
0.8999999980000001,1.9543592010438489,-1.4699608011160539,1.507798763968789,-1.6679304775956012,-1.7603884837710417,-1.6552977999867036,0.42525521255557336,-0.6471203745693613,0.6615086938954854,0.8461427563882087,-0.5236602134578399,-0.032445100291345466,0.09364684789216776
0.9999999980000001,1.9374349883971143,-1.4698655162829792,1.5090344657160668,-1.6814114922810963,-1.779351723700859,-1.6762417510106356,0.4126828513770258,-0.6562055632574574,0.6627225255180283,0.845745892488709,-0.5221412131523451,-0.035175290500494574,0.10413999137929736
1.099999999,1.9205107757503797,-1.4697702314499048,1.5102701674633445,-1.6948925069665914,-1.798314963630676,-1.6971857020345675,0.39992177930665535,-0.6650151987666827,0.6639920189097626,0.8451797462235648,-0.5206579245734543,-0.038316201276051516,0.1145355441428862
1.2,1.903586563103645,-1.4696749466168302,1.5115058692106222,-1.7083735216520868,-1.8172782035604933,-1.7181296530584995,0.3869785182387859,-0.673543652947685,0.6653164473461638,0.8444449060623926,-0.519211265405238,-0.04186480499916274,0.12481907147527699
1.3,1.8866623504569104,-1.4695796617837558,1.5127415709579,-1.721854536337582,-1.8362414434903105,-1.7390736040824315,0.37385979068410724,-0.6817854767280389,0.6666950322173825,0.8435420035242078,-0.5178021397305883,-0.04581757459513527,0.13497622842192913
1.4,1.8697381378101756,-1.4694843769506811,1.5139772727051777,-1.735335551023077,-1.8552046834201277,-1.7600175551063635,0.36057251440308946,-0.6897354085810811,0.6681269436050807,0.8424717129596012,-0.5164314376474143,-0.05017048624007121,0.14499277700208021
1.5,1.852813925163441,-1.4693890921176067,1.5152129744524554,-1.7488165657085721,-1.8741679233499449,-1.7809615061302955,0.3471237966582989,-0.6973883828172929,0.6696113009090233,0.8412347513212131,-0.5151000348891327,-0.05491902266063816,0.15485460334375353
1.6,1.8358897125167064,-1.469293807284532,1.5164486761997331,-1.7622975803940673,-1.893131163279762,-1.8019054571542275,0.3335209280919323,-0.7047395376804767,0.6711471735228415,0.8398318779225752,-0.5138087924495884,-0.06005817702411214,0.16454773471268738
1.7000000000000002,1.8189654998699718,-1.4691985224514577,1.5176843779470108,-1.7757785950795626,-1.912094403209579,-1.8228494081781594,0.3197713762357309,-0.7117842232312049,0.6727335815583471,0.8382638941853945,-0.5125585562125425,-0.06558245741512178,0.174058356414868
1.8,1.8020412872232372,-1.469103237618383,1.5189200796942885,-1.7892596097650577,-1.9310576431393962,-1.8437933592020914,0.30588277866125624,-0.7185180090003209,0.6743694966177125,0.8365316433753613,-0.5113501565858625,-0.07148589189482936,0.18337282855246587
1.9,1.7851170745765026,-1.4690079527853086,1.5201557814415663,-1.8027406244505528,-1.9500208830692134,-1.8647373102260232,0.29186293577933164,-0.7249366913955733,0.6760538426128044,0.8346360103265614,-0.5101844081405441,-0.07776203413758172,0.1924777026131296
2.0,1.768192861929768,-1.468912667952234,1.521391483188844,-1.816221639136048,-1.9689841229990306,-1.8856812612499552,0.27771980329825413,-0.7310363008448387,0.6777854966308972,0.8325779211545801,-0.509062109254701,-0.08440396963938362,0.20135973787276032
2.1,1.7512686492830332,-1.4688173831191595,1.5226271849361217,-1.829702653821543,-1.9879473629288478,-1.9066252122738871,0.2634614843511694,-0.7368131086597807,0.6795632898459575,0.8303583429583835,-0.5079840417626497,-0.09140432249185339,0.2100059175920893
2.2,1.7343444366362986,-1.468722098286085,1.5238628866833994,-1.8431836685070384,-2.0069106028586647,-1.9275691632978191,0.2490962213037741,-0.74226363360423,0.6813860084746419,0.8279782835110755,-0.5069509706092149,-0.09875526271465185,0.21840346498759625
2.3,1.717420223989564,-1.4686268134530103,1.5250985884306771,-1.8566646831925335,-2.0258738427884824,-1.9485131143217511,0.2346323872542531,-0.7473846481520448,0.6832523947761112,0.8254387909396165,-0.5059636435093904,-0.10644851413870209,0.22653985895755557
2.4,1.7004960113428293,-1.4685315286199359,1.5263342901779549,-1.8701456978780286,-2.044837082718299,-1.969457065345683,0.22007847723810284,-0.7521731844197206,0.6851611480947134,0.8227409533936116,-0.5050227906134708,-0.114475362831857,0.23440284954425794
2.5,1.6835717986960947,-1.4684362437868612,1.5275699919252326,-1.8836267125635238,-2.0638003226481167,-1.990401016369615,0.2054430991511839,-0.7566265397595573,0.6871109259445565,0.8198858987032627,-0.5041291241777844,-0.12282666605802846,0.24198047311374704
2.6,1.6666475860493601,-1.4683409589537868,1.5288056936725103,-1.8971077272490189,-2.0827635625779335,-2.011344967393547,0.19073496440503945,-0.7607422819997746,0.6891003451349468,0.816874794026593,-0.503283338241145,-0.13149286176013505,0.24926106723471791
2.7,1.6497233734026253,-1.4682456741207122,1.530041395419788,-1.9105887419345142,-2.101726802507751,-2.0322889184174793,0.1759628783291672,-0.7645182543185768,0.6911279829356263,0.8137088454860494,-0.5024861083071439,-0.14046397855661827,0.2562332852385647
2.8,1.6327991607558907,-1.4681503892876377,1.5312770971670657,-1.9240697566200093,-2.120690042437568,-2.053232869441411,0.16113573033556683,-0.7679525797398081,0.6931923782807075,0.8103892977945945,-0.5017380910324016,-0.14972964624063095,0.2628861104429084
2.9,1.615874948109156,-1.468055104454563,1.5325127989143434,-1.9375507713055045,-2.139653282367385,-2.0741768204653432,0.14626248386147692,-0.7710436652385106,0.6952920330101666,0.806917433871401,-0.5010399239208891,-0.1592791067704279,0.2692088700213226
3.0,1.5989507354624215,-1.4679598196214887,1.5337485006616212,-1.9510317859909996,-2.1586165222972022,-2.095120771489275,0.13135216610679593,-0.7737902054454067,0.6974254131477197,0.8032945744472647,-0.5003922250244437,-0.1691012257388597,0.27519124850236376
3.1,1.5827534252801252,-1.4678686273143964,1.5349311284689668,-1.9639337850967122,-2.1767652826334074,-2.115165170496688,0.1170559176783343,-0.7760951756910989,0.699497299877704,0.7996871649732735,-0.4998201608889966,-0.17874621312093017,0.2805887314929685
3.2,1.5702730031864893,-1.4677983614201588,1.5358423720056549,-1.973875089725613,-2.190749344611775,-2.130609868252689,0.10602785817883388,-0.7776549009288046,0.7011129471474378,0.7968148463473356,-0.4994115971481958,-0.18633454999248786,0.28452344851252104
3.3,1.5618329392438526,-1.4677508431041992,1.536458613480443,-1.9805980391668774,-2.2002062665323407,-2.1410545660086906,0.09856589353750918,-0.7786028585492764,0.7022146617244935,0.7948269769991502,-0.4991513252108641,-0.19154082195050576,0.28707167171484427
3.4,1.557433233452215,-1.467726072366518,1.5367798528933312,-1.9841026334205052,-2.2051360483951044,-2.146499263764692,0.09467520417512798,-0.7790628231254009,0.7027918063328977,0.7937762627456008,-0.4990208026541301,-0.1942780367404789,0.28836353386016056
3.458893955,1.5567325347540795,-1.4677221273700871,1.5368310135956738,-1.984660776338988,-2.205921167195524,-2.1473663882521117,0.09405553277080403,-0.7791339136151958,0.7028838991095213,0.7936080131641903,-0.4990003425597661,-0.1947154165326057,0.28856695259741055
