mathias31415/evaluate_motion_primitives_from_trajectory_controller/data/trajectory_20250716_101907_executed.csv
timestamp,elbow_joint_pos,shoulder_lift_joint_pos,shoulder_pan_joint_pos,wrist_1_joint_pos,wrist_2_joint_pos,wrist_3_joint_pos,elbow_joint_vel,shoulder_lift_joint_vel,shoulder_pan_joint_vel,wrist_1_joint_vel,wrist_2_joint_vel,wrist_3_joint_vel,pose_x,pose_y,pose_z,pose_qx,pose_qy,pose_qz,pose_qw
1752653996.112864,2.063552204762594,-2.0039030514159144,1.1524220705032349,-1.6305386028685511,-1.5723689238177698,-3.619971577321188,-0.0,0.0,-0.0,0.0,0.0,0.0,-0.017056099026336626,-0.46655964050057236,0.5862161641021758,0.9995496547693983,0.029997786869123803,-0.0007287589763122298,-0.00029890414133931965
1752653996.1131058,2.063556973134176,-2.003837724725241,1.1524089574813845,-1.6305304966368617,-1.57239276567568,-3.6199432055102743,-0.0,0.0,-0.0,0.0,0.0,0.0,-0.017074842993712473,-0.4665809733362553,0.5861836013814883,0.9995502674774355,0.02997708417813719,-0.0007225538827942265,-0.00033930200494762546
1752653996.1147804,2.063565556203024,-2.003882547418112,1.1524295806884766,-1.6304851971068324,-1.5723231474505823,-3.61991006532778,-0.0,0.0,-0.0,0.0,0.0,0.0,-0.017047752192952778,-0.466562008544296,0.5861916538317917,0.9995504821484332,0.029970833036038046,-0.0006892305820651287,-0.0003282760507980295
1752653996.1166008,2.063554588948385,-2.0038796863951625,1.1524263620376587,-1.6305142841734828,-1.5723522345172327,-3.6198936144458216,-0.0,0.0,-0.0,0.0,0.0,0.0,-0.017054871380075266,-0.4665662436555604,0.5862014773134452,0.9995507658602427,0.02996098784303093,-0.0007103999585760829,-0.00031781688272062414
1752653996.1187494,2.0636566321002405,-2.003858705560201,1.1524295806884766,-1.6304775677123011,-1.5723274389850062,-3.619976107274191,-0.0,0.0,-0.0,0.0,0.0,0.0,-0.017046199884823907,-0.4665572860404067,0.5861175344416557,0.9995494871936159,0.030003885930169016,-0.0006645912052045927,-0.000384445833358749
1752653996.1209197,2.063601795827047,-2.003850122491354,1.1523807048797607,-1.6305176220335902,-1.5723393599139612,-3.619931046162741,-0.0,0.0,-0.0,0.0,0.0,0.0,-0.017076941388769824,-0.4665708845072879,0.5861564754663818,0.999550893321478,0.029956905575904243,-0.0006886690586958013,-0.00034814290084054974
1752653996.1229544,2.0635340849505823,-2.0038005314269007,1.1524176597595217,-1.630505701104635,-1.5723846594439903,-3.6199432055102743,-0.0,0.0,-0.0,0.0,0.0,0.0,-0.01707627350182629,-0.4665957965753901,0.5861803145372529,0.9995501397474883,0.02998144900491982,-0.0007104279522032185,-0.000355159776665068
1752653996.124894,2.063576046620504,-2.0038663349547328,1.152413249015808,-1.6305185757079066,-1.5723479429828089,-3.6199265162097376,-0.0,0.0,-0.0,0.0,0.0,0.0,-0.017061621926468238,-0.46656867349385117,0.586181392234406,0.9995504708882355,0.029970889702768844,-0.000701844485407225,-0.00033065367021565693
1752653996.1330233,2.06362229982485,-2.00384583095693,1.1524176597595217,-1.6304894886412562,-1.572322670613424,-3.61991006532778,-0.0,0.0,-0.0,0.0,0.0,0.0,-0.017056041278688257,-0.46656807580336584,0.5861370861336925,0.9995506590702449,0.029964909240827637,-0.000669687499140054,-0.0003683545595390599
1752653996.133462,2.063581768666402,-2.0038663349547328,1.152438402175903,-1.6305133304991664,-1.5723517576800743,-3.6199596563922327,-0.0,0.0,-0.0,0.0,0.0,0.0,-0.017049693921884032,-0.4665675755521425,0.5861768138840755,0.9995495953228509,0.030000027466015208,-0.0007011848879379916,-0.00033642490424128573
1752653996.1337025,2.063545529042379,-2.0038420162596644,1.1524251699447632,-1.630547662774557,-1.572364632283346,-3.619931046162741,-0.0,0.0,-0.0,0.0,0.0,0.0,-0.017065088701140967,-0.46658439565031834,0.586195413859441,0.9995502179751089,0.02997909736120108,-0.0007170135186584914,-0.0003183691788832765
1752653996.134683,2.06362229982485,-2.0038420162596644,1.1524176597595217,-1.6304685078062953,-1.5723360220538538,-3.6199265162097376,-0.0,0.0,-0.0,0.0,0.0,0.0,-0.01705709794937256,-0.46656662218109074,0.5861329214631048,0.999550406559726,0.02997314063165268,-0.0006703261226834855,-0.0003824262685115389
1752653996.13591,2.06362229982485,-2.0038420162596644,1.1524176597595217,-1.6304685078062953,-1.5723360220538538,-3.6199265162097376,-0.0,0.0,-0.0,0.0,0.0,0.0,-0.01705709794937256,-0.46656662218109074,0.5861329214631048,0.999550406559726,0.02997314063165268,-0.0006703261226834855,-0.0003824262685115389
1752653996.1377296,2.0635808149920862,-2.0038796863951625,1.1524295806884766,-1.6305386028685511,-1.572343651448385,-3.619952265416281,-0.0,0.0,-0.0,0.0,0.0,0.0,-0.017052002007612255,-0.4665656847962317,0.5861862843542118,0.9995498418675672,0.02999190967264758,-0.0007061103917002971,-0.00031683564160683766
1752653996.142983,2.063597504292624,-2.0039073429503382,1.152413249015808,-1.63049378017568,-1.5723274389850062,-3.6199055353747767,-0.0,0.0,-0.0,0.0,0.0,0.0,-0.017050195172620956,-0.4665488562378365,0.5861813693268975,0.9995507930887828,0.029960406307582337,-0.0006914723805874342,-0.00032856569628528405
1752653996.1460564,2.0635388533221644,-2.003875394860738,1.152446985244751,-1.6305262051024378,-1.5723231474505823,-3.6199806372271937,-0.0,0.0,-0.0,0.0,0.0,0.0,-0.01704438584224807,-0.4665729979826368,0.5862119052536826,0.9995491629644541,0.03001477833995217,-0.0007023477460732912,-0.000301008150198818
1752653996.146843,2.0635340849505823,-2.0038706264891566,1.152385115623474,-1.6304732761778773,-1.572364632283346,-3.619917456303732,-0.0,0.0,-0.0,0.0,0.0,0.0,-0.017076241575912525,-0.4665667646559193,0.5862067950448017,0.9995510215774379,0.029952300787078077,-0.0007095678660597863,-0.00033384802579981495
1752653996.152674,2.063638512288229,-2.003885408441061,1.1524578332901,-1.6305023632445277,-1.5723479429828089,-3.619952265416281,-0.0,0.0,-0.0,0.0,0.0,0.0,-0.017033087469138796,-0.46655204022780916,0.5861445877889736,0.9995494153407424,0.030006063718920048,-0.0006889289414572866,-0.00035750383184570794
1752653996.1546438,2.063554588948385,-2.0038329563536585,1.15243399143219,-1.630444665948385,-1.5723517576800743,-3.619968716298239,-0.0,0.0,-0.0,0.0,0.0,0.0,-0.017055662576701647,-0.4665762962510348,0.5861728873314014,0.9995495240383624,0.030002380078053816,-0.0006849561079233674,-0.0003701614046097419
1752653996.1566713,2.063589398060934,-2.003891607324117,1.1524502038955688,-1.6304851971068324,-1.572343651448385,-3.619911734257833,-0.0,0.0,-0.0,0.0,0.0,0.0,-0.01703736229540583,-0.4665547504051961,0.5861791226771028,0.9995501399777017,0.029981979541507258,-0.0006952687781099675,-0.0003393739171698034
1752653996.1619437,2.063589398060934,-2.003891607324117,1.1524502038955688,-1.6304851971068324,-1.572343651448385,-3.619911734257833,-0.0,0.0,-0.0,0.0,0.0,0.0,-0.01703736229540583,-0.4665547504051961,0.5861791226771028,0.9995501399777017,0.029981979541507258,-0.0006952687781099675,-0.0003393739171698034
1752653996.1627226,2.063589398060934,-2.003891607324117,1.1524502038955688,-1.6304851971068324,-1.572343651448385,-3.619911734257833,-0.0,0.0,-0.0,0.0,0.0,0.0,-0.01703736229540583,-0.4665547504051961,0.5861791226771028,0.9995501399777017,0.029981979541507258,-0.0006952687781099675,-0.0003393739171698034
1752653996.1646905,2.063589398060934,-2.003891607324117,1.1524502038955688,-1.6304851971068324,-1.572343651448385,-3.619911734257833,-0.0,0.0,-0.0,0.0,0.0,0.0,-0.01703736229540583,-0.4665547504051961,0.5861791226771028,0.9995501399777017,0.029981979541507258,-0.0006952687781099675,-0.0003393739171698034
1752653996.1675422,2.063589398060934,-2.003891607324117,1.1524502038955688,-1.6304851971068324,-1.572343651448385,-3.619911734257833,-0.0,0.0,-0.0,0.0,0.0,0.0,-0.01703736229540583,-0.4665547504051961,0.5861791226771028,0.9995501399777017,0.029981979541507258,-0.0006952687781099675,-0.0003393739171698034
1752653996.169346,2.063589398060934,-2.003891607324117,1.1524502038955688,-1.6304851971068324,-1.572343651448385,-3.619911734257833,-0.0,0.0,-0.0,0.0,0.0,0.0,-0.01703736229540583,-0.4665547504051961,0.5861791226771028,0.9995501399777017,0.029981979541507258,-0.0006952687781099675,-0.0003393739171698034
1752653996.171707,2.06362229982485,-2.003875394860738,1.152376413345337,-1.6305343113341273,-1.5723970572101038,-3.6199732462512415,-0.0,0.0,-0.0,0.0,0.0,0.0,-0.017080459734185163,-0.46655767035820667,0.5861552800739009,0.9995503030169229,0.029975842513432296,-0.0007193088917405676,-0.00035099730136598834
1752653996.1760895,2.0635317007647918,-2.003791948358053,1.1524382829666138,-1.6305471859373988,-1.5723603407489222,-3.619952265416281,-0.0,0.0,-0.0,0.0,0.0,0.0,-0.017067585043470262,-0.4666052265973143,0.5861832090015282,0.9995497047202399,0.029996270233060784,-0.0007071204952278788,-0.0003339856161212915
1752653996.177141,2.0636609236346644,-2.0038663349547328,1.1524176597595217,-1.6305262051024378,-1.5723274389850062,-3.619890515004293,-0.0,0.0,-0.0,0.0,0.0,0.0,-0.017052545510488782,-0.4665588456864542,0.5861237057761115,0.9995509506669381,0.029955131409821846,-0.0006758701838064605,-0.000361002126493563
1752653996.179279,2.0636609236346644,-2.0038663349547328,1.1524176597595217,-1.6305262051024378,-1.5723274389850062,-3.619890515004293,-0.0,0.0,-0.0,0.0,0.0,0.0,-0.017052545510488782,-0.4665588456864542,0.5861237057761115,0.9995509506669381,0.029955131409821846,-0.0006758701838064605,-0.000361002126493563
1752653996.1828997,2.0636609236346644,-2.0038663349547328,1.1524176597595217,-1.6305262051024378,-1.5723274389850062,-3.619890515004293,-0.0,0.0,-0.0,0.0,0.0,0.0,-0.017052545510488782,-0.4665588456864542,0.5861237057761115,0.9995509506669381,0.029955131409821846,-0.0006758701838064605,-0.000361002126493563
1752653996.1849418,2.0635717550860804,-2.0038839779295863,1.1523807048797607,-1.630505701104635,-1.5723231474505823,-3.619921986256735,-0.0,0.0,-0.0,0.0,0.0,0.0,-0.017070911632626775,-0.46656197504709,0.5861904514277477,0.9995510358879877,0.029952357891690432,-0.0006926312943976421,-0.00032120689429500804
1752653996.1852405,2.063594166432516,-2.0038329563536585,1.1524382829666138,-1.6304761372008263,-1.572364632283346,-3.619944636021749,-0.0,0.0,-0.0,0.0,0.0,0.0,-0.017054098827302022,-0.46657366236571,0.5861493380599165,0.9995498155601922,0.029992493419882325,-0.0006890054456531061,-0.00037659466266384676
1752653996.1890967,2.063554588948385,-2.003875394860738,1.1524426937103271,-1.630498071710104,-1.5723689238177698,-3.6199806372271937,-0.0,0.0,-0.0,0.0,0.0,0.0,-0.017048968309341068,-0.4665655954965995,0.5861976779022892,0.999549209632701,0.030012649501954026,-0.0007134643228262525,-0.00033069801251198227
1752653996.1909463,2.063615624104635,-2.003882547418112,1.1523808240890503,-1.6304804287352503,-1.5723803679095667,-3.619935576115744,-0.0,0.0,-0.0,0.0,0.0,0.0,-0.017073303180512645,-0.4665510668334354,0.5861565269004366,0.9995508072449893,0.029959236299681294,-0.0007031146075674521,-0.00036541220404434475
1752653996.1945367,2.0635717550860804,-2.0038420162596644,1.152413249015808,-1.630542894402975,-1.57239276567568,-3.619956795369284,-0.0,0.0,-0.0,0.0,0.0,0.0,-0.01707181587875497,-0.4665787418705196,0.5861767414741273,0.9995499994367276,0.029986020091607706,-0.0007229657234539766,-0.000338445957695017
1752653996.1952634,2.063672367726461,-2.0038982830443324,1.1524251699447632,-1.6305304966368617,-1.5723522345172327,-3.619964186345236,-0.0,0.0,-0.0,0.0,0.0,0.0,-0.017045922465420454,-0.4665448452961539,0.5861301650075956,0.999549724979536,0.029995694404100232,-0.000692404949396645,-0.0003552265979040716
1752653996.1979997,2.063589398060934,-2.0038706264891566,1.1523895263671875,-1.630498071710104,-1.5723517576800743,-3.6199145952807834,-0.0,0.0,-0.0,0.0,0.0,0.0,-0.017070601140978848,-0.46656247636128656,0.5861715772719505,0.9995510030229022,0.029953087354801473,-0.0006971534966839749,-0.00034480549254633597
1752653996.2024803,2.06352407137026,-2.003878255883688,1.1524014472961426,-1.6305352650084437,-1.5724132696734827,-3.619968716298239,-0.0,0.0,-0.0,0.0,0.0,0.0,-0.01707609247845318,-0.46656989272335025,0.5862244525998278,0.999549989296503,0.029986048477936643,-0.0007487374088246654,-0.00030852282307709236
1752653996.2028391,2.06352407137026,-2.003878255883688,1.1524014472961426,-1.6305352650084437,-1.5724132696734827,-3.619968716298239,-0.0,0.0,-0.0,0.0,0.0,0.0,-0.01707609247845318,-0.46656989272335025,0.5862244525998278,0.999549989296503,0.029986048477936643,-0.0007487374088246654,-0.00030852282307709236
1752653996.206076,2.06358510652651,-2.0038286648192347,1.1524382829666138,-1.63049378017568,-1.5723479429828089,-3.619931046162741,-0.0,0.0,-0.0,0.0,0.0,0.0,-0.017054418446667073,-0.46657916915084374,0.5861558447172845,0.9995500265037054,0.02998569272660426,-0.0006863455126177272,-0.0003628746133349334
1752653996.206803,2.0635317007647918,-2.0038420162596644,1.1524176597595217,-1.6305352650084437,-1.572404686604635,-3.619938675557272,-0.0,0.0,8.31384113553213e-06,0.0,0.0,9.93442336039152e-06,-0.017073117821547322,-0.4665829540325749,0.5862034822025504,0.9995502003047152,0.029979155408096692,-0.0007353687995231363,-0.00032641162620070715
1752653996.2100606,2.0635703245746058,-2.003850122491354,1.1524176597595217,-1.63049378017568,-1.5723760763751429,-3.619916264210836,-0.0,0.0,0.0082793645560741,0.0,0.0,0.0137224523350596,-0.01706440707101251,-0.4665715704398395,0.5861753518182863,0.9995505469507276,0.029967983897935032,-0.0007068754143379113,-0.0003526453501363804
1752653996.2109964,2.063581768666402,-2.00384583095693,1.1524370908737185,-1.6304923496642054,-1.5723846594439903,-3.619883124028341,-0.0030511952936649,0.001293679815717,0.0136303147301077,6.10423885518685e-05,0.0,0.0185557287186384,-0.017056193825687016,-0.46657135761034835,0.5861654218625225,0.9995507486062664,0.029961139200120945,-0.0007070317173910186,-0.0003622218024267995
1752653996.2128143,2.063603226338522,-2.00380863765859,1.1525030136108398,-1.6304613552489222,-1.5723760763751429,-3.6198516527759,-0.0029322556219995,0.0025356500409543,0.0163591802120208,7.590134919155389e-05,-0.0037000547163188,0.0213927924633026,-0.017027866521460537,-0.4665804110645422,0.586130777581139,0.9995502327955339,0.02997839254707611,-0.0006837551272666065,-0.0004007213662424757
1752653996.2148316,2.06359845796694,-2.003875394860738,1.1525146961212158,-1.63046993831777,-1.57239276567568,-3.6197405497180384,-0.0022314868401736,0.0032960560638457,0.0174489524215459,8.960569539340213e-05,-0.0078163053840398,0.0229700114578008,-0.01701389720388114,-0.4665566576030479,0.5861640242619114,0.9995517179040102,0.029928673032220757,-0.0007086579386069481,-0.00036819777095765726
1752653996.216957,2.063627068196432,-2.003804822961325,1.152574896812439,-1.6305352650084437,-1.5724123159991663,-3.619770828877584,-0.0019251429475843,0.0036124759353697,0.0182342734187841,0.0001015359375742,-0.0105656338855624,0.0224800314754247,-0.017000854420709508,-0.4665859204954215,0.5861215290903878,0.9995503540844486,0.029973906307509925,-0.0007101375793296397,-0.0003876789140554604
1752653996.218623,2.063554588948385,-2.0038510761656703,1.1525572538375854,-1.6304775677123011,-1.5724404493915003,-3.619725767766134,-0.0015256990445777,0.0037346556782722,0.0173306483775377,0.0001013316432363,-0.0125009398907423,0.0221876762807369,-0.01700617061063065,-0.4665709870609853,0.5861846976238589,0.9995512834155665,0.029942543537382856,-0.0007360445071620763,-0.00036626123073293823
1752653996.2206595,2.0635612646686,-2.003801961938376,1.152601718902588,-1.63049378017568,-1.5724967161761685,-3.619665686284201,-0.0030382580589503,0.0038341695908457,0.0165826603770256,0.0001138488732976,-0.0151208862662315,0.0223130285739898,-0.01699986364457115,-0.4665880854941105,0.5861607629674462,0.9995514927411555,0.029934755244949103,-0.000752844917019679,-0.0003962472505860486
1752653996.2229564,2.063515011464254,-2.003826757470602,1.1526331901550293,-1.6305386028685511,-1.5724595228778284,-3.61965519586672,-0.0048233731649816,0.0041379043832421,0.0175785198807716,0.0008377503836527,-0.0156079847365617,0.0229411423206329,-0.016982086621701222,-0.46659233494689073,0.5862088034774005,0.9995511958622014,0.029945192694983486,-0.0007611942382911077,-0.000335958680544736
1752653996.226864,2.063549820576803,-2.0037528477110804,1.1526488065719604,-1.6304732761778773,-1.5725200811969202,-3.6195817629443567,-0.0044490294530987,0.0047165597788989,0.0190535373985767,0.000998139497824,-0.0169439204037189,0.0237336661666631,-0.01698819774761704,-0.4666053695269358,0.5861449302486503,0.9995520318260985,0.029916370745789022,-0.0007507988961057709,-0.0004274748368601813
1752653996.2309856,2.063495461140768,-2.0037409267821253,1.1528189182281494,-1.630526681939596,-1.5725563208209437,-3.619535509740011,-0.0040924786590039,0.0070987548679113,0.0237037967890501,0.003601144766435,-0.0177031215280294,0.0255469381809234,-0.01692049663719765,-0.4666241314926107,0.5861837005235032,0.9995501643960144,0.02997823068521866,-0.000787933510388023,-0.0003920480424478623
1752653996.231328,2.063509289418356,-2.003794332543844,1.152883529663086,-1.6305233440794886,-1.5725954214679163,-3.6194499174701136,-0.0049665495753288,0.0079991277307271,0.025494122877717,0.0039372993633151,-0.0177235007286071,0.0283334981650114,-0.016884719850194817,-0.46660132266314647,0.5861969030514481,0.999550461973904,0.029967728409342028,-0.0008134318879395809,-0.00038412277024426304
1752653996.233015,2.0635088125811976,-2.00377955059194,1.1529117822647097,-1.6305023632445277,-1.5726473967181605,-3.619443957005636,-0.0051944977603852,0.0086128199473023,0.0271391700953245,0.0039457748644053,-0.0171973649412393,0.0294691920280456,-0.016878542874284037,-0.46660265007169205,0.5861883237584781,0.9995501036512823,0.029978884918256284,-0.0008292227839736134,-0.0004112655389821135
1752653996.2348015,2.063497845326559,-2.003733297387594,1.1529306173324585,-1.6304904423155726,-1.5726431051837366,-3.619410816823141,-0.0057723061181604,0.0090847387909889,0.0287582892924547,0.0048974500969052,-0.01782763376832,0.0309911333024501,-0.016877014925200922,-0.4666205524638847,0.5861744236893112,0.9995503188292895,0.02997175738137272,-0.0008170785246667435,-0.00043159057272147694
1752653996.2375834,2.063479725514547,-2.003693243066305,1.152985692024231,-1.6304460964598595,-1.5727651754962366,-3.619314972554342,-0.0058487057685852,0.0100410124287009,0.0298352856189012,0.0053538321517407,-0.0177432671189308,0.0313241705298423,-0.01686991986717768,-0.4666283236165304,0.5861642892221101,0.9995508686368719,0.029951414715875542,-0.0008577810088940282,-0.0004878273599318029
1752653996.239793,2.0635269323932093,-2.0037642918028773,1.153091549873352,-1.6304575405516566,-1.572739903126852,-3.6192293802844446,-0.0068363267928361,0.0104754539206624,0.0312247611582279,0.00652458332479,-0.0178371798247098,0.0340898595750331,-0.016803800088664334,-0.4665996873130003,0.5861638514769183,0.9995505790376351,0.029961525353869842,-0.0008540737788466976,-0.00046637107335541824
1752653996.240749,2.0634873549090784,-2.0037151775755824,1.153140425682068,-1.6303674183287562,-1.572808567677633,-3.619216028844015,-0.0069920094683766,0.0104538258165121,0.032525960355997,0.0077245105057954,-0.0179963447153568,0.0369740799069404,-0.016794545225016756,-0.46661131370700454,0.5861591089947086,0.9995500074380285,0.029979330271957195,-0.0008634697011409503,-0.0005261246595698433
1752653996.244943,2.063449207936422,-2.003658433953756,1.1532881259918213,-1.630413671533102,-1.5728557745562952,-3.6190391222583216,-0.0074396999552845,0.0116887129843235,0.0366441719233989,0.0083232866600155,-0.0182241797447204,0.0400938615202903,-0.016744502531632725,-0.4666427736935877,0.5861664088575068,0.9995504227577824,0.02996472116012541,-0.0008908179435682975,-0.000523730776160377
1752653996.2472527,2.063429657612936,-2.003627439538473,1.153314232826233,-1.6303535900511683,-1.5728471914874476,-3.618988339100973,-0.0089610684663057,0.0125403450801968,0.0384359769523143,0.0091383047401905,-0.0192678179591894,0.0426307246088981,-0.01673485596360251,-0.46665139532698946,0.5861592726225521,0.9995507919729348,0.029952424847261485,-0.0008714959619746745,-0.0005540819759747048
1752653996.249309,2.063389126454489,-2.003627439538473,1.1533656120300293,-1.630341192285055,-1.5728829542743128,-3.618857685719625,-0.0090575069189071,0.0126504516229033,0.0401018299162387,0.009187021292746,-0.0197082124650478,0.0443550273776054,-0.016716580762013943,-0.46665482803168196,0.5861857764757151,0.9995519619235853,0.029912792555252744,-0.0008937531130545225,-0.0005490552164739708
1752653996.2508905,2.06335956255068,-2.003590246240133,1.153465986251831,-1.6303297481932582,-1.5730083624469202,-3.6187992731677454,-0.0087244007736444,0.0132864350453019,0.0423827320337295,0.0100471451878547,-0.0204006843268871,0.0460783503949642,-0.016690480477814084,-0.4666672200491774,0.5861887276533093,0.9995512651543963,0.029933779271814783,-0.000946207992447671,-0.0005847026484249748
1752653996.2529106,2.0633819738971155,-2.003591676751608,1.1535634994506836,-1.6303383312621058,-1.572991673146383,-3.618698898945944,-0.0096726100891828,0.0135751096531748,0.04404728859663,0.0095677152276039,-0.0210830830037593,0.047928936779499,-0.016641997481167525,-0.466666929901684,0.5861749000669607,0.9995513162401541,0.029932355472491668,-0.0009360611952032261,-0.0005865900464756255
1752653996.2546334,2.0633729139911097,-2.003510614434713,1.1537038087844849,-1.6303140125670377,-1.573031250630514,-3.618605915700094,-0.0099535789340734,0.0136454114690423,0.0463856123387813,0.0100357653573155,-0.0220042131841182,0.0499585680663585,-0.0165934563854453,-0.46669609806225865,0.5861431191377194,0.9995505769409182,0.02995606326947056,-0.0009331533281673329,-0.0006384632639101475
1752653996.2592616,2.063361946736471,-2.0035110912718714,1.1537952423095703,-1.6302935085692347,-1.5730226675616663,-3.618518892918722,-0.0108295558020472,0.0139594599604606,0.0480350703001022,0.0104977255687117,-0.021386232227087,0.0524383522570133,-0.016549493241423432,-0.46669716793051536,0.5861484380894952,0.9995505147391357,0.029958272071026863,-0.0009273823669615204,-0.0006406100160790944
1752653996.259783,2.063293759022848,-2.00344242672109,1.1538760662078855,-1.6302033863463343,-1.5731809774981895,-3.61845308939089,-0.0113695356994867,0.0144327254965901,0.0502615980803966,0.0107093788683414,-0.0232479404658079,0.0543939843773841,-0.016539825497898945,-0.4667162807882006,0.5861549950110602,0.9995501874435144,0.02996584385340094,-0.0009792340772792688,-0.0007156007341140493
1752653996.260851,2.0633185545550745,-2.00344242672109,1.154008150100708,-1.6302734814085902,-1.5731833616839808,-3.618282143269674,-0.0114171588793396,0.0149494940415024,0.0535808019340038,0.0107886074110865,-0.0244814939796924,0.0551862306892871,-0.01648022875957061,-0.4667224033463225,0.5861462760958288,0.9995507736774037,0.029946394818241587,-0.0009902028930907551,-0.0006955404546747352
1752653996.2626605,2.063272301350729,-2.003436227838033,1.15407133102417,-1.6302463016905726,-1.573263947163717,-3.618202511464254,-0.011622036807239,0.0153796439990401,0.0537781342864036,0.0109446011483669,-0.0249468032270669,0.0600565560162067,-0.016461886809406877,-0.4667254199474919,0.5861722857928269,0.9995509723459933,0.029938171740541666,-0.0010293728900800543,-0.0007070689260668013
1752653996.2647235,2.06321889558901,-2.0033680401244105,1.1541626453399658,-1.6301514110960902,-1.573291126881735,-3.618066136037008,-0.0116060096770524,0.0157978273928165,0.0550849363207817,0.0116356397047638,-0.0259623415768146,0.0589243434369564,-0.01643213481191685,-0.46674816819980414,0.5861682367154034,0.9995516155548618,0.029915721422497765,-0.0010180290521792194,-0.0007622796639929103
1752653996.2671516,2.063209835683004,-2.003364702264303,1.1542497873306274,-1.6301938496031705,-1.5733068625079554,-3.617979351674215,-0.011697057634592,0.0164210200309753,0.0579801872372627,0.0119619751349091,-0.0264281518757343,0.0612872578203678,-0.01639624112200363,-0.4667558687930913,0.5861781325993982,0.9995516068872444,0.02991587176740981,-0.0010355893398609514,-0.0007438684309938967
1752653996.2693982,2.063225571309225,-2.003307958642477,1.1544640064239502,-1.630141397515768,-1.5733988920794886,-3.617821756993429,-0.0125904288142919,0.0166732259094715,0.0607949532568454,0.011983067728579,-0.0272578541189432,0.0653266832232475,-0.01631193350013825,-0.4667683101464545,0.5861364166573871,0.9995506820427744,0.029944260571087525,-0.0010502745965292348,-0.0008198841059338558
1752653996.270898,2.0631735960589808,-2.0032555065550746,1.1545315980911257,-1.630113264123434,-1.5734265486346644,-3.617709223424093,-0.0119707835838198,0.0173919089138507,0.0616752281785011,0.0122526669874787,-0.0298926122486591,0.0663577541708946,-0.01629377440773536,-0.4667917284831527,0.5861461957681211,0.9995513317074963,0.029921821803413438,-0.0010566497609079348,-0.0008386614442656476
1752653996.2752757,2.0631735960589808,-2.0032555065550746,1.1545315980911257,-1.630113264123434,-1.5734265486346644,-3.617709223424093,-0.0119707835838198,0.0173919089138507,0.0616752281785011,0.0122526669874787,-0.0298926122486591,0.0663577541708946,-0.01629377440773536,-0.4667917284831527,0.5861461957681211,0.9995513317074963,0.029921821803413438,-0.0010566497609079348,-0.0008386614442656476
1752653996.2780738,2.0631735960589808,-2.0032555065550746,1.1545315980911257,-1.630113264123434,-1.5734265486346644,-3.617709223424093,-0.0119707835838198,0.0173919089138507,0.0616752281785011,0.0122526669874787,-0.0298926122486591,0.0663577541708946,-0.01629377440773536,-0.4667917284831527,0.5861461957681211,0.9995513317074963,0.029921821803413438,-0.0010566497609079348,-0.0008386614442656476
1752653996.2793126,2.0631735960589808,-2.0032555065550746,1.1545315980911257,-1.630113264123434,-1.5734265486346644,-3.617709223424093,-0.0119707835838198,0.0173919089138507,0.0616752281785011,0.0122526669874787,-0.0298926122486591,0.0663577541708946,-0.01629377440773536,-0.4667917284831527,0.5861461957681211,0.9995513317074963,0.029921821803413438,-0.0010566497609079348,-0.0008386614442656476
1752653996.2814012,2.0631735960589808,-2.0032555065550746,1.1545315980911257,-1.630113264123434,-1.5734265486346644,-3.617709223424093,-0.0119707835838198,0.0173919089138507,0.0616752281785011,0.0122526669874787,-0.0298926122486591,0.0663577541708946,-0.01629377440773536,-0.4667917284831527,0.5861461957681211,0.9995513317074963,0.029921821803413438,-0.0010566497609079348,-0.0008386614442656476
1752653996.2834034,2.063096348439352,-2.003106256524557,1.1553711891174316,-1.62998165706777,-1.5738228003131312,-3.61688191095461,-0.0129663562402129,0.0205996297299861,0.0747315734624862,0.0132738789543509,-0.0326627604663372,0.0788848623633384,-0.015967039247386523,-0.46683858931313715,0.5861191804988113,0.9995508257726395,0.02992816238136127,-0.001192292781729144,-0.0010150032669400584
1752653996.2844272,2.0630419890033167,-2.002995630303854,1.1555144786834717,-1.629982133904928,-1.573878590260641,-3.6167259852038782,-0.0131123205646872,0.021156134083867,0.0748756900429725,0.0156011506915092,-0.034023854881525,0.0810748860239982,-0.01592752256418173,-0.46688684455582247,0.5861088125986833,0.999550959029496,0.029921899694102055,-0.0012056075656335324,-0.0010520134546103557
1752653996.2879984,2.0629943052874964,-2.0029732189574183,1.155720591545105,-1.629970212975973,-1.5739458242999476,-3.6165910402881063,-0.013367841951549,0.0211943462491035,0.0771712511777877,0.0128775183111429,-0.034352209419012,0.0838317275047302,-0.015844467263464966,-0.4669005858731851,0.5861306057871111,0.9995498440372694,0.029957470136080463,-0.0012390033009229784,-0.0010602541849029474
1752653996.288529,2.062948528920309,-2.002995630303854,1.1558564901351929,-1.6298524341978968,-1.5740144888507288,-3.616373602543966,-0.0133026530966162,0.0209357645362615,0.0800542011857032,0.0132538424804806,-0.0339280776679515,0.0858810469508171,-0.015781922841299572,-0.4668849419662945,0.5861578438783888,0.9995509974957628,0.029916771345146975,-0.0012595109949895252,-0.0010971916702019928
1752653996.2907815,2.062912766133444,-2.002894540826315,1.156015396118164,-1.629897733727926,-1.5740941206561487,-3.61622673669924,-0.0133196506649255,0.0212527364492416,0.081093855202198,0.0121105853468179,-0.0346880964934825,0.0879501029849052,-0.01573704786490416,-0.4669309912859192,0.5861441465215349,0.999550746979621,0.029922820983324275,-0.0012913141754102354,-0.0011231672101903805
1752653996.2928703,2.062921826039449,-2.0028535328307093,1.1561707258224487,-1.6298204861082972,-1.574190918599264,-3.6160994211779993,-0.0141080897301435,0.0218013655394315,0.0826294273138046,0.013283958658576,-0.0371105782687664,0.0906956419348716,-0.015677361352532525,-0.46693460189361136,0.5861108968798074,0.9995502117179764,0.02993694859495687,-0.001307790242506469,-0.0012012693507747784
1752653996.2950535,2.0628941694842737,-2.0027924976744598,1.1563715934753418,-1.629833837548727,-1.574214283620016,-3.6159120241748255,-0.0141983721405267,0.0227216202765703,0.0844841301441192,0.0124107468873262,-0.0377288684248924,0.0928067862987518,-0.015598334003187185,-0.4669645429874837,0.5861051235091145,0.9995499842016896,0.02994370333747738,-0.0013142665756887392,-0.0012150786835337752
1752653996.296528,2.062824074422018,-2.002733369866842,1.1565396785736084,-1.6297971210875453,-1.5743377844439903,-3.615669075642721,-0.0146720772609114,0.0231974385678768,0.0859332904219627,0.0126054771244525,-0.0384752713143825,0.0948361381888389,-0.015545205224869326,-0.46698907605206447,0.5861235147685232,0.9995509883626673,0.02990634065283235,-0.001364742626049779,-0.0012529682902471713
1752653996.298928,2.062812630330221,-2.0027762852110804,1.156691551208496,-1.62979855159902,-1.5743816534625452,-3.615513149891989,-0.0147526571527123,0.0238950680941343,0.0876732170581817,0.0130605092272162,-0.0391993857920169,0.0942896008491516,-0.015472724314096393,-0.4669751801292914,0.5861502175278139,0.9995510258481298,0.029904276243154827,-0.0013967257987075952,-0.0012369904476574125
1752653996.300526,2.0628183523761194,-2.0026542148985804,1.1568876504898071,-1.6298028431334437,-1.5744698683368128,-3.615346733723776,-0.0155346468091011,0.0249100904911756,0.0894824266433715,0.0126392915844917,-0.0399348884820938,0.1010082736611366,-0.015410322005086224,-0.4670190484873256,0.5860938704011748,0.9995504640096794,0.029919243892353765,-0.0014102681348491595,-0.0013114445211873747
1752653996.304628,2.062765423451559,-2.0026313267149867,1.1570429801940918,-1.6297084293761197,-1.5745614210711878,-3.6151190439807337,-0.0154878925532102,0.0257859881967306,0.091422863304615,0.0131395915523171,-0.0403899140655994,0.1002191379666328,-0.015350065326268538,-0.4670228750992528,0.5861092122013278,0.9995514390022685,0.029883164051103285,-0.0014380487917012494,-0.0013598935479445246
1752653996.3050354,2.062765423451559,-2.0026313267149867,1.1570429801940918,-1.6297084293761197,-1.5745614210711878,-3.6151190439807337,-0.0154878925532102,0.0257859881967306,0.091422863304615,0.0131395915523171,-0.0403899140655994,0.1002191379666328,-0.015350065326268538,-0.4670228750992528,0.5861092122013278,0.9995514390022685,0.029883164051103285,-0.0014380487917012494,-0.0013598935479445246
1752653996.30678,2.0627267996417444,-2.0025764904417933,1.1574852466583252,-1.6296936474242152,-1.5747011343585413,-3.614649836217062,-0.0163892917335033,0.0254984851926565,0.0948338955640792,0.0129199586808681,-0.0437019020318985,0.1057064160704612,-0.015169007059697131,-0.46704720051122955,0.5861103762422845,0.9995516958055606,0.029869768060181677,-0.001495130668154172,-0.001403193694500021
1752653996.3089814,2.062704865132467,-2.002512117425436,1.1576809883117676,-1.6296869717040003,-1.574813191090719,-3.614478890095846,-0.0163852646946907,0.0254555027931928,0.0962354987859726,0.0124133788049221,-0.0429313480854034,0.1071163043379783,-0.015101042231833306,-0.467071140688934,0.5860968417047224,0.9995511962983826,0.02988224086665009,-0.0015354812735046762,-0.00144912267191368
1752653996.3108177,2.062602821980612,-2.0024715862669886,1.157848238945007,-1.629678388635153,-1.5749743620501917,-3.614222590123312,-0.017082056030631,0.025806725025177,0.097962886095047,0.0121662942692637,-0.0428934842348098,0.1113670766353607,-0.015052508271305772,-0.46709437460404957,0.5861487384982275,0.9995523777367892,0.02983772890968191,-0.001619940836327057,-0.0014594128717629973
1752653996.312727,2.0626757780658167,-2.0023557148375453,1.1580755710601809,-1.6296259365477503,-1.5750134626971644,-3.6140034834491175,-0.0166634954512119,0.0272050704807043,0.0986276790499687,0.0130355060100555,-0.045659702271223,0.1100028604269027,-0.01496246061055096,-0.467123279280856,0.5860418499497795,0.9995521234551353,0.02984210256800258,-0.0015862681301594165,-0.0015764403160466232
1752653996.3144495,2.062617603932516,-2.002443452874654,1.1582978963851929,-1.6295858822264613,-1.5751007238971155,-3.613786284123556,-0.0173442345112562,0.0287347845733165,0.1016879305243492,0.012964654713869,-0.047398567199707,0.1129184663295745,-0.014855315714446841,-0.467093704889555,0.5861153193168753,0.9995519945136269,0.029844581418568054,-0.0016487024308882755,-0.001546933765771882
1752653996.317128,2.062617603932516,-2.002443452874654,1.1582978963851929,-1.6295858822264613,-1.5751007238971155,-3.613786284123556,-0.0173442345112562,0.0287347845733165,0.1016879305243492,0.012964654713869,-0.047398567199707,0.1129184663295745,-0.014855315714446841,-0.467093704889555,0.5861153193168753,0.9995519945136269,0.029844581418568054,-0.0016487024308882755,-0.001546933765771882
1752653996.3187408,2.062483612691061,-2.002224107781881,1.1587536334991455,-1.6295377216734828,-1.5753453413592735,-3.6133349577533167,-0.0172553863376379,0.0301426239311695,0.1053623929619789,0.0140684926882386,-0.0459720119833946,0.1148120611906051,-0.014710036804101177,-0.4671838942632848,0.5861069830040869,0.9995516026200228,0.029847012685044912,-0.001731415066910064,-0.0016588355519995704
1752653996.320691,2.0624659697162078,-2.0022088489928187,1.1589319705963137,-1.6295105419554652,-1.5754416624652308,-3.613131109868185,-0.0179976765066385,0.0306603349745273,0.1064271181821823,0.0150137469172477,-0.0482785254716873,0.1171858161687851,-0.014639281551520507,-0.4671872213065361,0.5861093369175011,0.9995518611644438,0.02983432474575476,-0.0017699705314730486,-0.001690299967150785
1752653996.3227584,2.062404457722799,-2.002124925652975,1.1591598987579346,-1.629514833489889,-1.5755537191974085,-3.6128461996661594,-0.0183090399950742,0.0310598108917474,0.1076285392045974,0.0142081500962376,-0.0495813004672527,0.1195705831050872,-0.014562299098282038,-0.4672254825865435,0.586115943454033,0.9995525701651795,0.02980590709157164,-0.001817190192312147,-0.0017219751558656448
1752653996.3244977,2.0623887220965784,-2.0020581684508265,1.1594061851501465,-1.6294905147948209,-1.5756405035602017,-3.6126139799701136,-0.018748465925455,0.0317417122423648,0.1084726750850677,0.0147704929113388,-0.0502342581748962,0.1206638216972351,-0.014467136531172774,-0.4672493944349809,0.5860949672052469,0.9995522225656064,0.029813058341967045,-0.0018407525793867393,-0.0017741325757336828
1752653996.3266366,2.0623887220965784,-2.001961847344869,1.15962016582489,-1.6294294796385709,-1.5757649580584925,-3.612387720738546,-0.0191891565918922,0.0325522236526012,0.111578494310379,0.0149215953424572,-0.051828809082508,0.1238229125738143,-0.014393207819885382,-0.467275941242638,0.5860459258074886,0.999552178208213,0.02980716151589917,-0.0018638346774903889,-0.0018714384513320455
1752653996.328742,2.062312428151266,-2.0019012890257777,1.1598360538482666,-1.6294390163817347,-1.5758608023272913,-3.61214787164797,-0.0193832460790872,0.0329882688820362,0.1122155338525772,0.0155301308259367,-0.0525764152407646,0.1247644871473312,-0.014317430758372543,-0.4673086803449199,0.5860734886605339,0.9995524260145917,0.02979519407608137,-0.001912994032159027,-0.0018800298257427807
1752653996.3306446,2.06226617494692,-2.001911779443258,1.1600383520126345,-1.629390378991598,-1.5759480635272425,-3.6118913332568567,-0.0198566000908613,0.033421404659748,0.1148838847875595,0.0157581381499767,-0.0532598495483398,0.1260628700256347,-0.014231046740825863,-0.46730481470385105,0.5861041972722918,0.9995531250471927,0.029768111005860423,-0.0019546185479250838,-0.0018945294576796512
1752653996.3326857,2.062270466481344,-2.0017672977843226,1.1603153944015503,-1.6293255291380824,-1.5760601202594202,-3.6116064230548304,-0.0203448385000228,0.0342198796570301,0.1163816228508949,0.0159136112779378,-0.0547161772847175,0.1299773901700973,-0.014133648823288061,-0.4673496918260735,0.5860308199387203,0.9995529868113899,0.02976450183172678,-0.0019603172996459305,-0.002014483363850022
1752653996.3346791,2.062176529561178,-2.001711984673971,1.1605634689331057,-1.6293097935118617,-1.5761917273150845,-3.611392561589376,-0.0203728768974542,0.0347203984856605,0.1177437677979469,0.0161194112151861,-0.055957693606615,0.1273944079875946,-0.014045655514655505,-0.4673789782268609,0.5860698316147266,0.9995523124325422,0.02978162988506841,-0.0020251924212165077,-0.002031705638951765
1752653996.336713,2.0621660391436976,-2.001610418359274,1.160798192024231,-1.6292740307249964,-1.5763075987445276,-3.611107412968771,-0.0204508509486913,0.0354703441262245,0.1188309863209724,0.0162174273282289,-0.056142259389162,0.133590430021286,-0.013963714552152241,-0.467412262635776,0.5860287649434684,0.9995528343588399,0.029756652973634785,-0.0020511448864690344,-0.0021132282581182316
1752653996.3392715,2.0620983282672327,-2.001542707482809,1.1610676050186155,-1.629216333428854,-1.5763991514789026,-3.6108525435077112,-0.0212217420339584,0.035679642111063,0.1200976148247718,0.0165739022195339,-0.0561218820512294,0.1319047212600708,-0.013859906395746076,-0.46744015199551947,0.5860392473093556,0.9995524566190832,0.029764045117571063,-0.0020808501540823766,-0.002158274225199918
1752653996.3411634,2.0620973745929163,-2.0014759502806605,1.1613116264343262,-1.6292225323119105,-1.5765469709979456,-3.61055571237673,-0.0216360241174697,0.0364442691206932,0.1215194836258888,0.0165164917707443,-0.0568489879369735,0.1367477923631668,-0.013772763147614657,-0.4674622793023587,0.5860117529684967,0.9995529953485972,0.029737809408923618,-0.0021356548319991296,-0.002216113635196646
1752653996.342902,2.0620973745929163,-2.0014759502806605,1.1613116264343262,-1.6292225323119105,-1.5765469709979456,-3.61055571237673,-0.0216360241174697,0.0364442691206932,0.1215194836258888,0.0165164917707443,-0.0568489879369735,0.1367477923631668,-0.013772763147614657,-0.4674622793023587,0.5860117529684967,0.9995529953485972,0.029737809408923618,-0.0021356548319991296,-0.002216113635196646
1752653996.3448198,2.06193715730776,-2.0013538799681605,1.1617944240570068,-1.6290885410704554,-1.5767791906939903,-3.60999042192568,-0.0219548176974058,0.037747848778963,0.1248530000448226,0.0176470782607793,-0.0567736439406871,0.1398193389177322,-0.013595005962679787,-0.46751140866453983,0.5860534336289367,0.9995538188681867,0.029696840376160962,-0.002221574732264003,-0.0023076965584993216
1752653996.346599,2.061946217213766,-2.001204629937643,1.1620970964431765,-1.6291543445982877,-1.576874081288473,-3.6097360293017786,-0.0225880872458219,0.038399301469326,0.1267095059156417,0.0174698326736688,-0.0576034113764762,0.1390687525272369,-0.0134902022530873,-0.46757241414539547,0.5859902841392295,0.9995528988850865,0.029721158441498214,-0.002245540301919005,-0.002369096888678137
1752653996.3493607,2.061840836201803,-2.0011807880797328,1.1623467206954956,-1.6290489635863246,-1.5770514647113243,-3.609447781239645,-0.0227116327732801,0.0392540246248245,0.1277551651000976,0.0189568623900413,-0.0587980188429355,0.1423211991786956,-0.013397746968592656,-0.46757977779400717,0.5860401735857611,0.9995531808175149,0.02970198954145055,-0.0023214330210821646,-0.002416916133565125
1752653996.3532472,2.061871353779928,-2.001084466973776,1.1626070737838743,-1.629033704797262,-1.5771711508380335,-3.6091225782977503,-0.0228293184190988,0.0398016162216663,0.1309882402420044,0.0190684590488672,-0.0595036968588829,0.1441464126110077,-0.013301767256107868,-0.46760766464267106,0.5859755314186099,0.9995538576449684,0.029669869232431558,-0.0023462129927092593,-0.002505955184278537
1752653996.354865,2.061837498341696,-2.0009266338744105,1.1631755828857422,-1.6289664707579554,-1.5774272123919886,-3.608600680028097,-0.0228967666625976,0.0409925617277622,0.1332174241542816,0.0198335014283657,-0.0608979202806949,0.1473952978849411,-0.013087600492269718,-0.4676595412828625,0.5859224711072357,0.9995526091626528,0.029693628099886966,-0.0024230705379566643,-0.0026455047848809466
1752653996.356852,2.0617263952838343,-2.000805517236227,1.1634752750396729,-1.6289259395995082,-1.577493969594137,-3.608277146016256,-0.0232878495007753,0.0414988957345485,0.135119616985321,0.0195608679205179,-0.0617007724940776,0.1497055888175964,-0.01297883216305043,-0.46771654836226295,0.5859417087638655,0.9995528130895304,0.029681838479528704,-0.0024434405291088868,-0.0026817732309501775
1752653996.358803,2.0616653601275843,-2.000742574731344,1.1637121438980105,-1.6288825474181117,-1.5776422659503382,-3.607918564473288,-0.0233623199164867,0.0420676320791244,0.1367584317922592,0.0200485531240701,-0.061818391084671,0.1501998007297516,-0.012895672151351425,-0.46774003346616144,0.5859513992004064,0.9995543294055613,0.029621181850013854,-0.002501848048046605,-0.0027329304329602186
1752653996.360766,2.0615628401385706,-2.0006801090636195,1.1640533208847046,-1.6288420162596644,-1.5777977148639124,-3.607656542454855,-0.024211024865508,0.0425704829394817,0.1381024271249771,0.0211603753268718,-0.0654211193323135,0.1527211666107177,-0.012767021250278522,-0.4677704188687909,0.5859902700721319,0.9995528837091182,0.02966084470317203,-0.0025730110209310716,-0.002765244033810422
1752653996.362887,2.061561886464254,-2.0006004772582,1.1643478870391846,-1.6288029156126915,-1.577970329915182,-3.607377354298727,-0.0240072254091501,0.0427970141172409,0.1404427289962768,0.0214645881205797,-0.0647220388054847,0.1575054824352264,-0.012658719433292186,-0.4677917840058602,0.5859517840016382,0.9995522547627261,0.029668852178247187,-0.002627156556525001,-0.002854340134437898
1752653996.3645945,2.061584774647848,-2.0004784069457,1.1645950078964231,-1.6287504635252894,-1.5780780951129358,-3.607037130986349,-0.0238786712288856,0.0431123822927475,0.1415918618440628,0.0216299369931221,-0.0637709647417068,0.1568328589200973,-0.012570404742995079,-0.46782655072554835,0.5858767500647136,0.9995532765248358,0.0296227503179374,-0.0026351709901780334,-0.0029657926290795875
1752653996.366613,2.0614870230304163,-2.000387807885641,1.1649410724639893,-1.628718992272848,-1.5781858603106895,-3.606742207204,-0.0245867036283016,0.0436976104974746,0.1435344368219375,0.0222450010478496,-0.0660543367266655,0.1585541665554046,-0.012438945134878086,-0.4678698969937545,0.585901139190465,0.9995522981092686,0.02964843264265817,-0.002679844578951075,-0.002998702943987403
1752653996.369244,2.061441723500387,-2.0003372631468714,1.1652783155441284,-1.6286736927428187,-1.578334156666891,-3.6063595453845423,-0.0252096988260746,0.043500505387783,0.1449688673019409,0.0224540960043668,-0.0673336088657379,0.1614355891942978,-0.012305743746941634,-0.46788752010787926,0.5859051347515165,0.9995526478116252,0.02962593696027406,-0.002737508384610553,-0.0030519108504624957
1752653996.3709545,2.061403099690573,-2.0002433262267054,1.1655406951904297,-1.6286422214903773,-1.5784333387957972,-3.606044594441549,-0.0265027489513158,0.0450138747692108,0.1470007449388504,0.0233393441885709,-0.0649613216519355,0.1622878760099411,-0.012209470242070239,-0.4679231636760132,0.5858872659193037,0.9995531599555857,0.029599900995146873,-0.0027650844520797175,-0.003111364950285204
1752653996.372667,2.06134540239443,-2.000134130517477,1.1658408641815186,-1.6285864315428675,-1.5785859266864222,-3.6056907812701615,-0.0264286212623119,0.0464113727211952,0.1486646085977554,0.024659352377057,-0.0679230242967605,0.1632889211177826,-0.012103672551967443,-0.46796252544910905,0.5858730613790799,0.9995535592187682,0.02957341470854501,-0.00281272187989254,-0.0031912366247597384
1752653996.3795383,2.0611842314349573,-1.9999553165831507,1.1664931774139404,-1.628486772576803,-1.578876797352926,-3.605044905339376,-0.0260411277413368,0.0451962575316429,0.1522744297981262,0.0242954567074775,-0.070555180311203,0.1673099845647812,-0.011863127498782156,-0.4680353939018032,0.5858948516593411,0.9995527708992212,0.029577097369760122,-0.002922094976757086,-0.003303764491502781
1752653996.3798103,2.061114136372701,-1.99983086208486,1.1667969226837158,-1.6284343204894007,-1.5790331999408167,-3.604697052632467,-0.0270792376250028,0.0454944111406803,0.1548195332288742,0.0235283002257347,-0.0714989602565765,0.1700306534767151,-0.011759322712914478,-0.4680823314644305,0.5858829580947454,0.9995529976145912,0.029555399392922965,-0.0029717010610625172,-0.0033841275409691096
1752653996.380468,2.061094586049215,-1.9997545681395472,1.1671653985977173,-1.62841858486318,-1.5791905562030235,-3.604344669972555,-0.0278194863349199,0.0478696636855602,0.1549492478370666,0.0240381173789501,-0.0737497583031654,0.1723134815692901,-0.011616295848499922,-0.4681088984794604,0.5858615283364987,0.9995523573667211,0.029563726154602475,-0.003029118420280787,-0.0034489737723204885
1752653996.382485,2.061094586049215,-1.9997545681395472,1.1671653985977173,-1.62841858486318,-1.5791905562030235,-3.604344669972555,-0.0278194863349199,0.0478696636855602,0.1549492478370666,0.0240381173789501,-0.0737497583031654,0.1723134815692901,-0.011616295848499922,-0.4681088984794604,0.5858615283364987,0.9995523573667211,0.029563726154602475,-0.003029118420280787,-0.0034489737723204885
1752653996.3863697,2.060950581227438,-1.999584814111227,1.167781114578247,-1.6282783947386683,-1.5794766584979456,-3.603653732930319,-0.0284703113138675,0.047198724001646,0.1584500968456268,0.0262480117380619,-0.0739881098270416,0.1758656054735183,-0.011387873324564491,-0.4681712067691454,0.5858705610393817,0.9995526821209033,0.029526735499527192,-0.0031264677944879997,-0.0035822834588119514
1752653996.388944,2.060908619557516,-1.999394556085104,1.1684449911117554,-1.6281777820982877,-1.5797718206988731,-3.60290509859194,-0.0301171578466892,0.0489172600209713,0.1617373079061508,0.0271537657827138,-0.0730974003672599,0.1777247637510299,-0.011136788640624342,-0.46823115923127645,0.5858050072294916,0.999553007188215,0.02948519370178699,-0.0032109402520439758,-0.0037548683148816066
1752653996.3905828,2.0608108679400843,-1.9992152653136197,1.1687817573547363,-1.6281262836852015,-1.5799005667315882,-3.6025458017932337,-0.0287157166749238,0.0488235987722873,0.1640169322490692,0.0281947031617164,-0.0759956613183021,0.1806167513132095,-0.01102479351527461,-0.46830399747348744,0.5857883930209542,0.999552896010422,0.02947435639265719,-0.0032428997273265966,-0.003841092784052327
1752653996.3925624,2.0607712904559534,-1.9991785488524376,1.1690847873687744,-1.62809481243276,-1.58010179201235,-3.6021650473224085,-0.0296588204801082,0.0498561896383762,0.1656849235296249,0.027068993076682,-0.0770562589168548,0.1802006661891937,-0.010911199002423731,-0.4683139925786792,0.5857961716601942,0.9995535389637574,0.029435778012824845,-0.0033296392212694855,-0.003895025091581471
1752653996.3946226,2.0606897513019007,-1.99906649212026,1.1694202423095703,-1.628030916253561,-1.5802739302264612,-3.601781193410055,-0.0312235783785581,0.0504735447466373,0.1676783412694931,0.0268075540661811,-0.0771627128124237,0.185157224535942,-0.010792230459454868,-0.4683561179017311,0.5857961999012884,0.9995537325797297,0.029411982751877747,-0.0033895320607292127,-0.003972660184667871
1752653996.39686,2.060629669819967,-1.9989496670165003,1.1697522401809692,-1.6279903850951136,-1.5803754965411585,-3.6014443079577845,-0.0319170542061328,0.0501565411686897,0.1694682985544204,0.0264327600598335,-0.0788571089506149,0.1861288845539093,-0.010667828655228884,-0.4684026792974655,0.5857820572189638,0.9995534446324369,0.029409874003048876,-0.0034167152525179864,-0.004036916080125172
1752653996.3985338,2.06057864824404,-1.9988256893553675,1.1701252460479736,-1.62793030361318,-1.580555264149801,-3.601016108189718,-0.0317511707544326,0.0520907677710056,0.171419620513916,0.0280185025185346,-0.0800664275884628,0.1875948458909988,-0.010532278143057844,-0.46844537656088636,0.5857563014610342,0.9995536547194466,0.029382798105806577,-0.003472298086538636,-0.004133480188533081
1752653996.4005458,2.060490433369772,-1.9988395176329556,1.170461654663086,-1.6278611622252406,-1.5807459990130823,-3.600664917622701,-0.0319910123944282,0.0523574650287628,0.174001857638359,0.0288069229573011,-0.0812222734093666,0.1895624250173568,-0.010395059278485157,-0.4684399921267618,0.5858151410379638,0.9995534359523525,0.02937553608939821,-0.003567269178850151,-0.004157059767710427
1752653996.4030066,2.060413185750143,-1.998690744439596,1.1707192659378052,-1.6278029880919398,-1.5808761755572718,-3.6002898851977747,-0.0326845049858093,0.0515330098569393,0.1759669482707977,0.0289985258132219,-0.0817936509847641,0.1908658444881439,-0.010313761174233773,-0.46849681957832007,0.585796847043093,0.9995546684134221,0.029317313590539382,-0.0036007648554386264,-0.004241988828799333
1752653996.4050207,2.060329262410299,-1.9985410175719205,1.171133518218994,-1.6277829609312953,-1.5810554663287562,-3.599877897893087,-0.0325675196945667,0.0518247634172439,0.178813174366951,0.0295193623751401,-0.0826236829161644,0.1911432296037674,-0.010166597577345097,-0.4685584158859016,0.5857873429781654,0.9995540648747675,0.029318860544503198,-0.0036661887339831545,-0.004316812350322278
1752653996.4075525,2.060261074696676,-1.9984151325621544,1.171477198600769,-1.627637048760885,-1.5812323729144495,-3.5994730631457728,-0.0333525016903877,0.0537305027246475,0.1811712980270385,0.0301697198301553,-0.08381337672472,0.1956183612346649,-0.010041780494217669,-0.46859467902233615,0.585762346999231,0.9995542322018731,0.029289019531129685,-0.0037059455036945557,-0.004444793600721005
1752653996.4086547,2.06019097963442,-1.9983869991698209,1.1718205213546753,-1.6276256046690882,-1.581400219594137,-3.5990610758410853,-0.034257311373949,0.054573468863964,0.1842932552099228,0.0300681795924901,-0.0857671946287155,0.1960228681564331,-0.00990698389579164,-0.4686096136650934,0.5857972780897044,0.999554830205846,0.029254819815926675,-0.0037903048718099606,-0.004464360948520436
1752653996.410635,2.0601351896869105,-1.9982582531371056,1.1721774339675903,-1.6275464497008263,-1.5815871397601526,-3.5986607710467737,-0.034910961985588,0.0539872385561466,0.1865762770175933,0.0304652526974678,-0.0873744711279869,0.2001981288194656,-0.009779752839708465,-0.4686520229714388,0.5857704584687928,0.9995547542481694,0.02923375569487329,-0.0038454731627393574,-0.004570899693578242
1752653996.4125123,2.060162369404928,-1.998155256310934,1.1725363731384275,-1.627531190911764,-1.5817669073687952,-3.598261896763937,-0.0353793948888778,0.0552764274179935,0.1884022951126098,0.0308202095329761,-0.0870480015873909,0.201649934053421,-0.009644723575266361,-0.4686803623828529,0.5857052431415486,0.9995546416483874,0.029214406235283322,-0.003898853331506877,-0.004672876007679242
1752653996.4149525,2.060014073048727,-1.9979917011656705,1.1728519201278689,-1.6274353466429652,-1.581970516835348,-3.597833220158712,-0.0357001163065433,0.0559394508600235,0.1908637285232544,0.031134508550167,-0.0908720269799232,0.2018807530403137,-0.009548795961730113,-0.46874576266667944,0.5857250815141037,0.999555564405199,0.02915842432246883,-0.003970239573618619,-0.004764153163275525
1752653996.4165356,2.059893433247701,-1.9978791675963343,1.1733051538467407,-1.627390523950094,-1.5821340719806116,-3.59741980234255,-0.0361769534647464,0.0564703717827796,0.1928278356790542,0.0317710302770137,-0.0879546627402305,0.2035665810108184,-0.009376657317806049,-0.4687968241147051,0.5857541065320597,0.9995544646641848,0.029178632598511178,-0.004039151858921495,-0.004812984711845919
1752653996.4221442,2.0598390738116663,-1.9977675877013148,1.1736608743667605,-1.6272851429381312,-1.5823753515826624,-3.597009007130758,-0.0363207980990409,0.0571769662201404,0.1949342638254165,0.0320366434752941,-0.0877275764942169,0.2052875161170959,-0.00925174014993615,-0.46882719496218445,0.5857307185770575,0.9995543301449809,0.02915187813755642,-0.004117221772972258,-0.004935339334212079
1752653996.422623,2.0597289244281214,-1.997483869592184,1.1744496822357178,-1.627176900903219,-1.5827420393573206,-3.596189324055807,-0.0386317372322082,0.0585093274712562,0.1994023770093917,0.0323408804833889,-0.0882504135370254,0.2106820791959762,-0.00896730106877204,-0.4689276639363811,0.5856705881456046,0.9995532597757892,0.029137757058311682,-0.004230025402302873,-0.005136036438761538
1752653996.4247236,2.059686009083883,-1.9973732433714808,1.1748948097229004,-1.6271311245360316,-1.582897965108053,-3.5957651774035853,-0.0371870137751102,0.058989942073822,0.2021156847476959,0.0325636751949787,-0.0894937217235565,0.2125163823366165,-0.008793069987832417,-0.46896703530137174,0.5856467067665476,0.9995523009744062,0.0291487959405739,-0.004279883417988233,-0.005218036978892535
1752653996.4267254,2.0595420042621058,-1.997295995751852,1.1752536296844482,-1.6270786724486292,-1.5829833189593714,-3.595355812703268,-0.0363307781517505,0.0594239383935928,0.2038516551256179,0.0334541387856006,-0.0902425721287727,0.2143705785274505,-0.008652138078324224,-0.4690098293849561,0.5857061944538127,0.9995527971855116,0.0291236118941961,-0.004323720112944069,-0.005227457626860017
1752653996.428785,2.0594967047320765,-1.997143884698385,1.1756211519241333,-1.6269694767394007,-1.5832527319537562,-3.594955269490377,-0.0383045896887779,0.0600333213806152,0.2052432894706726,0.0351860113441944,-0.0903263688087463,0.2141511589288711,-0.00853019575047432,-0.4690523194135721,0.585658464992191,0.9995520893609201,0.029108148978158638,-0.0044040278827907715,-0.005379670593273552
1752653996.430744,2.059431854878561,-1.9970199070372523,1.1760413646697998,-1.6269871197142542,-1.5834372679339808,-3.5944483915912078,-0.037983763962984,0.0604793205857276,0.2076637595891952,0.0332692302763462,-0.0945936888456344,0.2168943136930465,-0.008376863379648545,-0.46910500114442305,0.5856514735101789,0.9995526947180259,0.0290652331116217,-0.00448209480448815,-0.005434476263980422
1752653996.4325469,2.059273068104879,-1.996838708917135,1.176437258720398,-1.6268745861449183,-1.5836098829852503,-3.5940378347979944,-0.040028054267168,0.0611689165234565,0.2108882069587707,0.0339147560298442,-0.0922028943896293,0.2188364416360855,-0.008242172743117667,-0.46917853446495,0.5856687618152898,0.99955212637941,0.029058583350243007,-0.004535248175184654,-0.005529639053881423
1752653996.4345186,2.0591862837420862,-1.9967943630614224,1.1769227981567385,-1.626815935174459,-1.583796803151266,-3.593594376240865,-0.040155429393053,0.061190940439701,0.2134494930505752,0.0344782695174217,-0.0955264195799827,0.2228382527828216,-0.008043829540857597,-0.4691966113490315,0.5857025487840819,0.9995508759234935,0.029079945641397285,-0.004619712632778001,-0.005573280655140886
1752653996.4369023,2.059133831654684,-1.996613164941305,1.1773149967193604,-1.626730581323141,-1.5840213934527796,-3.5931711832629603,-0.0385135784745216,0.0613377168774604,0.2159385532140731,0.0351371057331562,-0.0956888496875763,0.2247121632099151,-0.007911357307252757,-0.46925563336286075,0.5856498206711002,0.9995502129263985,0.029065489128466637,-0.0046805031951906,-0.0057150739587706265
1752653996.438858,2.05906325975527,-1.9965197048582968,1.1777061223983765,-1.626695772210592,-1.5841754118548792,-3.592691723500387,-0.0385792292654514,0.0621138885617256,0.217180386185646,0.0348820462822914,-0.095106653869152,0.2268590778112411,-0.007761469456898356,-0.46929298251646234,0.5856537837710121,0.9995508753897056,0.02902177069843235,-0.004741420818458288,-0.005770897835121145
1752653996.441045,2.058999840413229,-1.9963790378966275,1.178100824356079,-1.626598974267477,-1.584362808858053,-3.5922465960132044,-0.0410757176578044,0.062831625342369,0.2186585217714309,0.0352580323815345,-0.097499631345272,0.2285467982292175,-0.007617582237890375,-0.469338755350619,0.5856248790244605,0.99955065700122,0.02899744364748813,-0.004793714829155523,-0.005886650021606149
1752653996.4427097,2.058873001729147,-1.996218820611471,1.1785458326339722,-1.626547475854391,-1.5845759550677698,-3.591762367879049,-0.0412228479981422,0.0634314119815826,0.2198603749275207,0.0351482629776001,-0.0975218415260315,0.2309795916080474,-0.007461591144351527,-0.4694049185489124,0.5856365946051156,0.999550332674289,0.028978472635000443,-0.004876353574153852,-0.005966720228109952
1752653996.4446523,2.0588205496417444,-1.9960924587645472,1.1790229082107544,-1.6264049015440882,-1.5847790876971644,-3.5913315455066126,-0.0406580083072185,0.0628879815340042,0.2211612164974212,0.034803107380867,-0.097878023982048,0.2348513454198837,-0.0072757435900667,-0.4694386367927018,0.585600942994682,0.9995485462324318,0.02900266424058472,-0.004927554990750365,-0.006104784467378476
1752653996.446588,2.058739010487692,-1.9959193668761197,1.1794334650039673,-1.626378675500387,-1.584970776234762,-3.590909306203024,-0.0411771349608898,0.0652763918042182,0.2229453325271606,0.0351391956210136,-0.0978628024458885,0.2378346920013427,-0.007133987907526413,-0.4695065544490532,0.5855787649851673,0.9995478079953731,0.02899755816217432,-0.004993564259096296,-0.00619560071875696
1752653996.4485023,2.058664147053854,-1.9957996807494105,1.1799170970916748,-1.6263061962523402,-1.5851247946368616,-3.5904248396502894,-0.0415154546499252,0.0641438513994216,0.2253766357898712,0.035680953413248,-0.0983291417360305,0.2401679456233978,-0.00694310752193354,-0.4695506590216229,0.5855697348278526,0.999547037477278,0.028997817572325887,-0.005042973548265874,-0.006278125853345954
1752653996.450477,2.0584963003741663,-1.9956652126707968,1.180365800857544,-1.6262875996031705,-1.5853288809405726,-3.589902941380636,-0.0418183431029319,0.064090646803379,0.2265708893537521,0.0362475365400314,-0.0996073707938194,0.2412189841270446,-0.0067840965025602286,-0.4696168033772116,0.5856248425759435,0.9995473799362401,0.028961537753467992,-0.00514222801183848,-0.006310474199796898
1752653996.4528556,2.058516804371969,-1.995592256585592,1.1808338165283203,-1.6261712513365687,-1.5855863730060022,-3.589423243199484,-0.0423546954989433,0.0657588839530944,0.2283277958631515,0.0377050675451755,-0.1005657911300659,0.2417715042829513,-0.006596904138220983,-0.469620299725632,0.5855654321794707,0.999546179281323,0.028956908247739208,-0.005220158360819929,-0.006456229203569166
1752653996.4548178,2.0584328810321253,-1.9954239330687464,1.1812734603881836,-1.626115461389059,-1.585782829915182,-3.588975969945089,-0.0428975969552993,0.066194862127304,0.2305001765489578,0.0362068638205528,-0.1022524312138557,0.2435698211193084,-0.006439897690108716,-0.46968335345556694,0.5855434492259852,0.9995452659770099,0.02895396204465252,-0.005284288304971591,-0.006557868706792463
1752653996.4565148,2.058315102254049,-1.9952551327147423,1.181696891784668,-1.6260353527464808,-1.5860088507281702,-3.588559929524557,-0.0431881472468376,0.0658781379461288,0.2323600798845291,0.0359287969768047,-0.102047212421894,0.2476101517677307,-0.006294601910560056,-0.4697472959199901,0.5855417473328044,0.9995440250175653,0.028958556621677987,-0.005363699147739083,-0.00666143989886385
1752653996.458494,2.0582783857928675,-1.9951373539366664,1.1822257041931152,-1.6260048351683558,-1.5862258116351526,-3.5879631678210657,-0.0435042083263397,0.0669290274381637,0.2337450832128524,0.0379193276166915,-0.1058385297656059,0.2514278590679168,-0.006088434552518754,-0.46978700669715445,0.5855123406214431,0.9995439333274668,0.028925421324494147,-0.005443988081967965,-0.0067533949403647195
1752653996.4605114,2.058181111012594,-1.9949728451170865,1.1826684474945068,-1.625869413415426,-1.5863664785968226,-3.587480608616964,-0.0436595492064952,0.0674880817532539,0.2350289821624755,0.0378732495009899,-0.1043039858341217,0.2525321841239929,-0.0059204479790217895,-0.469844194664125,0.5854916375914736,0.9995435264574067,0.0289065622920647,-0.005470374835982373,-0.006871999177856414
1752653996.4626296,2.0580666700946253,-1.9948340855040487,1.183108687400818,-1.6257568798460902,-1.5865781942950647,-3.5869694391833704,-0.0438154675066471,0.0682764872908592,0.2372244596481323,0.0397927388548851,-0.1093110740184784,0.2526653409004211,-0.005759327474499294,-0.4698934648887002,0.5854968679557697,0.9995434131051406,0.028872051779641576,-0.005542762016095272,-0.0069747927132547865
1752653996.4646704,2.0579870382892054,-1.9946981869139613,1.183679461479187,-1.6256429157652796,-1.586766544972555,-3.58647329012026,-0.044363584369421,0.0686217099428176,0.2396115362644195,0.0401675552129745,-0.1090348213911056,0.2540813088417053,-0.005531780224453077,-0.469938259193018,0.5854791395720245,0.9995412015059508,0.028910384066942206,-0.005598226570685347,-0.007087739019268793
1752653996.466469,2.057842079793112,-1.9945336780943808,1.1841179132461548,-1.6256176433958949,-1.5870140234576624,-3.585989061986105,-0.0449348241090774,0.0688602030277252,0.2411051392555236,0.0387493632733821,-0.1094908565282821,0.2579987645149231,-0.0053848410266887905,-0.47000932600608325,0.5855045758078615,0.9995407525332862,0.028888178643384593,-0.0057056544521837714,-0.007155603897083322
1752653996.468835,2.0578139464007776,-1.9944564304747523,1.1846424341201782,-1.6254884205260218,-1.587207142506735,-3.585461203251974,-0.0441698431968688,0.0712513327598571,0.2425650805234909,0.0391046144068241,-0.1096233129501342,0.2610520720481872,-0.00516684393659051,-0.470022513185535,0.5854751921984778,0.9995395983138915,0.02888761763552953,-0.005761825133403606,-0.0072731231929391476
1752653996.4710324,2.057692352925436,-1.994275232354635,1.1850988864898682,-1.6254078350462855,-1.5874508062945765,-3.584937874470846,-0.0463894978165626,0.0702329874038696,0.2430037260055542,0.0409708842635154,-0.107987567782402,0.2649838626384735,-0.0050096736850746264,-0.4700906462217768,0.5854706357738985,0.999539218988828,0.0288552680286444,-0.0058486662305321175,-0.007383516338625312
1752653996.4729931,2.057636562977926,-1.9941078625121056,1.1855579614639282,-1.6253658733763636,-1.5877001921283167,-3.5844464937793177,-0.046469647437334,0.0705580413341522,0.2434142827987671,0.0412304140627384,-0.1115754321217536,0.2623652219772339,-0.004847627413647786,-0.47014813908917746,0.5854313685508277,0.99953826398711,0.02884027998511106,-0.0059354401724980325,-0.007501174972862994
1752653996.4750578,2.057528797780172,-1.993993421594137,1.1860746145248413,-1.6253029308714808,-1.5879371801959437,-3.5838947931872767,-0.045895118266344,0.0729546695947647,0.2442634254693985,0.0412673912942409,-0.1093441322445869,0.2624888718128204,-0.004651152627612513,-0.47019166393476813,0.5854485599610123,0.9995375808085574,0.028823559530419363,-0.0060339620338026164,-0.007577484381206822
1752653996.4765058,2.057386223469869,-1.9938212833800255,1.1865696907043457,-1.6252023182311,-1.588085953389303,-3.583412233983175,-0.0467635504901409,0.0717164501547813,0.2455660253763198,0.0415119715034961,-0.1135982871055603,0.2676000595092773,-0.004464351774264028,-0.47026137992116485,0.5854598377474218,0.9995364386994595,0.02883068625435636,-0.006079668578130853,-0.007663998439750985
1752653996.4784887,2.057274166737692,-1.9937488041319789,1.1870501041412354,-1.6251517734923304,-1.5883424917804163,-3.582794491444723,-0.0476397462189197,0.0721733570098877,0.2478640377521515,0.0418908447027206,-0.11328986287117,0.2701033353805542,-0.004281369591981655,-0.47028996697547276,0.5854998596317719,0.9995372560168401,0.028762655883914984,-0.0061991852964393135,-0.00771709546978129
1752653996.480464,2.0572035948382776,-1.993570943871969,1.1875466108322144,-1.6250421009459437,-1.5885489622699185,-3.582336966191427,-0.0474028773605823,0.073443628847599,0.250033289194107,0.0427428036928176,-0.115015871822834,0.2688454985618591,-0.004096342845809701,-0.47034792334386394,0.5854580409174376,0.9995352402860986,0.028783532527830898,-0.006254017758296061,-0.0078548674915092
1752653996.482895,2.057174030934469,-1.993453165093893,1.1880288124084473,-1.6249963245787562,-1.588740650807516,-3.5817843119250696,-0.0493277907371521,0.0741098299622535,0.2512255012989044,0.0436817035079002,-0.1154995337128639,0.2692980170249939,-0.003907755819845643,-0.4703849525668095,0.5854218161636409,0.9995350519316685,0.028749339358394785,-0.006319125353804521,-0.007951358448439408
1752653996.4857988,2.057174030934469,-1.993453165093893,1.1880288124084473,-1.6249963245787562,-1.588740650807516,-3.5817843119250696,-0.0493277907371521,0.0741098299622535,0.2512255012989044,0.0436817035079002,-0.1154995337128639,0.2692980170249939,-0.003907755819845643,-0.4703849525668095,0.5854218161636409,0.9995350519316685,0.028749339358394785,-0.006319125353804521,-0.007951358448439408
1752653996.4882956,2.056917492543356,-1.9930764637389125,1.1890721321105957,-1.6247569523253382,-1.5892441908465784,-3.5806928316699427,-0.0482928119599819,0.0749989598989486,0.2540227174758911,0.0443556196987628,-0.1173444241285324,0.2756170630455017,-0.0035324774007977904,-0.47051895524572723,0.5854062956492219,0.9995325008487668,0.02872803498398908,-0.006486734877640794,-0.008209873543242792
1752653996.489009,2.056795422230856,-1.9929496250548304,1.1895835399627686,-1.6246983013548792,-1.5894878546344202,-3.580150429402486,-0.0508863069117069,0.0754774883389473,0.255431592464447,0.0449497811496257,-0.1187661066651344,0.279678076505661,-0.0033417396873956532,-0.4705688510190687,0.5854284219016802,0.9995316324048223,0.02871340590356684,-0.006590158910635852,-0.008284078047712109
1752653996.4906683,2.056685272847311,-1.9928199253477992,1.190159797668457,-1.6245891056456507,-1.5897114912616177,-3.579545323048727,-0.0522155873477458,0.0762612968683242,0.2570826709270477,0.0448823161423206,-0.1191904172301292,0.2798398733139038,-0.003115803283896493,-0.4706135920563923,0.5854350364210094,0.9995306402982833,0.028700113221864453,-0.006672010252950933,-0.00838372740136618
1752653996.4927585,2.056629482899801,-1.992609640161032,1.19063401222229,-1.624498029748434,-1.5899723211871546,-3.5789690653430384,-0.054205946624279,0.076934814453125,0.2583667933940887,0.0450432859361171,-0.1181249171495437,0.2795593738555908,-0.002951651182407122,-0.47068080480053964,0.5853711177757904,0.9995301838586157,0.028650895390197377,-0.006747270988750687,-0.00854471082637045
1752653996.4947245,2.0564683119403284,-1.992516656915182,1.1911776065826416,-1.6244222126402796,-1.590256992970602,-3.5784173647509974,-0.050687626004219,0.0776679888367652,0.260631263256073,0.0465232208371162,-0.1194338500499725,0.2829472422599792,-0.0027464563514160464,-0.4707198112452041,0.5854330687577305,0.9995288839920787,0.028647575382053075,-0.006881069911915493,-0.008601009658562121
1752653996.496769,2.056375805531637,-1.9923364124693808,1.191740870475769,-1.62430538753652,-1.5904277006732386,-3.577850643788473,-0.0531856752932071,0.0782845094799995,0.2615959942340851,0.0487452037632465,-0.1167160421609878,0.2861525416374206,-0.0025269834965319566,-0.47078217689538715,0.5854043422543072,0.9995275253466294,0.028647252549669135,-0.006923731776742042,-0.008724845791329823
1752653996.498636,2.056235138569967,-1.992194314996237,1.1922931671142578,-1.6242715320982877,-1.5906313101397913,-3.577245060597555,-0.0546417795121669,0.0794077590107917,0.2624484896659851,0.0453773438930511,-0.1200268417596817,0.2870524227619171,-0.0023168220713312205,-0.47084464822273053,0.5854354267738613,0.9995271709048172,0.028621301164556842,-0.007015277704316692,-0.008777335665868888
1752653996.5007527,2.056185070668356,-1.9920226536192835,1.1928813457489014,-1.6241585216917933,-1.5909488836871546,-3.5767231623279017,-0.0542035400867462,0.0799508318305015,0.2638449072837829,0.046811293810606,-0.1198775619268417,0.2883160710334778,-0.002097853190592788,-0.4708916651790374,0.5853820020350422,0.9995239510927104,0.028656382234629522,-0.007119602174848903,-0.00894394846316398
1752653996.5027184,2.056056801472799,-1.9918347797789515,1.193375587463379,-1.6240254841246546,-1.5911510626422327,-3.5761309305774134,-0.0546938255429267,0.0814976915717125,0.2656452357769012,0.0469758547842502,-0.1222322881221771,0.2886000573635101,-0.001916565856467483,-0.47095849408748514,0.5853726965806232,0.9995237625293638,0.028608891796130163,-0.007179287002473829,-0.009068477682457197
1752653996.5049057,2.0558798948871058,-1.9916254482665003,1.1939306259155271,-1.6239248714842738,-1.5913785139666956,-3.575538937245504,-0.0555115342140197,0.0816461145877838,0.2665683925151825,0.0495624840259552,-0.1242880672216415,0.2908463776111603,-0.001716683896791863,-0.47104290008469324,0.5853913803756885,0.9995227225671226,0.02859168848746513,-0.007262753380542964,-0.009170323591683521
1752653996.5080268,2.055859867726461,-1.9915420017638148,1.1944655179977417,-1.6238376102843226,-1.591687027608053,-3.574962917958395,-0.0556898340582847,0.081047847867012,0.2683534920215606,0.0484132058918476,-0.1247783005237579,0.2946300208568573,-0.0015079317581935393,-0.47105526666452247,0.5853589767834231,0.9995212429745641,0.02857272138851889,-0.00737994945719356,-0.009296277805955952
1752653996.5091352,2.055859867726461,-1.9915420017638148,1.1944655179977417,-1.6238376102843226,-1.591687027608053,-3.574962917958395,-0.0556898340582847,0.081047847867012,0.2683534920215606,0.0484132058918476,-0.1247783005237579,0.2946300208568573,-0.0015079317581935393,-0.47105526666452247,0.5853589767834231,0.9995212429745641,0.02857272138851889,-0.00737994945719356,-0.009296277805955952
1752653996.510632,2.055577580128805,-1.9912134609618128,1.195657730102539,-1.623662611047262,-1.5921357313739222,-3.573775593434469,-0.0570183210074901,0.0829147323966026,0.2720041871070862,0.0490824915468692,-0.1282528936862945,0.296444833278656,-0.0010521350997667594,-0.4711827103110514,0.5853896655214846,0.9995181062906684,0.028577522698059712,-0.00755386006951844,-0.009477319853634624
1752653996.5125625,2.0554454962359827,-1.991051813165182,1.1961790323257446,-1.6235877476134242,-1.5924165884601038,-3.5731423536883757,-0.0578671246767044,0.0840454846620559,0.2729917168617248,0.0494384877383708,-0.1265076100826263,0.2991465628147125,-0.0008651493576066235,-0.47124290681776687,0.5854015477140768,0.9995178562128558,0.02852290047743925,-0.007668015010333584,-0.009576053770323088
1752653996.5145602,2.055352512990133,-1.9908553562560023,1.1967633962631226,-1.6234799824156705,-1.5926550070392054,-3.5725401083575647,-0.0546176172792911,0.0850954875349998,0.2741449475288391,0.0498645268380641,-0.1264449059963226,0.3017998039722442,-0.0006452966887691969,-0.4713087577416325,0.5853672061025277,0.9995161454671909,0.028515754695681687,-0.007741997578701932,-0.00971535681466698
1752653996.516535,2.055265251790182,-1.990737100640768,1.197310209274292,-1.6233459911742152,-1.5929105917560022,-3.571918789540426,-0.0551578141748905,0.0855050534009933,0.2752733826637268,0.0513535141944885,-0.1261656284332275,0.3043183386325836,-0.0004319321499668439,-0.47134059834562314,0.5853601838594249,0.9995152650341131,0.028480132150780806,-0.007833002798563573,-0.009836722198893873
1752653996.519704,2.055153195058004,-1.9905487499632777,1.197885513305664,-1.6232544384398402,-1.5931242148028772,-3.5713382403003138,-0.0594817139208316,0.0867160037159919,0.2767177224159241,0.0500915348529815,-0.1274016499519348,0.3009498715400696,-0.00021410570907968751,-0.47140878529365116,0.5853443834255844,0.9995136027985988,0.028479038638076406,-0.007904219444435997,-0.009951155399754953
1752653996.520712,2.055054489766256,-1.9904076061644496,1.1984981298446655,-1.6231466732420865,-1.5933564344989222,-3.570728603993551,-0.0583190247416496,0.0870392471551895,0.2775733768939972,0.0512336231768131,-0.1289498955011367,0.3051575422286987,2.7768109212754413e-05,-0.4714545903721128,0.585338236521809,0.9995117551378766,0.02848202956505656,-0.007987907577659653,-0.010060748758794735
1752653996.5228724,2.0549805800067347,-1.99027742962026,1.1990718841552734,-1.6230126820006312,-1.593616787587301,-3.570037905369894,-0.0561037808656692,0.0885907337069511,0.2789492905139923,0.0521958693861961,-0.1297382265329361,0.3086225390434265,0.00025245098800559946,-0.47148850002310955,0.5853167964921003,0.999511300020462,0.02842541226400905,-0.008077100955085134,-0.010193993780087672
1752653996.5245037,2.0547855536090296,-1.990060945550436,1.1996852159500122,-1.6229549847044886,-1.5938313643084925,-3.5694449583636683,-0.0589374490082263,0.0871636420488357,0.2797904014587402,0.0527102686464786,-0.1313562840223312,0.3079567551612854,0.0004780684444430023,-0.4715826504781947,0.5853497701800434,0.999509501157732,0.02843668291461032,-0.008166688605453798,-0.010267295527911977
1752653996.5267403,2.05464488664736,-1.9899012051024376,1.2002232074737549,-1.6227971516051234,-1.5941274801837366,-3.5687623659717005,-0.0586505532264709,0.0908849909901619,0.2822701036930084,0.0533705316483974,-0.1345354616641998,0.3067591786384582,0.0006750522133249049,-0.4716330504244194,0.5853585876671511,0.9995092241590525,0.02836631468252578,-0.008275024478558993,-0.010401297139303883
1752653996.5286012,2.054563347493307,-1.9897057018675743,1.2007731199264526,-1.6227098904051722,-1.5943549315081995,-3.5681265036212366,-0.0583791434764862,0.0902733206748962,0.2839028239250183,0.0539317354559898,-0.1339297145605087,0.3104680180549621,0.0008802420817696695,-0.47169896907880204,0.5853191307712037,0.9995084099737703,0.028325213757475258,-0.00834698381764873,-0.010533210263102995
1752653996.530821,2.054401222859518,-1.9894472561278285,1.2013330459594729,-1.6226159534850062,-1.5946181456195276,-3.567539993916647,-0.0586866922676563,0.091341383755207,0.2856093049049377,0.0547297932207584,-0.1369980126619339,0.3127120733261108,0.0010729159258815722,-0.4717979624950387,0.5853068018810654,0.9995065522176741,0.028313850853780912,-0.008437501294948904,-0.010667075309822704
1752653996.532498,2.054335419331686,-1.98934330562734,1.2019087076187134,-1.6225248775877894,-1.594926659260885,-3.566916529332296,-0.0594474337995052,0.092315100133419,0.2873047888278961,0.0549629516899585,-0.1350572407245636,0.3136248290538788,0.0012960090891022832,-0.4718230388863475,0.5852965086052988,0.9995049034873724,0.028291688723770938,-0.008561149060866262,-0.01078123279655414
1752653996.5347197,2.054189030324117,-1.98916830639028,1.2024599313735962,-1.6223870716490687,-1.5951717535602017,-3.5662811438189905,-0.0594668164849281,0.0929575413465499,0.2901049256324768,0.055627591907978,-0.1343514323234558,0.3141879737377167,0.0015016274257096303,-0.47188405106046893,0.5853047692560635,0.9995040012633073,0.0282513971312745,-0.008648437852181107,-0.010900208323076031
1752653996.5369425,2.0540645758258265,-1.9890200100340785,1.2029697895050049,-1.6222497425475062,-1.595424954091207,-3.565620724354879,-0.0590479932725429,0.0935117825865745,0.293002039194107,0.0563900843262672,-0.1341314166784286,0.3143132030963897,0.00169199797819457,-0.4719315074688243,0.5853097416272482,0.9995039790374416,0.02817793648299355,-0.008740531476819307,-0.011018298116513838
1752653996.538844,2.0538786093341272,-1.988838335076803,1.2035740613937378,-1.622155328790182,-1.5956996122943323,-3.5649598280536097,-0.060490109026432,0.0944447815418243,0.2949780821800232,0.0564722083508968,-0.1329187005758285,0.316996306180954,0.0019145450879902665,-0.47200407195593597,0.5853475238236007,0.9995027276010493,0.028151075576236365,-0.00885687631969514,-0.011107214044093962
1752653996.5413814,2.0538786093341272,-1.988838335076803,1.2035740613937378,-1.622155328790182,-1.5956996122943323,-3.5649598280536097,-0.060490109026432,0.0944447815418243,0.2949780821800232,0.0564722083508968,-0.1329187005758285,0.316996306180954,0.0019145450879902665,-0.47200407195593597,0.5853475238236007,0.9995027276010493,0.028151075576236365,-0.00885687631969514,-0.011107214044093962
1752653996.542487,2.053711716328756,-1.9884377918639125,1.204774022102356,-1.6219355068602503,-1.596238438283102,-3.563718382512228,-0.0614752955734729,0.0965404883027076,0.2987439036369324,0.0567296668887138,-0.1378816217184066,0.3208450376987457,0.0023643135738704076,-0.4721302715464064,0.5852618221651054,0.9994982133389095,0.028134929255091923,-0.009032109427535084,-0.011409131756083641
1752653996.544616,2.0536368528949183,-1.9882475338377892,1.205299973487854,-1.6218015156187953,-1.5965021292315882,-3.563061539326803,-0.061625849455595,0.0972494333982467,0.3007556796073913,0.0559304915368557,-0.1399439424276352,0.3238773047924042,0.002557923876454131,-0.47218595623372195,0.585214595123777,0.9994974078444616,0.028071977391799428,-0.0091128029613495,-0.011569469292238888
1752653996.546497,2.053425137196676,-1.988055845300192,1.2059038877487185,-1.621669431725973,-1.5967848936664026,-3.562413994465963,-0.0626001060009002,0.0973930433392524,0.3037726581096649,0.0564314872026443,-0.1429959237575531,0.3282535374164581,0.00277844995174271,-0.47226120041239045,0.5852612354511881,0.9994957405336187,0.02805185471638459,-0.009229191096638932,-0.011669624408081553
1752653996.548918,2.053352181111471,-1.987882753411764,1.2064907550811768,-1.6215783558287562,-1.597097698842184,-3.561721150075094,-0.0628324300050735,0.0996873751282692,0.3068895936012268,0.059645190834999,-0.1456323564052581,0.3309623003005981,0.002996388896182469,-0.4723124888095522,0.585225459461705,0.9994944179825169,0.028001206142058078,-0.009344623052699976,-0.0118118117316023
1752653996.550564,2.053200070058004,-1.987661977807516,1.2071020603179932,-1.6214772663512171,-1.5973895231830042,-3.5610807577716272,-0.0635081529617309,0.0994478538632392,0.3080826997756958,0.0565958321094512,-0.1459821760654449,0.3319691717624664,0.0032173937317953143,-0.4723929115597086,0.5852219307680324,0.9994922085099321,0.027988797744207632,-0.009454472570035958,-0.011940070234070932
1752653996.5563388,2.053045097981588,-1.9874712429442347,1.2077341079711914,-1.6213084659972132,-1.5977123419391075,-3.560447994862692,-0.0638600513339042,0.1008030995726585,0.3101008832454681,0.0575298182666301,-0.1439841836690902,0.3323949575424194,0.00345192211682801,-0.47245346290781964,0.5852256905523362,0.9994892237640745,0.027990933084942597,-0.009572258525274447,-0.012090124533998204
1752653996.5587287,2.0525649229632776,-1.9868227444090785,1.2095423936843872,-1.621011873284811,-1.5985387007342735,-3.5585089365588587,-0.0653926208615303,0.1030067056417465,0.3188874721527099,0.0588045492768287,-0.1418306529521942,0.341498851776123,0.004109405718463005,-0.47269502775481775,0.5852381311895326,0.9994834553892074,0.02793170665664077,-0.009888968264326076,-0.012443893006801177
1752653996.5607932,2.0525534788714808,-1.98661532024526,1.2101789712905884,-1.6208826504149378,-1.598797623311178,-3.557765070592062,-0.0664117559790611,0.1037471145391464,0.3200837671756744,0.0587264187633991,-0.1441400349140167,0.3440386354923248,0.004357244745164632,-0.47274754643539124,0.5851401741994291,0.9994817829200042,0.027881284673994058,-0.009955777462011386,-0.01263653714844599
1752653996.5628583,2.0523927847491663,-1.9864260158934532,1.2107930183410645,-1.6207958660521449,-1.5991056601153772,-3.5570855776416224,-0.0701496079564094,0.1043277904391288,0.3217842280864715,0.0596344172954559,-0.1470542103052139,0.3490729331970215,0.0045817538331594946,-0.4728176649854562,0.5851580952917401,0.9994800122420338,0.02785054224274011,-0.01008470196322891,-0.012741711492663097
1752653996.5648825,2.052237335835592,-1.9862271747984828,1.2114487886428833,-1.6206289730467738,-1.5993793646441858,-3.556389872227804,-0.0684047415852546,0.1062382012605667,0.3245406150817871,0.0602050647139549,-0.1488218158483505,0.3497448265552521,0.0048320913595432365,-0.4728828606391796,0.5851586296986278,0.9994777061010555,0.027833101692865674,-0.010180331437166597,-0.012883877869500038
1752653996.5665376,2.052128616963522,-1.9859420261778773,1.2121354341506958,-1.6205574474730433,-1.5996859709369105,-3.5556979815112517,-0.0690981969237327,0.1058445945382118,0.3281258344650268,0.0610025040805339,-0.149233728647232,0.3496980667114258,0.00507987239687188,-0.47298286058732286,0.585100283103839,0.9994744833912849,0.027833420839423084,-0.010284471308378465,-0.013049420830326324
1752653996.568659,2.051923100148336,-1.98571838955068,1.2127419710159302,-1.6203648052611292,-1.5999658743487757,-3.5549936930285853,-0.0704218298196792,0.106965884566307,0.3287046551704407,0.0624126680195331,-0.1491101831197738,0.3541860282421112,0.005301253756915738,-0.47306169012553734,0.5851212958759712,0.9994728672183731,0.027787175455699947,-0.010383024776813536,-0.01319292882428753
1752653996.5710073,2.051800552998678,-1.985519548455709,1.21342933177948,-1.6203204594054164,-1.6002891699420374,-3.554299418126241,-0.0712001845240593,0.1068852320313453,0.3297429978847503,0.0613377727568149,-0.1462119966745376,0.3559420704841614,0.005558132873601063,-0.4731331346424899,0.5851137694168163,0.9994700285701261,0.027785873724695303,-0.010519275627146961,-0.013302332564886523
1752653996.5728817,2.051598850880758,-1.985297342339987,1.2141063213348389,-1.620150705377096,-1.6005929152118128,-3.5536111036883757,-0.0711158365011215,0.1076795682311058,0.3312196731567383,0.0651835575699806,-0.1469671875238418,0.355831116437912,0.0058099056554809765,-0.4732118369983128,0.5851355438198327,0.9994670602578516,0.027782818280886298,-0.010633457354274917,-0.013440240049720078
1752653996.574942,2.0514796415912078,-1.9851404629149376,1.2147613763809204,-1.6200443706908167,-1.600851837788717,-3.5528960863696497,-0.0707028582692146,0.1083930656313896,0.334275335073471,0.0641496479511261,-0.1461796164512634,0.357687771320343,0.006067385491678346,-0.47326256117526255,0.5851366964649509,0.9994652839168916,0.02775496064782058,-0.010735742571506167,-0.013548145105637371
1752653996.576675,2.0513480345355437,-1.9848667583861288,1.2154115438461304,-1.6199451885619105,-1.6011274496661585,-3.552134100590841,-0.0740961208939552,0.108851708471775,0.3351384401321411,0.0645763203501701,-0.1475405246019363,0.3593505024909973,0.00630338751565892,-0.4733594171095921,0.5850956927497206,0.9994636340473111,0.02770200112604731,-0.010828029519143991,-0.01370390919729303
1752653996.5805926,2.0513480345355437,-1.9848667583861288,1.2154115438461304,-1.6199451885619105,-1.6011274496661585,-3.552134100590841,-0.0740961208939552,0.108851708471775,0.3351384401321411,0.0645763203501701,-0.1475405246019363,0.3593505024909973,0.00630338751565892,-0.4733594171095921,0.5850956927497206,0.9994636340473111,0.02770200112604731,-0.010828029519143991,-0.01370390919729303
1752653996.581313,2.0513480345355437,-1.9848667583861288,1.2154115438461304,-1.6199451885619105,-1.6011274496661585,-3.552134100590841,-0.0740961208939552,0.108851708471775,0.3351384401321411,0.0645763203501701,-0.1475405246019363,0.3593505024909973,0.00630338751565892,-0.4733594171095921,0.5850956927497206,0.9994636340473111,0.02770200112604731,-0.010828029519143991,-0.01370390919729303
1752653996.582851,2.051184956227438,-1.9846607647337853,1.2161153554916382,-1.6197582683958949,-1.601434055958883,-3.5514469782458704,-0.0702389031648635,0.1095188558101654,0.3364951014518738,0.0661073252558708,-0.1499444544315338,0.3636486828327179,0.006572940296796184,-0.4734237520951944,0.5850960015082406,0.9994599800495599,0.027713336687131055,-0.010936906276573882,-0.013860134562709292
1752653996.584514,2.0507438818561,-1.983959814111227,1.218165397644043,-1.619363447228903,-1.602311913167135,-3.549223486577169,-0.0695949867367744,0.1115741804242134,0.3417569100856781,0.0697669014334678,-0.1541053056716919,0.3685663044452667,0.007341886121205483,-0.4736609265617855,0.5850464637650966,0.9994523882747237,0.027635398878337707,-0.011252567595180632,-0.014303426977542428
1752653996.5864422,2.050645176564352,-1.9837686024107877,1.2188361883163452,-1.6191946468748988,-1.602628533040182,-3.5484676996814173,-0.0729640945792198,0.11308004707098,0.3423319160938263,0.0702703669667244,-0.1529049128293991,0.3671828210353851,0.0075998981363377205,-0.4737115012993675,0.5850111529685866,0.9994497611965085,0.027596342038532708,-0.011361401243555549,-0.014475334611582775
1752653996.588419,2.0504921118365687,-1.9835006199278773,1.2195305824279783,-1.6190597019591273,-1.6029303709613243,-3.5477123896228235,-0.0727277100086212,0.1130664870142936,0.3438846170902252,0.0701526030898094,-0.1497704684734344,0.3694746494293213,0.00785578402733065,-0.47380327322245436,0.5849832200879603,0.9994469342136209,0.027569202752395685,-0.011465903954220012,-0.014638913795230834
1752653996.5909815,2.050319496785299,-1.9832693539061488,1.220266342163086,-1.618910928765768,-1.603213135396139,-3.5469792524920862,-0.0723659098148346,0.1143446266651153,0.3453985452651977,0.0706337988376617,-0.1508251279592514,0.3708563446998596,0.008138096963843556,-0.47388274813260145,0.5849832541466251,0.9994435590983582,0.027573427433609073,-0.011569760667235598,-0.014779002485711915
1752653996.592859,2.05018121400942,-1.983019014398092,1.2209773063659668,-1.6188165150084437,-1.6035431067096155,-3.5462287108050745,-0.0721184462308883,0.1150045096874237,0.3472979068756103,0.071010410785675,-0.1512426137924194,0.3732316792011261,0.00840060310613982,-0.47396863926774074,0.5849577917460126,0.9994403466890929,0.02755679987068877,-0.011695890684246956,-0.01492723457223502
1752653996.5947423,2.0500810782061976,-1.9828082523741664,1.2216724157333374,-1.6186438999571742,-1.603840176259176,-3.5454593340503138,-0.0731400996446609,0.1147670298814773,0.348100870847702,0.0717930719256401,-0.1514768004417419,0.3740743398666382,0.008670022393764723,-0.4740264492866727,0.5849142653092405,0.9994374596804247,0.02752334235470054,-0.011792852542129386,-0.015104914501072894
1752653996.596761,2.0499680677997034,-1.9825645885863248,1.2223806381225586,-1.618478914300436,-1.6041396299945276,-3.544732395802633,-0.0734794214367866,0.1154280751943588,0.349810391664505,0.071234107017517,-0.1531975269317627,0.3748352527618408,0.008939942631070345,-0.4740991521675463,0.5848659343205143,0.9994336803028745,0.027517798851751388,-0.01188868941736352,-0.015288835356024717
1752653996.5987806,2.049782101308004,-1.9823795757689415,1.2230833768844604,-1.6183134518065394,-1.604459587727682,-3.543954674397604,-0.0739451199769973,0.1159921884536743,0.3505633473396301,0.0713902711868286,-0.1537481844425201,0.3771095275878906,0.00920930986635401,-0.4741594005997265,0.5848937534421083,0.9994311376979121,0.02748319373674923,-0.01201870692083496,-0.015415114201209933
1752653996.6008227,2.04960281053652,-1.9821320972838343,1.2237693071365356,-1.6182619533934537,-1.6047757307635706,-3.5432291666613978,-0.0744480118155479,0.1163482069969177,0.3519380092620849,0.0721487402915954,-0.1558340787887573,0.3817594051361084,0.009458374603882968,-0.47425531476855237,0.5849026956267463,0.999428342390843,0.02746591404248501,-0.012154802638535326,-0.015520076176399078
1752653996.6029096,2.049437348042624,-1.9819017849364224,1.2245454788208008,-1.6180936298766078,-1.6050823370562952,-3.5424113909350794,-0.0750793740153312,0.1185762137174606,0.3528015315532684,0.0724986493587493,-0.1568978428840637,0.3793730437755584,0.009759229944735817,-0.474328980915617,0.5848959472972133,0.9994250297514066,0.02744855085075529,-0.012267327541624419,-0.015674809012554986
1752653996.6048396,2.04926044145693,-1.9816543064513148,1.225268840789795,-1.6179076633849083,-1.605438534413473,-3.541622225438253,-0.0756305307149887,0.1169521659612655,0.3537652492523193,0.0758504644036293,-0.1570542603731155,0.3815943002700805,0.01002746463782957,-0.4744072990359233,0.5848875806135746,0.9994214496332008,0.02741957073898872,-0.012398295334122783,-0.015849776855498383
1752653996.6078568,2.0491660276996058,-1.9814063511290487,1.2259880304336548,-1.617772718469137,-1.6057785193072718,-3.5408688227282923,-0.0758299604058265,0.1193645745515823,0.3541060090065002,0.0723405480384826,-0.156017929315567,0.384697288274765,0.010297892976159831,-0.4744798183592329,0.5848281893376759,0.9994173572000089,0.02740661582234114,-0.012515855000865906,-0.016036736267506263
1752653996.6086378,2.0490039030658167,-1.9811765156187957,1.2267357110977173,-1.6176454029478968,-1.6060431639300743,-3.540093485509054,-0.0766841694712638,0.118749052286148,0.3550752997398376,0.0729898810386657,-0.1551937460899353,0.3873614370822906,0.010588778598433976,-0.4745588559126248,0.584823962379207,0.9994143122708304,0.027395796668327557,-0.012615964930604988,-0.016166019361624186
1752653996.6106791,2.0488722960101526,-1.9809214077391568,1.2274504899978638,-1.617471357385153,-1.606380287800924,-3.539241139088766,-0.0770971924066543,0.1195419058203697,0.3557497859001159,0.0778612345457077,-0.1587698459625244,0.3851300477981567,0.010856273301407596,-0.47463509790306946,0.5847823488798298,0.9994115203104599,0.027331342266123698,-0.012731848616869962,-0.016355758357968802
1752653996.6126938,2.048661533986227,-1.9806534252562464,1.2282143831253052,-1.617312570611471,-1.6066864172564903,-3.538529936467306,-0.0764633938670158,0.1205936595797538,0.3564235270023346,0.0737965553998947,-0.1556147336959839,0.3880744278430938,0.011144044061645783,-0.47473024318458334,0.5847910974628867,0.9994068151493777,0.02736113091607468,-0.012847565323789249,-0.016502315389724985
1752653996.6146672,2.048484627400533,-1.980455060998434,1.2289248704910278,-1.6171351871886197,-1.6070054213153284,-3.537663523350851,-0.0808078274130821,0.1217927485704422,0.3584204316139221,0.0769557207822799,-0.1572369337081909,0.3899509608745575,0.011417157724860558,-0.47479171716255963,0.5848052949780727,0.9994049037303837,0.02728661939073218,-0.012973451560506423,-0.016642366312971897
1752653996.6166608,2.0483349005328577,-1.9802495441832484,1.229688286781311,-1.6170216999449671,-1.607337776814596,-3.5369539896594446,-0.0779221132397651,0.1222902089357376,0.3585193455219269,0.0770628228783607,-0.1599393934011459,0.3919337093830108,0.011711954576479743,-0.47485775749279713,0.584805178337287,0.9994001354870523,0.0273167846119418,-0.013110243579779312,-0.016771522894631238
1752653996.618683,2.048215691243307,-1.9799868069090785,1.2304315567016602,-1.6168323955931605,-1.6077263990985315,-3.5361300150500696,-0.0781756192445755,0.1228860691189765,0.3598165214061737,0.0775571838021278,-0.161646619439125,0.3919387757778168,0.011988015715296153,-0.4749304269789326,0.5847500396732493,0.9993956971343344,0.027281504205613958,-0.013244894045332684,-0.01698625501353701
1752653996.620812,2.047986809407369,-1.979746004144186,1.231153964996338,-1.616684099236959,-1.6080125013934534,-3.5353038946734827,-0.082832783460617,0.1228356957435607,0.3608587384223938,0.0774156376719474,-0.1609464585781097,0.394974023103714,0.012261093430501354,-0.4750197696173177,0.5847843809612145,0.9993934852914488,0.027232660099047762,-0.013362834074857808,-0.01710200124044575
1752653996.6228063,2.0478108564959925,-1.9794923267760216,1.2318804264068604,-1.616549631158346,-1.6083176771747034,-3.5344913641559046,-0.0785059481859207,0.1243664175271987,0.3629623651504516,0.0785641893744468,-0.1581026762723922,0.394253522157669,0.012534638280708285,-0.4751067555234972,0.5847783069560183,0.9993905162087823,0.027193236456778597,-0.013480481478231252,-0.017245307247610826
1752653996.6284971,2.0476930777179163,-1.979302545587057,1.232648849487305,-1.6163937054076136,-1.6086652914630335,-3.53374153772463,-0.081686295568943,0.1247245520353317,0.3635658025741577,0.0792270898818969,-0.1581959873437881,0.3947588801383972,0.012836056337721296,-0.47515597670402787,0.5847582689959618,0.9993855863097233,0.027206522493501195,-0.013615183035359241,-0.017403499679516477
1752653996.6289113,2.0473597685443323,-1.9787684879698693,1.2340514659881592,-1.6160017452635709,-1.609340969716207,-3.5320869127856653,-0.0822742506861686,0.1258495599031448,0.3680178225040436,0.07871013879776,-0.159412533044815,0.3992799818515777,0.013354915093203735,-0.4753209337962095,0.5847072872031301,0.9993788794925023,0.027089886829447945,-0.013852032003651083,-0.017779608129776307
1752653996.6308284,2.047221008931295,-1.978524824182028,1.2347500324249268,-1.615859647790426,-1.6096027533160608,-3.531394068394796,-0.0864224359393119,0.12648805975914,0.3719061315059662,0.082410454750061,-0.1600039452314376,0.4015200138092041,0.01362403984818048,-0.47539915315578607,0.5846789461183,0.9993747156777829,0.02709656382209375,-0.013942884190060277,-0.01793181177260638
1752653996.6326516,2.0470173994647425,-1.978285928765768,1.2355084419250488,-1.6156827412047328,-1.6099351088153284,-3.530571762715475,-0.0827630385756492,0.12709341943264,0.3745056092739105,0.0788773298263549,-0.1620764732360839,0.4048672914505005,0.013912587111179849,-0.4754776707446733,0.5846935211481263,0.9993709772548146,0.027068552705302944,-0.014074825619227418,-0.01807878754191399
1752653996.6347427,2.046819512044088,-1.9779979191222128,1.2362446784973145,-1.6155454121031705,-1.610267464314596,-3.5297356287585657,-0.0861852392554283,0.1274850815534591,0.3755814135074615,0.0793306604027748,-0.1627950817346573,0.4093376100063324,0.014182946946812214,-0.47557869223756,0.584686947792248,0.9993675890821084,0.027022734864468764,-0.014204233040228513,-0.01823275778365551
1752653996.6386905,2.04664117494692,-1.977821489373678,1.2370200157165527,-1.61541809658193,-1.6106236616717735,-3.5288987795459192,-0.0866812169551849,0.1299450695514679,0.377154141664505,0.0842251554131507,-0.1630462408065796,0.4098186194896698,0.014484828268507496,-0.47563371866342835,0.5847178098569356,0.9993640437181129,0.026995274032106574,-0.014363415014756905,-0.01834272641749131
1752653996.6392229,2.046436134968893,-1.977546831170553,1.2377227544784546,-1.6152550182738246,-1.6109817663775845,-3.528132263814108,-0.0867504179477691,0.1288445591926574,0.3800168931484222,0.0808919966220855,-0.1620438694953918,0.4147876799106598,0.014739092009570463,-0.47572704593657245,0.5847191596123655,0.9993597902023671,0.02696777396531171,-0.014503461656662425,-0.018504012916397382
1752653996.6416416,2.046436134968893,-1.977546831170553,1.2377227544784546,-1.6152550182738246,-1.6109817663775845,-3.528132263814108,-0.0867504179477691,0.1288445591926574,0.3800168931484222,0.0808919966220855,-0.1620438694953918,0.4147876799106598,0.014739092009570463,-0.47572704593657245,0.5847191596123655,0.9993597902023671,0.02696777396531171,-0.014503461656662425,-0.018504012916397382
1752653996.6426003,2.046121899281637,-1.9769302807249964,1.2391597032546997,-1.6148816547789515,-1.6116755644427698,-3.5265286604510706,-0.0893564894795417,0.1311780959367752,0.3836219012737274,0.083340860903263,-0.1637240350246429,0.4190099239349365,0.015263422414734983,-0.4759196824469212,0.5846203976994135,0.9993505287981426,0.02689533799794408,-0.014737869646105526,-0.01891974056755128
1752653996.6448967,2.045936886464254,-1.9767004452147423,1.2399640083312988,-1.6147548160948697,-1.6120036284076136,-3.5256758371936243,-0.0895889401435852,0.13276307284832,0.3864151537418365,0.0850992277264595,-0.1654681265354156,0.4229165911674499,0.01557526868597638,-0.47599616974602627,0.5846319631414387,0.99934663408515,0.026874801710662463,-0.014877130808931606,-0.01904523443247344
1752653996.646595,2.045731846486227,-1.9764214954771937,1.240699291229248,-1.6145788631834923,-1.6122587362872522,-3.5248406569110315,-0.0915321037173271,0.1336679309606552,0.3897723257541656,0.0861999094486236,-0.1646831631660461,0.426763504743576,0.015856864752980804,-0.4760925430285082,0.5846293150988568,0.9993436428128736,0.026828973287892886,-0.014967945163962394,-0.01919506132790235
1752653996.648587,2.045516316090719,-1.976201196710104,1.2414851188659668,-1.614349981347555,-1.612617317830221,-3.523995701466696,-0.0918239653110504,0.134674847126007,0.391512930393219,0.0871756896376609,-0.168158009648323,0.4242887198925018,0.016160438351664252,-0.47615724350607247,0.5846542868014669,0.9993390818174475,0.02680401867563272,-0.01511089777667327,-0.019354712694337677
1752653996.650501,2.045373264943258,-1.975868364373678,1.2422935962677002,-1.6141988239684046,-1.612969223652975,-3.523165766392843,-0.0920276418328285,0.1360732018947601,0.3932739496231079,0.0882872566580772,-0.1672231256961822,0.4305281639099121,0.016461703678494297,-0.47626254351420655,0.5845883771265872,0.9993333120297634,0.026798998086303417,-0.015232408919707997,-0.019563202388583195
1752653996.6525478,2.045133415852682,-1.9755732021727503,1.2430483102798462,-1.6140314541258751,-1.6132705847369593,-3.5222671667682093,-0.092914305627346,0.1370947510004043,0.395443707704544,0.0884260013699531,-0.1663170754909515,0.4342332482337951,0.01674367234129844,-0.4763688139923127,0.5846035693013759,0.9993304773585477,0.026731308952716522,-0.01535123696175986,-0.019707198374087395
1752653996.6545265,2.044965092335836,-1.975281854669088,1.2437896728515625,-1.6138321361937464,-1.6136210600482386,-3.5215027968036097,-0.0936770662665367,0.1371745616197586,0.3979448080062866,0.0876855179667472,-0.1663236916065216,0.4305217564105987,0.017019410445269778,-0.4764574683834235,0.584567816430992,0.9993247644559384,0.026725412152694836,-0.015474625947643147,-0.019907371552574205
1752653996.6565564,2.044842545186178,-1.975046773950094,1.2446099519729614,-1.613676210443014,-1.6140521208392542,-3.5205939451800745,-0.0939929485321044,0.1397415399551391,0.3992907404899597,0.0903789773583412,-0.1667587012052536,0.4363777935504913,0.017331961627960444,-0.47651809136305767,0.584531157306419,0.9993193623958125,0.02668675740264644,-0.015647683488909034,-0.020094250958668656
1752653996.658759,2.0446012655841272,-1.974746366540426,1.245414137840271,-1.6134916744627894,-1.6143901983844202,-3.5197396914111536,-0.0941257253289222,0.1395385712385177,0.4012825787067413,0.087624467909336,-0.168149396777153,0.4373525083065033,0.017633823205978626,-0.47662195788688233,0.5845431003596093,0.9993145857663183,0.026666527947424464,-0.015780996117765043,-0.020253768129709058
1752653996.66052,2.0444300810443323,-1.974443098107809,1.2462280988693235,-1.613290926019186,-1.6147163550006312,-3.5188620726214808,-0.0951513350009918,0.1414541900157928,0.4042187035083771,0.0918056219816207,-0.1696304529905319,0.4347659945487976,0.01794565395890847,-0.4767145770705771,0.5845036466646314,0.9993094410367479,0.02664043278731889,-0.015893991555586625,-0.020452614213288794
1752653996.66259,2.044226948414938,-1.974130769769186,1.2470672130584717,-1.613150259057516,-1.615051571522848,-3.517958943043844,-0.0989041477441787,0.1416370421648025,0.4068066775798797,0.0890146791934967,-0.1737410724163055,0.4432478845119476,0.01826356480393739,-0.47682133778870933,0.5844891141772366,0.99930474301712,0.02661337011804722,-0.016026344859140562,-0.02061347580840036
1752653996.6646717,2.044066731129781,-1.9738012752928675,1.2478623390197754,-1.6129361591734828,-1.6153748671161097,-3.5170872847186487,-0.0945665687322616,0.1427624225616455,0.4075992703437805,0.0912466123700141,-0.1732442826032638,0.444802463054657,0.01856477060301649,-0.4769208941938983,0.5844287966069281,0.9992993258241123,0.026581477061184678,-0.01612975294285675,-0.020835391878311085
1752653996.6665096,2.0438345114337366,-1.9735852680602013,1.2486611604690552,-1.612777849236959,-1.6156557242022913,-3.5161853472339075,-0.0978967770934104,0.1432705968618393,0.4074305295944214,0.0926923751831054,-0.172704204916954,0.4434998035430908,0.0188813438404009,-0.4769955600214376,0.5844748370902216,0.9992964621245505,0.02653341288409271,-0.016255161638696624,-0.020936296381620912
1752653996.6686592,2.0436833540545862,-1.9732443294920865,1.249478459358215,-1.6125780544676722,-1.6160500685321253,-3.515334431325094,-0.0965259075164794,0.1446565687656402,0.4083025753498077,0.0932936817407608,-0.1730924695730209,0.4461934268474579,0.01918405249228644,-0.477096363197495,0.5844051746104397,0.9992895095314064,0.0265236173195816,-0.01639158407517101,-0.021172856119858585
