mathias31415/evaluate_motion_primitives_from_trajectory_controller/data/trajectory_20250715_114057_planned.csv
time_from_start,shoulder_pan_joint_pos,shoulder_lift_joint_pos,elbow_joint_pos,wrist_1_joint_pos,wrist_2_joint_pos,wrist_3_joint_pos,pose_x,pose_y,pose_z,pose_qx,pose_qy,pose_qz,pose_qw
0.0,-2.5576648199623593,-1.9812014288744555,-1.651210859744534,-1.1146386509359862,1.5637077393870733,-0.9874605801450267,-0.8175299952403206,-0.33049400772242793,0.3524909990028553,-0.00035742014567852686,0.9998434802739621,0.012506985014234358,0.012508498324908213
0.1,-2.5551648199623593,-1.9807530823450907,-1.6517205004344142,-1.1145360147971655,1.563776834073991,-0.9849608268682256,-0.8164773218358516,-0.3323977183122879,0.3525743750907579,-0.00035687238560950607,0.9998439602740005,0.012498009172172113,0.012479082996579302
0.2,-2.5476648199623595,-1.9794080427569958,-1.6532494225040546,-1.1142281063807025,1.5639841181347436,-0.9774615670378222,-0.8132926395356673,-0.3380894564936147,0.35282383617545143,-0.0003552376708420938,0.9998453905496558,0.012470671678297412,0.01239157579549417
0.30000000000000004,-2.5351648199623593,-1.9771663101101713,-1.6557976259534555,-1.1137149256865981,1.564329591569332,-0.9649628006538167,-0.8078965445226239,-0.3475104193235541,0.35323737940942673,-0.0003525416977655553,0.9998477419274134,0.012423776216178269,0.012248202379702543
0.4,-2.5176648199623592,-1.9740278844046166,-1.6593651107826162,-1.1129964727148516,1.564813254377755,-0.9474645277162087,-0.8001586588294114,-0.3605605521215046,0.35381166236437306,-0.00034882729392220186,0.9998509657843024,0.0123554411650033,0.012052701495297096
0.5,-2.4951648199623593,-1.9699927656403324,-1.6639518769915373,-1.1120727474654633,1.5654351065600136,-0.9249667482249986,-0.78990064253151,-0.37709555917470894,0.3545419965743264,-0.0003441544183373371,0.9998549940472404,0.012263268854505658,0.011810362972040793
0.6000000000000001,-2.467664819962359,-1.9650609538173183,-1.6695579245802188,-1.1109437499384331,1.5661951481161074,-0.8974694621801862,-0.7769005453833235,-0.39692289240811923,0.35542233863002404,-0.0003386001619505438,0.9998597391921419,0.012144583949466901,0.011528068929644811
0.7000000000000001,-2.4351648199623592,-1.9592324489355741,-1.6761832535486603,-1.1096094801337613,1.5670933790460362,-0.8649726695817717,-0.7608986214980704,-0.4197968982654683,0.3564452789589351,-0.00033225874812455193,0.9998650942428212,0.011996741544570998,0.011214326160374637
0.8,-2.3976648199623596,-1.9525072509951005,-1.6838278638968622,-1.1080699380514474,1.5681297993498002,-0.8274763704297552,-0.7416047499648085,-0.4454133631387186,0.35760202846464983,-0.00032524153319814556,0.9998709327697216,0.011817504505982176,0.010879274213057222
0.9,-2.35516481996236,-1.9448853599958968,-1.6924917556248245,-1.1063251236914917,1.5693044090273998,-0.7849805647241366,-0.7187076110124158,-0.473403762817684,0.3588824032390518,-0.00031767700703446203,0.9998771088885163,0.011605487648307483,0.01053465037417371
1.0,-2.3076648201584558,-1.936366775973131,-1.7021749286925711,-1.104375037061945,1.5706172080734147,-0.737485252660992,-0.6918857582963671,-0.5033295910202893,0.36027480759541075,-0.0003097107935530772,0.9998834572586063,0.011360663300583563,0.010193689674113366
1.1,-2.255164825240032,-1.9269514997677901,-1.7128773821441428,-1.1022196783553269,1.5720681963582404,-0.6849904389292427,-0.6608207017621422,-0.5346772127914847,0.36176621560955724,-0.00030150565175136954,0.9998897930811469,0.011084918549575312,0.00987093547909701
1.2,-2.197664830321608,-1.9166395305037196,-1.7245991169754746,-1.0998590473710672,1.5736573740169015,-0.6274961186438917,-0.6252120486794025,-0.5668537773439923,0.36334215214039084,-0.00029324147369410555,0.9998959120993299,0.010782648656416906,0.009581934274425679
1.3,-2.1351648354031845,-1.9054308681809196,-1.7373401331865663,-1.0972931441091656,1.5753847410493977,-0.5650022918049383,-0.5847947145316922,-0.5991847528551095,0.36498667236383825,-0.00028511528687991854,0.9999015905951435,0.0104613644372182,0.00934278805746723
1.4,-2.0676648404847606,-1.8933255127993895,-1.7511004307774187,-1.094521968569622,1.5772502974557294,-0.49750895841238274,-0.5393580556665327,-0.6309137647204295,0.3666823416354443,-0.00027734125303057394,0.9999065853889328,0.010132282451796076,0.00916953815582846
1.5,-1.9951648491326142,-1.8803234649987008,-1.7658800090210236,-1.0915455208988485,1.5792540431373316,-0.4250161220321502,-0.4887666845519759,-0.6612054167972105,0.36841021535325136,-0.0002701506676248575,0.9999106338384054,0.009810857585508695,0.009077358037002338
1.6,-1.9176648581168323,-1.866424724199605,-1.7816788685758183,-1.088363800964242,1.581395978183473,-0.3475237794346468,-0.43298253320910024,-0.6891518222431996,0.37014981989463935,-0.0002637919575186637,0.9999134538388276,0.009517206864580187,0.009079538501863932
1.7000000000000002,-1.8353147920639759,-1.8516561776764968,-1.798466446365759,-1.0849829638397168,1.5836719589960997,-0.26518184045048016,-0.3721993815267909,-0.7137435907285284,0.37187610665214993,-0.00025853883114840064,0.999914743079365,0.009276724294244284,0.009185973904208751
1.8,-1.7516688993595844,-1.8366552394006388,-1.8155181865511612,-1.0815489272575538,1.5859837537034414,-0.18154420269897706,-0.30933577725175077,-0.7332876864618048,0.3735001164838019,-0.00025478893839746774,0.9999142517938373,0.009123100332462554,0.009391122536267492
1.9,-1.671532882005858,-1.8222837572975707,-1.8318544166185209,-1.0782589866968846,1.5881985429153933,-0.1014160939110695,-0.24849091651473568,-0.7468636084207321,0.37493311535070656,-0.0002526954708351849,0.9999120788566135,0.009074563652617744,0.009665557208937798
2.0,-1.5963968646521325,-1.8088089682532327,-1.84717136530612,-1.0751743184138574,1.59027514275351,-0.02628749167676498,-0.19126985727643336,-0.7550390775063258,0.37616707241010333,-0.0002520651237169544,0.9999085283501513,0.009126459956404142,0.00997893403486212
2.1,-1.5262608472983992,-1.7962308722676228,-1.8614690326139602,-1.0722949224084717,1.5922135532177917,0.043841604003945,-0.13801129567813827,-0.7587373176889972,0.3772228437027251,-0.0002526404325146885,0.9999038926151556,0.009266729385325486,0.01030870662937693
2.2,-1.461124829944667,-1.784549469340743,-1.8747474185420403,-1.0696207986807278,1.594013774308238,0.10897119313105173,-0.0889238753023512,-0.7588238543831478,0.37812001958766295,-0.0002541810675927165,0.9998984445453777,0.009480854314986548,0.01063717016773652
2.3,-1.400988812590937,-1.7737647594725936,-1.8870065230903597,-1.0671519472306261,1.5956758060248495,0.16910127570455386,-0.04411028392597845,-0.7560964795599765,0.37887689288090737,-0.00025646383514658206,0.999892437584848,0.009752983728710262,0.010951109319130532
2.4,-1.3458527952372088,-1.7638767426631743,-1.8982463462589185,-1.064888368058166,1.597199648367625,0.22423185172445229,-0.0035896011333863,-0.7512795067778121,0.37951043160621317,-0.000259282677616241,0.9998861057257661,0.010066843806104783,0.011241307968319599
2.5,-1.295716777883482,-1.7548854189124852,-1.9084668880477167,-1.062830061163348,1.5985853013365658,0.27436292119074696,0.03268245341064404,-0.7450214192323051,0.380036255850664,-0.000262448673679109,0.9998796635069455,0.010406447161757487,0.011501977369169074
2.6,-1.2505807605297563,-1.746790788220526,-1.9176681484567544,-1.0609770265461718,1.599832764931671,0.31949448410343817,0.06479554249971166,-0.7378950956275706,0.3804686182512591,-0.00026579003791271736,0.999873306012721,0.010756620896499466,0.011730148581172816
2.7,-1.210444743176031,-1.7395928505872966,-1.9258501274860316,-1.0593292642066374,1.6009420391529412,0.3596265404625266,0.09286904047125288,-0.7303998937542482,0.38082038767432996,-0.0002691521202149397,0.9998672088722318,0.01110337819878953,0.011925064853639025
2.8,-1.1753087258223067,-1.7332916060127974,-1.9330128251355485,-1.057886774144745,1.6019131240003763,0.39475909026801204,0.11703860680055465,-0.7229649712742855,0.3811030356863438,-0.00027239740505874416,0.9998615282589997,0.011434160288883789,0.01208760049469335
2.9,-1.145172708468582,-1.7278870544970282,-1.9391562414053052,-1.0566495563604945,1.602746019473976,0.42489213351989547,0.13744487683799889,-0.7159533209814429,0.38132662545243434,-0.0002754055106530782,0.9998564008907332,0.011737975624207062,0.012219724951058289
3.0,-1.1200366911148576,-1.7233791960399885,-1.9442803762953016,-1.0556176108538857,1.6034407255737406,0.4500256702181764,0.15422410393267036,-0.7096660894723258,0.3814998027376213,-0.00027807318806992855,0.9998519440292951,0.01200546200187053,0.012324024434530652
3.1,-1.0999006737611332,-1.719768030641679,-1.9483852298055375,-1.0547909376249187,1.6039972422996698,0.4701597003628552,0.16750057056039316,-0.7043468312028122,0.38162978872499054,-0.0002803143203941838,0.9998482554807768,0.012228894940794925,0.012403288453307924
3.2,-1.0847646564074083,-1.717053558302099,-1.9514708019360136,-1.0541695366735937,1.6044155696517637,0.4852942239539322,0.17738058658558548,-0.7001854231753696,0.38172237440493906,-0.0002820599219433497,0.9998454135956332,0.012402162850142338,0.012460164951403424
3.3,-1.0746286390536839,-1.715235779021249,-1.9535370926867293,-1.0537534079999105,1.6046957076300226,0.49542924099140645,0.1839479064362127,-0.6973214289200852,0.3817819163298365,-0.0002832581375935289,0.9998434772688384,0.012520726255724115,0.012496885284529849
3.4,-1.0694926216999596,-1.7143146927991288,-1.9545841020576846,-1.053542551603869,1.6048376562344462,0.5005647514752782,0.1872604204074527,-0.6958467547014273,0.38181133356902924,-0.00028387424224672294,0.9998424859400306,0.012581574946695508,0.012515058790716013
3.452720347,-1.0687977629510461,-1.714190077795739,-1.9547257533745508,-1.0535140245562633,1.6048568606535294,0.5012595416490825,0.18770778331750998,-0.6956460375283745,0.3818152745543701,-0.00028395805856135353,0.9998423512963114,0.012589846986257463,0.01251749475522699
