mathias31415/evaluate_motion_primitives_from_trajectory_controller/data/trajectory_20250716_093707_executed.csv
timestamp,elbow_joint_pos,shoulder_lift_joint_pos,shoulder_pan_joint_pos,wrist_1_joint_pos,wrist_2_joint_pos,wrist_3_joint_pos,elbow_joint_vel,shoulder_lift_joint_vel,shoulder_pan_joint_vel,wrist_1_joint_vel,wrist_2_joint_vel,wrist_3_joint_vel,pose_x,pose_y,pose_z,pose_qx,pose_qy,pose_qz,pose_qw
1752651502.5508,1.9562957922564903,-1.4880975198796769,0.8735843896865845,-1.941002508203024,-1.5486577192889612,-2.7083807627307337,-0.0,-0.0,-0.0,0.0,0.0,0.0,-0.2937630257166964,-0.6259927612079246,0.4056894110685048,0.8431196605505449,-0.535377071972318,0.017405354820057155,-0.047092275619992706
1752651502.551145,1.9562915007220667,-1.488093027179577,0.8735426068305969,-1.9410072765746056,-1.548633877431051,-2.70842153230776,-0.0,-0.0,-0.0,0.0,0.0,0.0,-0.293789158029767,-0.6259847851747221,0.4056896350159185,0.8431190732414003,-0.5353779600688505,0.017418800952616803,-0.047087722204961324
1752651502.5513532,1.9562938849078575,-1.4881094259074708,0.8736491799354553,-1.9409743748106896,-1.5486367384540003,-2.7083688418017786,-0.0,-0.0,-0.0,0.0,0.0,0.0,-0.2937170419392117,-0.6260091225200097,0.40569556816636215,0.8431331010474665,-0.5353550350170282,0.017414870966889477,-0.047098648273658394
1752651502.5526288,1.9563773314105437,-1.4880884674242516,0.8736106157302856,-1.9410649738707484,-1.548629109059469,-2.7084019819842737,-0.0,-0.0,-0.0,0.0,0.0,0.0,-0.29373029635728465,-0.6259861802051498,0.4056397879393303,0.8431311869521263,-0.5353573402140656,0.017421239683353452,-0.047104355165047615
1752651502.5536563,1.956322971974508,-1.4881434974125405,0.8736506700515747,-1.9409457645811976,-1.5485919157611292,-2.7083762327777308,-0.0,-0.0,-0.0,0.0,0.0,0.0,-0.29369764366222045,-0.6259956446025621,0.4056974010346731,0.8431341219113568,-0.5353518857962309,0.017438742811335464,-0.047107335865496244
1752651502.5618966,1.956265751515524,-1.4881341320327302,0.8736461400985718,-1.941019674340719,-1.54865008989443,-2.7083807627307337,-0.0,-0.0,-0.0,0.0,0.0,0.0,-0.293727244612028,-0.6260157174925242,0.40573432200518406,0.8431380351262769,-0.535351882735139,0.017402192061210648,-0.04705081388039546
1752651502.5623796,1.956286732350485,-1.4881094631603735,0.8735924363136292,-1.9410110912718717,-1.5486295858966272,-2.708426062260763,-0.0,-0.0,-0.0,0.0,0.0,0.0,-0.293756701423163,-0.6259986936571548,0.4057039920077932,0.8431341394546307,-0.5353553312608031,0.01741822079035316,-0.04707544754151331
1752651502.562803,1.956298176442281,-1.4880720761469384,0.8736088871955872,-1.941006799737448,-1.5486624876605433,-2.708435122166769,-0.0,-0.0,-0.0,0.0,0.0,0.0,-0.2937515524758292,-0.6260037036412577,0.405671378629397,0.84314029735509,-0.5353435453006222,0.017405238452714848,-0.047103982372353685
1752651502.563322,1.956345383320944,-1.4881094333580511,0.8736133575439453,-1.9410273037352503,-1.5486248175250452,-2.7084394137011927,-0.0,-0.0,-0.0,0.0,0.0,0.0,-0.2937299914805816,-0.6259894497450278,0.40566949194328616,0.843142224512671,-0.5353406090572819,0.01742318304106028,-0.047096223104628035
1752651502.5657885,1.9562776724444788,-1.4881218311241646,0.8735924363136292,-1.941006799737448,-1.5486577192889612,-2.708364311848776,-0.0,-0.0,-0.0,0.0,0.0,0.0,-0.293759314409732,-0.6259967080357416,0.4057173234965219,0.843118515070567,-0.5353810093782837,0.017401719963893416,-0.04706935823431691
1752651502.567604,1.9563000837909144,-1.4880975049785157,0.8735753893852234,-1.9409786663451136,-1.5485966841327112,-2.7083597818957728,-0.0,-0.0,-0.0,0.0,0.0,0.0,-0.2937602023552014,-0.6259910955179756,0.4056843343398493,0.8431098833333096,-0.5353905544294776,0.017437126892795363,-0.04710228719620946
1752651502.5693803,1.9562938849078575,-1.4881019604257126,0.8736554384231567,-1.941019674340719,-1.5486295858966272,-2.708404843007223,-0.0,-0.0,-0.0,0.0,0.0,0.0,-0.29371727827471295,-0.6260172196165206,0.4056954823984589,0.8431451800745733,-0.5353376656414623,0.017416635792053076,-0.047079187123954924
1752651502.5755107,1.9563072363482876,-1.4880884078196068,0.8736060857772827,-1.9410230122008263,-1.548654858266012,-2.70835525194277,-0.0,-0.0,-0.0,0.0,0.0,0.0,-0.29374935272176017,-0.625999544733772,0.4056784671517061,0.8431185872864803,-0.5353787303441137,0.017405662869526085,-0.04709252347503669
1752651502.5761116,1.9562824408160608,-1.488126457934715,0.8736178874969482,-1.9410153828062957,-1.5486248175250452,-2.708397452031271,-0.0,-0.0,-0.0,0.0,0.0,0.0,-0.2937393027849889,-0.6260052846216697,0.40571848061663607,0.8431338135688144,-0.5353569631604158,0.017417634467258563,-0.04706294106969822
1752651502.5775614,1.956345383320944,-1.4881183591536065,0.8735969066619873,-1.9409944019713343,-1.54861289659609,-2.708392922078268,-0.0,-0.0,-0.0,0.0,0.0,0.0,-0.2937352397376584,-0.6259807514117384,0.4056719403816893,0.8431245971056143,-0.5353671523524909,0.01742994573947946,-0.04710756764044645
1752651502.585616,1.956336800252096,-1.4881001499346276,0.8736178874969482,-1.941002985040182,-1.5486086050616663,-2.708364311848776,-0.0,-0.0,-0.0,0.0,0.0,0.0,-0.29372718246039764,-0.6259937544444202,0.4056660077836565,0.8431224537832882,-0.5353704358520188,0.01743097020867542,-0.047108233034690854
1752651502.585961,1.956320587788717,-1.4881047916463397,0.873638927936554,-1.941002985040182,-1.548633877431051,-2.708364311848776,-0.0,-0.0,-0.0,0.0,0.0,0.0,-0.29371960840693195,-0.626002031569153,0.4056790636133312,0.8431290288522684,-0.5353612942462592,0.017416600345437554,-0.04709975968100371
1752651502.5871823,1.9562833944903768,-1.4880975049785157,0.8736506700515747,-1.941035886804098,-1.5486200491534632,-2.708343569432394,-0.0,-0.0,-0.0,0.0,0.0,0.0,-0.29372398275374584,-0.6260219913592941,0.4057007595722206,0.8431278584797923,-0.5353658633382804,0.017418570628245415,-0.04706803612437691
1752651502.5893853,1.9562915007220667,-1.4881479826620598,0.8736434578895569,-1.941002508203024,-1.5486295858966272,-2.70838982263674,-0.0,-0.0,-0.0,0.0,0.0,0.0,-0.2937173126645075,-0.6260047858079691,0.4057258707627746,0.8431386910594427,-0.53534931193967,0.01741451973855327,-0.04706374768935522
1752651502.5915782,1.9562791029559532,-1.4881094259074708,0.8736417293548584,-1.9410110912718717,-1.548666779194967,-2.7083688418017786,-0.0,-0.0,-0.0,0.0,0.0,0.0,-0.2937310544683015,-0.6260126452785572,0.4057085859718637,0.8431328581919816,-0.5353580785849171,0.017396806461753945,-0.047075070428176574
1752651502.5954883,1.9563115278827112,-1.4881354135325928,0.8736252784729004,-1.941023965875143,-1.5486086050616663,-2.7083821932422083,-0.0,-0.0,-0.0,0.0,0.0,0.0,-0.2937254390011176,-0.6259993681970069,0.4057074614907462,0.8431311462432146,-0.5353604695970381,0.017425882316419172,-0.047067785723743004
1752651502.595983,1.9562743345843716,-1.4880930495313187,0.8736389875411987,-1.941002985040182,-1.5486295858966272,-2.7084394137011927,-0.0,-0.0,-0.0,0.0,0.0,0.0,-0.2937323360356922,-0.6260180707315733,0.4056998053366201,0.843149887135637,-0.535329975762012,0.017418232823306748,-0.047081737851519916
1752651502.5972297,1.9563115278827112,-1.4880975049785157,0.8736133575439453,-1.9409662685790003,-1.5486295858966272,-2.7084019819842737,-0.0,-0.0,-0.0,0.0,0.0,0.0,-0.29373551828668565,-0.6259951836753906,0.4056758409367828,0.8431313649347966,-0.5353559743614454,0.017422501095055717,-0.04711622474569654
1752651502.602309,1.9562576452838345,-1.4881264728358763,0.8736252784729004,-1.9409944019713343,-1.548605744038717,-2.7083807627307337,-0.0,-0.0,-0.0,0.0,0.0,0.0,-0.2937373915518798,-0.6260141597409522,0.4057315982835424,0.8431310758984396,-0.5353612529105352,0.017426258399521603,-0.04705999633016416
1752651502.602801,1.9563072363482876,-1.4881138813546675,0.8735969662666321,-1.9410153828062957,-1.548641029988424,-2.7083569208728235,-0.0,-0.0,-0.0,0.0,0.0,0.0,-0.29374952313258185,-0.6259927624664431,0.4056947093446278,0.8431167687251098,-0.5353822668321105,0.017411593908359994,-0.04708268316282646
1752651502.6039283,1.9563363234149376,-1.488167942767479,0.8736252784729004,-1.9409786663451136,-1.548641029988424,-2.7084558645831507,-0.0,-0.0,-0.0,0.0,0.0,0.0,-0.29371377850083824,-0.6259795600417679,0.40570891542151133,0.8431505547230148,-0.5353285208427929,0.017414025356845317,-0.047087881279697874
1752651502.6061,1.9562791029559532,-1.4881138813546675,0.8736178874969482,-1.9410110912718717,-1.548638168965475,-2.70838982263674,-0.0,-0.0,-0.0,0.0,0.0,0.0,-0.2937427848423566,-0.6260070193816785,0.40571163806319666,0.8431316889954048,-0.5353598289599691,0.01741173165994876,-0.047070586870257614
1752651502.6083767,1.956270043049948,-1.4881434974125405,0.8736417293548584,-1.941002508203024,-1.548600975667135,-2.7083597818957728,-0.0,-0.0,-0.0,0.0,0.0,0.0,-0.29372180351251126,-0.6260135409683596,0.4057362054453123,0.8431300794247673,-0.5353633542574613,0.01742690472476306,-0.04705370420168441
1752651502.6142464,1.9562957922564903,-1.4880930495313187,0.8736252784729004,-1.9409944019713343,-1.5486262480365198,-2.708413902913229,-0.0,-0.0,-0.0,0.0,0.0,0.0,-0.29373460427338116,-0.6260071103794578,0.40568562892480153,0.8431386195650485,-0.5353463153713385,0.01742157350904973,-0.04709649236136768
1752651502.6174154,1.9563363234149376,-1.488126457934715,0.8736389875411987,-1.9410315952696744,-1.5486457983600062,-2.708373371754781,-0.0,-0.0,-0.0,0.0,0.0,0.0,-0.2937159540064291,-0.6259955663779723,0.4056868802753708,0.8431324985958255,-0.5353575302001272,0.017408651144258745,-0.04708336792241826
1752651502.6181042,1.9563501516925257,-1.48813088357959,0.8735969662666321,-1.9410230122008263,-1.548642937337057,-2.708407704030172,-0.0,-0.0,-0.0,0.0,0.0,0.0,-0.2937372369128584,-0.6259777464253805,0.40568037561002235,0.8431299643566601,-0.5353606704583539,0.017413042146064123,-0.047091418470230836
1752651502.6205227,1.956261936818258,-1.4881019604257126,0.8736042976379395,-1.9409986935057584,-1.54865008989443,-2.7083688418017786,-0.0,-0.0,-0.0,0.0,0.0,0.0,-0.29375731095160174,-0.626008050626679,0.4057129078751974,0.8431224779170214,-0.5353741312501691,0.01740612508608074,-0.04707497879634496
1752651502.6212687,1.9562915007220667,-1.488060289328434,0.8736297488212585,-1.9410306415953575,-1.548641029988424,-2.7084603945361536,-0.0,-0.0,-0.0,0.0,0.0,0.0,-0.293741889572799,-0.6260177817360117,0.4056702506797732,0.8431527071303817,-0.5353246348939019,0.017414737416153823,-0.04709325487950067
1752651502.6237664,1.95634109178652,-1.4881474387696765,0.8736671209335327,-1.9409986935057584,-1.548638168965475,-2.708397452031271,-0.0,-0.0,-0.0,0.0,0.0,0.0,-0.2936907537963103,-0.6259961517177672,0.4056944298853294,0.8431459445844752,-0.53533551277299,0.01741342436712782,-0.047091162086354645
1752651502.6288111,1.956332031880514,-1.4881309208324929,0.8736252784729004,-1.941052576104635,-1.548633877431051,-2.708373371754781,-0.0,-0.0,-0.0,0.0,0.0,0.0,-0.29372561064229763,-0.6259949866479011,0.40569480962465754,0.843129319756815,-0.5353637714881315,0.017412928618076938,-0.047067741196660566
1752651502.6298769,1.956336800252096,-1.4881548297456284,0.8736252784729004,-1.9410153828062957,-1.5486457983600062,-2.7084394137011927,-0.0,-0.0,-0.0,0.0,0.0,0.0,-0.2937189900785193,-0.6259849177109548,0.40570380337280737,0.843146782837929,-0.5353355668418084,0.0174097638529424,-0.047076890156367526
1752651502.6318982,1.956270043049948,-1.4881138813546675,0.873589038848877,-1.9410115681090296,-1.54861289659609,-2.708364311848776,-0.0,-0.0,-0.0,0.0,0.0,0.0,-0.29376087285365404,-0.6260031655841192,0.40571735289767713,0.8431169137031792,-0.5353832726857461,0.01742369561060847,-0.047064168825070335
1752651502.633867,1.956320587788717,-1.4880811286023636,0.8736133575439453,-1.941002985040182,-1.5486295858966272,-2.708339039479391,-0.0,-0.0,-0.0,0.0,0.0,0.0,-0.29373865076657973,-0.6259989240204757,0.4056632554302987,0.8431147829999823,-0.535382603782385,0.017420280118929193,-0.0471111886356563
1752651502.6357307,1.95626670518984,-1.4881001499346276,0.8736416697502136,-1.9410153828062957,-1.54865008989443,-2.70838982263674,-0.0,-0.0,-0.0,0.0,0.0,0.0,-0.2937343647224503,-0.6260195649427526,0.40571055141087486,0.8431383368183154,-0.5353496170046047,0.017405077598883097,-0.04707011614649863
1752651502.6376555,1.9562743345843716,-1.4881019604257126,0.8735969662666321,-1.9410435161986288,-1.5486086050616663,-2.7083268801318567,-0.0,-0.0,-0.0,0.0,0.0,0.0,-0.29375880650742314,-0.6260097313041497,0.40571018910775614,0.8431093111070639,-0.5353959190114643,0.017423722747498892,-0.04705649069002251
1752651502.642251,1.9563115278827112,-1.488113851552345,0.873662531375885,-1.9410559139647423,-1.548694912587301,-2.708364311848776,-0.0,-0.0,-0.0,0.0,0.0,0.0,-0.29371554854404436,-0.6260106836153052,0.40569627178858697,0.8431381113132619,-0.5353508625891504,0.01738118354655583,-0.047068818071832844
1752651502.6442084,1.9563072363482876,-1.488077000980713,0.8736178278923035,-1.9409944019713343,-1.5486457983600062,-2.708413902913229,-0.0,-0.0,-0.0,0.0,0.0,0.0,-0.29374049634894556,-0.6260028401205194,0.40566777837174134,0.8431363229089814,-0.5353488776793826,0.017413871328260534,-0.04711132819513989
1752651502.646013,1.956232849751608,-1.4880887505463145,0.8736208081245422,-1.9409901104369105,-1.5486295858966272,-2.7083986441241663,-0.0,-0.0,-0.0,0.0,0.0,0.0,-0.2937535527688636,-0.626024475787864,0.4057211770733773,0.8431346828298127,-0.5353550320438685,0.01741610981067249,-0.047069899020948144
1752651502.6496437,1.956270996724264,-1.4881137174418946,0.8736297488212585,-1.9410110912718717,-1.548641029988424,-2.7084065119372767,-0.0,-0.0,-0.0,0.0,0.0,0.0,-0.29373764520145135,-0.6260127135655298,0.40571653022888443,0.8431395699028106,-0.5353478092805933,0.017409909268080007,-0.04706680169557191
1752651502.6514182,1.956287686024801,-1.4881431472352524,0.8736270070075989,-1.9410110912718717,-1.5486295858966272,-2.7083762327777308,-0.0,-0.0,-0.0,0.0,0.0,0.0,-0.2937299575697977,-0.6260027558724008,0.40572592139108654,0.8431308285228654,-0.535362039904746,0.017414092146155385,-0.04705997894284598
1752651502.657179,1.9563072363482876,-1.4881183069995425,0.8736088275909424,-1.9409986935057584,-1.548605744038717,-2.7083569208728235,-0.0,-0.0,-0.0,0.0,0.0,0.0,-0.29373694402502143,-0.6259964962814739,0.40569595833609273,0.843119026258317,-0.5353777880391491,0.01742958349584851,-0.04708652943992104
1752651502.6610966,1.9563053289996544,-1.4880975049785157,0.8736118078231812,-1.9409829578795372,-1.548703972493307,-2.7083526293384,-0.0,-0.0,-0.0,0.0,0.0,0.0,-0.29374602453459175,-0.6259926153791627,0.40568128062946657,0.8431196035315781,-0.5353763076923957,0.017383056386179273,-0.04711021813881528
1752651502.661624,1.9563162962542933,-1.4881180089763184,0.8736225366592407,-1.9409414730467736,-1.5486791769610804,-2.7084394137011927,-0.0,-0.0,-0.0,0.0,0.0,0.0,-0.29372801893668377,-0.6259867864562414,0.4056837997172979,0.8431445093667934,-0.5353353688577915,0.01739921276026585,-0.04712373679839621
1752651502.669201,1.956336800252096,-1.4880932134440918,0.8736088871955872,-1.941023965875143,-1.5485919157611292,-2.70838982263674,-0.0,-0.0,-0.0,0.0,0.0,0.0,-0.2937340504711149,-0.6259956128638281,0.4056636768329849,0.8431269085111558,-0.5353638898462607,0.01743912487840249,-0.04709987809514473
1752651502.669874,1.9563162962542933,-1.4881431472352524,0.8735969066619873,-1.940970083276266,-1.54861289659609,-2.7083807627307337,-0.0,-0.0,-0.0,0.0,0.0,0.0,-0.2937368669244618,-0.6259826942930992,0.4057038613024337,0.8431220412376756,-0.5353725277257559,0.017427724780383177,-0.04709304136206376
1752651502.6702404,1.9562957922564903,-1.4881094259074708,0.8735798597335815,-1.9409944019713343,-1.5486591498004358,-2.708348099385397,-0.0,-0.0,-0.0,0.0,0.0,0.0,-0.29376360438090415,-0.625988476016095,0.40569649242778283,0.8431098194454727,-0.5353927578331451,0.017403735599943227,-0.0470907337127903
1752651502.672193,1.9563186804400845,-1.4880887505463145,0.8736178278923035,-1.9409829578795372,-1.5486801306353968,-2.7083852926837366,-0.0,-0.0,-0.0,0.0,0.0,0.0,-0.29373808879113256,-0.6259937346733861,0.4056672392981514,0.8431290118823357,-0.5353602359698869,0.01739693228092251,-0.04711935708174001
1752651502.6744184,1.9563615957843223,-1.4880812925151368,0.8736297488212585,-1.941006799737448,-1.548633877431051,-2.708404843007223,-0.0,-0.0,-0.0,0.0,0.0,0.0,-0.29371890762787717,-0.6259916372502169,0.4056384269020743,0.8431359855495808,-0.5353475645855482,0.017421743393502876,-0.04712937322721596
1752651502.6755111,1.956270043049948,-1.4880725380829354,0.873622477054596,-1.9409982166686,-1.5486457983600062,-2.7083852926837366,-0.0,-0.0,-0.0,0.0,0.0,0.0,-0.29374775216246984,-0.6260163449678201,0.405688188367164,0.8431307732106387,-0.5353592875490519,0.017410696065780943,-0.047093525698414365
1752651502.6775455,1.9562743345843716,-1.488106088047363,0.8736252784729004,-1.9409829578795372,-1.548579517995016,-2.708418432866232,-0.0,-0.0,-0.0,0.0,0.0,0.0,-0.2937329281374278,-0.626013589636374,0.40570649043851126,0.843139545702425,-0.5353454277617801,0.01744330217217722,-0.04708195680507641
1752651502.6794178,1.9562743345843716,-1.4880812925151368,0.8736297488212585,-1.9409986935057584,-1.54865008989443,-2.7083359400378626,-0.0,-0.0,-0.0,0.0,0.0,0.0,-0.2937412945531261,-0.6260154270001139,0.40569142967091043,0.8431197019342531,-0.5353769929564998,0.017406915231786464,-0.04709185625206914
1752651502.6817255,1.9563115278827112,-1.4880812925151368,0.8736060857772827,-1.941006799737448,-1.54861289659609,-2.7084229628192347,-0.0,-0.0,-0.0,0.0,0.0,0.0,-0.29374424707657837,-0.6260010635687495,0.4056694175679549,0.8431353127373745,-0.535350696179662,0.017429835745279062,-0.04710283793035618
1752651502.6845305,1.9562791029559532,-1.4881398391774674,0.8736133575439453,-1.9409619770445763,-1.548671070729391,-2.7084108034717005,-0.0,-0.0,-0.0,0.0,0.0,0.0,-0.2937407777526406,-0.6259939350682594,0.40572360866172563,0.8431361302399861,-0.5353521155999948,0.01739756177658332,-0.04708399994457631
1752651502.6852708,1.9562915007220667,-1.4880975049785157,0.8735798597335815,-1.940993925134176,-1.548605744038717,-2.708409372960226,-0.0,-0.0,-0.0,0.0,0.0,0.0,-0.29376158799687535,-0.6259957602205379,0.405691260632319,0.8431250801143056,-0.5353678050408831,0.01743214419945482,-0.04709068863970999
1752651502.6881795,1.956261936818258,-1.4881305781057854,0.8735924959182739,-1.9409986935057584,-1.548666779194967,-2.708397452031271,-0.0,-0.0,-0.0,0.0,0.0,0.0,-0.29376205232613084,-0.6259983950181318,0.4057319969929467,0.8431279501842849,-0.5353669914218042,0.01739694195515794,-0.0470615610091791
1752651502.6894443,1.956261936818258,-1.488121823673584,0.8736088275909424,-1.940970083276266,-1.5486624876605433,-2.7083779017077845,-0.0,-0.0,-0.0,0.0,0.0,0.0,-0.29375036538155436,-0.6260022241396688,0.40572306889110116,0.8431261294315584,-0.5353681088548637,0.017400667421327086,-0.047080087767740225
1752651502.6913657,1.9563072363482876,-1.488077000980713,0.8736208081245422,-1.94093718151235,-1.548633877431051,-2.708388392125265,-0.0,-0.0,-0.0,0.0,0.0,0.0,-0.29373287636822704,-0.6259990078725606,0.4056616368429572,0.8431287262423383,-0.5353581035613044,0.017422845967410644,-0.047139117244722584
1752651502.693354,1.95632774034609,-1.4881461423686524,0.873655378818512,-1.9410306415953575,-1.5486367384540003,-2.7083852926837366,-0.0,-0.0,-0.0,0.0,0.0,0.0,-0.29370408847567137,-0.6260001087821527,0.4057052635609769,0.8431405615514286,-0.5353459856044281,0.017411243060978875,-0.04706928700369808
1752651502.695379,1.956345383320944,-1.488068015580513,0.8736133575439453,-1.9410315952696744,-1.548641029988424,-2.7083807627307337,-0.0,-0.0,-0.0,0.0,0.0,0.0,-0.29373777116636585,-0.625995796853802,0.40564222481041695,0.8431259354779832,-0.5353647335293232,0.017416206790042313,-0.047116183615599154
1752651502.6973429,1.9562791029559532,-1.4881431472352524,0.8736060857772827,-1.941006799737448,-1.548605744038717,-2.708418432866232,-0.0,-0.0,-0.0,0.0,0.0,0.0,-0.2937427013784103,-0.6260005159881397,0.405730823554207,0.8431362018692077,-0.5353535276010009,0.01742709792710803,-0.04705573121916141
1752651502.6994393,1.9563434759723108,-1.4880842876485367,0.8736088871955872,-1.940965314904684,-1.548579994832174,-2.7083688418017786,-0.0,-0.0,-0.0,0.0,0.0,0.0,-0.29372781504191225,-0.6259903309029246,0.4056472891182763,0.8431193230711641,-0.5353723191556902,0.01744939109132055,-0.047136033948795196
1752651502.701532,1.9562743345843716,-1.4880932134440918,0.8735924959182739,-1.941002985040182,-1.548666779194967,-2.708430353795187,-0.0,-0.0,-0.0,0.0,0.0,0.0,-0.2937647330836148,-0.6260015958473322,0.40569981937720156,0.8431356828673738,-0.5353527372576902,0.017400693016631247,-0.04708378562739916
1752651502.70353,1.9562652746783653,-1.4880932134440918,0.8736252784729004,-1.9410153828062957,-1.54865008989443,-2.708364311848776,-0.0,-0.0,-0.0,0.0,0.0,0.0,-0.293745982194664,-0.6260163696516416,0.40570679803292187,0.843126990391735,-0.5353672350393616,0.01740522329663783,-0.04707292131659524
1752651502.706441,1.9563115278827112,-1.4881348696402092,0.8735753297805786,-1.9410110912718717,-1.5486086050616663,-2.708430353795187,-0.0,-0.0,-0.0,0.0,0.0,0.0,-0.29375572954493856,-0.625983529787596,0.4057057089799374,0.8431303504056503,-0.5353611102833288,0.01742906970855282,-0.04707357379826958
1752651502.707438,1.9562791029559532,-1.4881137174418946,0.873587965965271,-1.941002985040182,-1.5486534277545374,-2.7083597818957728,-0.0,-0.0,-0.0,0.0,0.0,0.0,-0.29376223549497665,-0.6259963200896486,0.40571061478204873,0.8431157137874569,-0.5353847667664234,0.01740471718232699,-0.047075689043633115
1752651502.709595,1.9562833944903768,-1.4881305781057854,0.8736133575439453,-1.9409786663451136,-1.5486367384540003,-2.7084065119372767,-0.0,-0.0,-0.0,0.0,0.0,0.0,-0.2937393601313942,-0.6259984729905946,0.4057166541308749,0.8431344451804622,-0.5353545593981213,0.017414249557150385,-0.04708021871485842
1752651502.7119496,1.9563162962542933,-1.4881094259074708,0.8736298084259033,-1.9410401783385216,-1.5486791769610804,-2.708435122166769,-0.0,-0.0,-0.0,0.0,0.0,0.0,-0.2937327988925928,-0.6260000656228386,0.4056887094475387,0.8431474375729376,-0.5353348742118431,0.0173930409765171,-0.04707922145032327
1752651502.7136903,1.956332031880514,-1.488156081443169,0.8736133575439453,-1.941002985040182,-1.54861289659609,-2.7083807627307337,-0.0,-0.0,-0.0,0.0,0.0,0.0,-0.2937235018922313,-0.6259838642503159,0.4057063337668806,0.8431271565653637,-0.5353658465822252,0.017425367377872612,-0.047078283178639276
1752651502.717615,1.9563115278827112,-1.4880975422314189,0.8736270070075989,-1.940957685510153,-1.5486295858966272,-2.7084019819842737,-0.0,-0.0,-0.0,0.0,0.0,0.0,-0.2937262646887845,-0.625998346256728,0.4056749400030152,0.8431348164246015,-0.5353501480116224,0.01742273887052881,-0.04712057434748548
1752651502.7181726,1.9563072363482876,-1.4880975049785157,0.873587965965271,-1.9410230122008263,-1.5486162344561976,-2.708418432866232,-0.0,-0.0,-0.0,0.0,0.0,0.0,-0.293755937540399,-0.625995550038432,0.40568464812574473,0.8431301775262265,-0.5353604952557934,0.017426099973455587,-0.04708476296829321
1752651502.7193696,1.9562915007220667,-1.4880975049785157,0.8736178874969482,-1.9410153828062957,-1.548694912587301,-2.708413902913229,-0.0,-0.0,-0.0,0.0,0.0,0.0,-0.29374749286467366,-0.6260023431427725,0.4056933463672289,0.8431385648839588,-0.5353484656535705,0.01738581343135953,-0.047086242355023705
1752651502.7218964,1.9562743345843716,-1.4881017816117783,0.873638927936554,-1.940985818902487,-1.54861289659609,-2.708413902913229,-0.0,-0.0,-0.0,0.0,0.0,0.0,-0.29372821642632657,-0.6260161182540016,0.40570383413825994,0.8431425464995006,-0.5353409799841288,0.01742644673780917,-0.047085033567623474
1752651502.7241528,1.9562743345843716,-1.4881017816117783,0.873638927936554,-1.940985818902487,-1.54861289659609,-2.708413902913229,-0.0,-0.0,-0.0,0.0,0.0,0.0,-0.29372821642632657,-0.6260161182540016,0.40570383413825994,0.8431425464995006,-0.5353409799841288,0.01742644673780917,-0.047085033567623474
1752651502.725394,1.956287686024801,-1.4881049928120156,0.8736162781715393,-1.9410072765746056,-1.548642937337057,-2.708397452031271,-0.0059505715034902,-0.0,-0.0,0.0,0.0,0.0,-0.29374306387126775,-0.6260048115077588,0.40569996830723876,0.8431328821310314,-0.5353570270340667,0.017410982050060114,-0.04708135914263964
1752651502.727853,1.9562180677997036,-1.4881094259074708,0.8736252784729004,-1.940957685510153,-1.548600975667135,-2.7084484736071985,-0.0081513337790966,-0.0,-0.0,0.0,0.0,0.0022236080840229,-0.29374621707197934,-0.6260255635070054,0.40574070956488073,0.8431487801945562,-0.5353326728880767,0.017431140569802703,-0.04706611449201202
1752651502.7292902,1.956270043049948,-1.4880975049785157,0.8735790252685547,-1.941006799737448,-1.5486791769610804,-2.708397452031271,-0.0054916488006711,-0.0,-0.0,0.0,0.0,0.0040674745105206,-0.2937750264677931,-0.6259976104210485,0.40570571998986393,0.8431237832175615,-0.5353721713277813,0.017393287221511088,-0.04707863528516029
1752651502.7312715,1.9563048521624964,-1.4881173905781289,0.8736580610275269,-1.9409619770445763,-1.5486086050616663,-2.708328072224752,-0.0047463602386415,-0.0,-0.0,0.0,0.0,0.0048767942935228,-0.29370409146637505,-0.6260080111290964,0.405692850823841,0.8431237003286028,-0.5353688465197168,0.017428635128744818,-0.04710484898501679
1752651502.7331316,1.956270996724264,-1.4881218087724228,0.8736133575439453,-1.9409901104369105,-1.548641029988424,-2.708331171666281,-0.0066305515356361,-0.0,-0.0,0.0,0.0,0.0049018654972314,-0.29374501729540603,-0.6260044491114908,0.4057196761255357,0.8431147102670171,-0.5353863712082938,0.017409365445132944,-0.047073695951948484
1752651502.735384,1.9562833944903768,-1.4880812552622338,0.8736178278923035,-1.941016336480612,-1.548662010823385,-2.708337132130758,-0.0069522107951343,-0.0,-0.0,0.0,0.0,0.0057966159656643,-0.29374902888630827,-0.6260100862489859,0.4056876791316687,0.843117243930824,-0.5353813767779754,0.017400764005088016,-0.04708829788652787
1752651502.7372031,1.956231419240133,-1.4880842876485367,0.8736252784729004,-1.9409986935057584,-1.548600975667135,-2.708332602177755,-0.0063329190015792,-0.0,-0.0,0.0,0.0,0.0067622647620737,-0.29374990559437675,-0.6260299679026294,0.40572007689909045,0.8431178234234433,-0.5353815416428778,0.017428248948722184,-0.04706587758017952
1752651502.7392776,1.956190411244528,-1.4881137174418946,0.8736088871955872,-1.9409662685790003,-1.5486457983600062,-2.7083027998553675,-0.0063178855925798,-0.0,-0.0,0.0,0.0,0.0076770312152802,-0.2937674051241842,-0.6260256611273783,0.4057614798206509,0.8431071528601298,-0.5354005420202899,0.017403259171445185,-0.04705013252560372
1752651502.7411835,1.9561994711505333,-1.4881018114141007,0.8736088871955872,-1.941035886804098,-1.548662010823385,-2.708334271107809,-0.0074705299921333,-0.0,-0.0,0.0,0.0,0.0088336262851953,-0.29377403551663406,-0.62603063586215,0.40575539063160554,0.8431170146995823,-0.5353873984886517,0.01739279068380759,-0.04702684229083703
1752651502.7433572,1.9561713377581995,-1.4881262493184586,0.8735879063606262,-1.9410153828062957,-1.548666779194967,-2.7082563082324427,-0.0083261951804161,-0.0,2.015531663346337e-06,0.0,0.0,0.0103027988225221,-0.2937893471204192,-0.6260262061048478,0.40578689012816743,0.8430913687437845,-0.5354292943761314,0.017386992480099946,-0.04701177688736177
1752651502.745922,1.9562118689166468,-1.488126279120781,0.8736207485198975,-1.941006799737448,-1.548671070729391,-2.708263460789816,-0.0090126991271972,-0.0,0.0005283202044665,0.0,0.0,0.0096734622493386,-0.29375842887320985,-0.6260227073832908,0.40576092599037455,0.8431009932161391,-0.535411944918464,0.017387475407650038,-0.04703658337438821
1752651502.7476614,1.9561551252948208,-1.4881137323430558,0.8736298084259033,-1.9409944019713343,-1.5486262480365198,-2.7082815806018274,-0.0089099267497658,-0.0,0.0006717275828123,0.0,0.0,0.0114505058154463,-0.2937636029126645,-0.6260464542186327,0.40578638091102437,0.8431082237556939,-0.5354015480630878,0.017407795187047735,-0.04701780549848842
1752651502.7506506,1.9561393896686,-1.4880975198796769,0.8736416697502136,-1.941052099267477,-1.54861289659609,-2.7082741896258757,-0.0101049561053514,-0.0,0.0006915208650752,0.0,0.0,0.011287547647953,-0.29376595372857345,-0.6260640361213609,0.40579152552499465,0.8431105340249853,-0.535400381094989,0.017410208343395298,-0.04698876445368977
1752651502.751121,1.9561179319964808,-1.4881180089763184,0.8735998868942261,-1.9409829578795372,-1.548638168965475,-2.7082367579089563,-0.0106947729364037,-0.0,0.0007115884218364,0.0,0.0,0.0125997960567474,-0.2937910480336518,-0.6260459041761155,0.40581095961716324,0.8430891347229365,-0.5354330985266035,0.017399579834140793,-0.04700385660694423
1752651502.753449,1.9561103026019493,-1.4881305557540436,0.8736208081245422,-1.9409662685790003,-1.5486457983600062,-2.708205048237936,-0.0110989334061741,-0.0,0.0007441487978212,0.0,0.0,0.0136455213651061,-0.29377733745559764,-0.6260499341096243,0.405822242818138,0.8430864642909789,-0.53543754083076,0.017394338301736235,-0.04700309131843255
1752651502.7554982,1.9560421148883265,-1.4880975198796769,0.8736581206321716,-1.9410110912718717,-1.5486753622638147,-2.70817214647402,-0.0118613075464963,-0.0,0.000814929138869,0.0,0.0,0.0130339302122592,-0.29378193830286314,-0.6260889190765259,0.40584705580856806,0.8430900567123286,-0.5354358324398741,0.01737282459902939,-0.04696605771909167
1752651502.7576537,1.9560702482806605,-1.4881262493184586,0.8736088275909424,-1.9410110912718717,-1.548633877431051,-2.7081390062915247,-0.0126978969201445,-0.0,0.0008387974812649,0.0,0.0,0.0146808698773384,-0.29379798476402624,-0.6260642758218958,0.4058489845086829,0.8430672648204698,-0.5354713189373291,0.017393699996127204,-0.04696288730576291
1752651502.7597167,1.955977741871969,-1.488072508280613,0.8736252784729004,-1.9410563908019007,-1.5486591498004358,-2.708107296620504,-0.0129412421956658,-0.0,0.0008741219062358,0.0,0.0,0.0146885057911276,-0.2938243138963821,-0.6261082598530063,0.4058750461751557,0.8430656098411629,-0.5354780116409568,0.0173745630188614,-0.04692335358964852
1752651502.7614622,1.9560192267047327,-1.4880769935301323,0.8736088871955872,-1.9409986935057584,-1.548671070729391,-2.708074394856588,-0.0132167814299464,-0.0,0.0009680443326942,0.0,0.0,0.0151939699426293,-0.2938199954234225,-0.6260838697127253,0.4058461496471802,0.8430503910731235,-0.5354977831220729,0.017374465676760806,-0.04697116482743439
1752651502.7631505,1.955965344105856,-1.4880813670209427,0.8736282587051392,-1.9409944019713343,-1.5486205259906214,-2.708050314580099,-0.014102904126048,-0.0,0.0011350978165864,0.0,0.0,0.0144175682216882,-0.29381571048562116,-0.6261080999779333,0.4058820415598416,0.8430495056114073,-0.5355011141930699,0.017394937689671257,-0.04694149474734251
1752651502.7651246,1.9559591452227991,-1.4880856734565278,0.873587965965271,-1.941006799737448,-1.548666779194967,-2.7080443541156214,-0.0138311889022588,-0.0,0.0013737351400777,0.0,0.0,0.0147621687501668,-0.2938469897159912,-0.6260950928971531,0.4058899713261347,0.8430384817883053,-0.5355199872475972,0.017371350678647705,-0.04693290591900312
1752651502.7672954,1.9559500853167933,-1.4881094184568902,0.8736162781715393,-1.9410230122008263,-1.548662010823385,-2.7080610434161585,-0.013748362660408,-0.0,0.0018051173537969,0.0,0.0,0.0136924851685762,-0.2938289755617261,-0.6261039336987896,0.40591321005759806,0.8430516015734889,-0.5355015141868943,0.017370233966512154,-0.04690842525461007
1752651502.7691426,1.9558332602130333,-1.4880931985429309,0.8736072778701782,-1.9409901104369105,-1.548654858266012,-2.708008352910177,-0.0141360545530915,-0.0,0.0020530538167804,0.0,0.0,0.0144035406410694,-0.2938625280331774,-0.6261359215417732,0.4059710380094288,0.8430365510560086,-0.5355282127154327,0.01736832466656163,-0.0468748148548973
1752651502.7713463,1.955867115651266,-1.4880608853748818,0.8736910223960876,-1.941002508203024,-1.548662010823385,-2.708033863698141,-0.014540297910571,-0.0,0.0022274258080869,0.0,0.0,0.0137820383533835,-0.29380804241246666,-0.6261567833945447,0.4059298244188731,0.8430646649691517,-0.5354815813883155,0.01736693295561232,-0.04690241266754191
1752651502.773104,1.9557607809649864,-1.4880975049785157,0.8736700415611267,-1.941002508203024,-1.54865008989443,-2.7079601923571985,-0.0147209260612726,-0.0,0.0025461209006607,0.0,0.0,0.0146008674055337,-0.29384112627378994,-0.6261766025492811,0.40602006818560343,0.8430424756649385,-0.5355228888983171,0.017362258592789042,-0.046831310757754374
1752651502.775196,1.9557655493365689,-1.488109440808632,0.8736655712127686,-1.940991540948385,-1.5486457983600062,-2.70791203180422,-0.0155028812587261,-0.0,0.002777196932584,0.0,0.0,0.014643033966422,-0.293839737972316,-0.6261710671929072,0.40602392979467206,0.8430282174164174,-0.5355451174544054,0.017363608138114085,-0.04683328861900266
1752651502.7784152,1.9557302633868616,-1.488134206538536,0.8736565709114075,-1.9409662685790003,-1.54865008989443,-2.707874600087301,-0.0153235597535967,-0.0,0.0029209388885647,0.0,0.0,0.014789224602282,-0.29384883055218264,-0.6261717716901751,0.40605956379955266,0.8430166781101014,-0.535564904869017,0.017358546350267973,-0.046816599294010115
1752651502.781274,1.9556611219989224,-1.4881173607758065,0.8736682534217834,-1.9410230122008263,-1.5486744085894983,-2.7078354994403284,-0.015709314495325,-0.0,0.0035939337685704,-0.0004089132416993,0.0,0.015493981540203,-0.29386787105182327,-0.6262022645712694,0.4060971017250285,0.8430123295132297,-0.5355769468588729,0.017338198725527127,-0.04676465702814529
1752651502.7865314,1.9557140509234827,-1.488147394066193,0.8736808896064758,-1.941006799737448,-1.5486176649676722,-2.707870070134298,-0.0163714457303285,-0.0,0.0038588831666857,-0.0004887037794105,0.0,0.0154500091448426,-0.29383613385501095,-0.6261878251319274,0.40608286333082316,0.8430230472084163,-0.5355577189439761,0.01736935481647455,-0.04678009264869996
1752651502.7869885,1.955621067677633,-1.4881305334023018,0.8737393021583557,-1.940985818902487,-1.5486457983600062,-2.7077513376819056,-0.0172622259706258,-0.0,0.0040503158234059,-0.000972548907157,0.0,0.0160505697131156,-0.29382577948491473,-0.626231201434536,0.40612672998309063,0.8430086883821284,-0.5355831108064412,0.01734768579029889,-0.04675618171814334
1752651502.789682,1.955621067677633,-1.4881305334023018,0.8737393021583557,-1.940985818902487,-1.5486457983600062,-2.7077513376819056,-0.0172622259706258,-0.0,0.0040503158234059,-0.000972548907157,0.0,0.0160505697131156,-0.29382577948491473,-0.626231201434536,0.40612672998309063,0.8430086883821284,-0.5355831108064412,0.01734768579029889,-0.04675618171814334
1752651502.7913792,1.955536190663473,-1.4880932134440918,0.8737166523933411,-1.941018720666403,-1.548633877431051,-2.707686964665548,-0.0179776009172201,-0.0,0.0047240196727216,-0.0006799810216762,0.0,0.0169913601130247,-0.29386798442223155,-0.6262601754622226,0.4061578241645324,0.8429870622668327,-0.5356206720355684,0.01734736118047237,-0.04671592446880945
1752651502.7934053,1.955503288899557,-1.4881431397846718,0.8736927509307861,-1.9409853420653285,-1.548638168965475,-2.707643334065573,-0.0180718880146741,-0.0,0.0051578907296061,-0.00059065251844,0.0,0.0174237117171287,-0.29388150880119124,-0.6262506479308108,0.40620794153380346,0.8429702125637746,-0.535649473337011,0.0173415493096846,-0.04669189556558308
1752651502.7952633,1.955503288899557,-1.4881431397846718,0.8736927509307861,-1.9409853420653285,-1.548638168965475,-2.707643334065573,-0.0180718880146741,-0.0,0.0051578907296061,-0.00059065251844,0.0,0.0174237117171287,-0.29388150880119124,-0.6262506479308108,0.40620794153380346,0.8429702125637746,-0.535649473337011,0.0173415493096846,-0.04669189556558308
1752651502.7972822,1.9554227034198208,-1.4881137248924752,0.8737703561782837,-1.9410559139647423,-1.5486262480365198,-2.707571093236105,-0.0180860329419374,-0.0,0.0051669175736606,-0.0005613006651401,0.0,0.0197593346238136,-0.29386180393628825,-0.626310131382671,0.40624574119146845,0.842974293926312,-0.5356484354001085,0.017336012919903696,-0.04663213579595582
1752651502.7996378,1.9553998152362269,-1.488109440808632,0.8737285137176514,-1.9410306415953575,-1.5486457983600062,-2.7075591723071497,-0.0188354142010211,-0.0,0.0049284258857369,-0.0005922893760725,0.0,0.0189181752502918,-0.293893961723689,-0.6263013947352373,0.4062542471797051,0.8429600835891123,-0.535670697935116,0.01732746743201784,-0.04663646343296793
1752651502.801255,1.9553187529193323,-1.4880855840495606,0.8737994432449341,-1.941018720666403,-1.5486415068255823,-2.707503620778219,-0.0187755227088928,-0.0,0.0047838580794632,-0.0005421243840828,0.0,0.0201080106198787,-0.2938716685296372,-0.6263494532570385,0.4062871324067836,0.8429651878302971,-0.5356646684511644,0.017323690428061013,-0.04661485631522002
1752651502.803345,1.955293480549948,-1.4881348398378869,0.8737568855285645,-1.9410110912718717,-1.5486591498004358,-2.7074661890613,-0.0200224108994007,-0.0,0.0050407941453158,-0.000547605624888,0.0,0.0202653259038925,-0.2938983851109017,-0.6263338164526477,0.40633483670138404,0.842945641876281,-0.5356986299633115,0.017310714694988325,-0.04658284935428827
1752651502.8051755,1.9553116003619595,-1.4881473791650317,0.8737613558769226,-1.9409901104369105,-1.548638168965475,-2.70745569864382,-0.0181951858103275,-0.0,0.0055343750864267,-0.0005283624050207,0.0,0.0202202554792165,-0.29388570151600774,-0.6263271333995899,0.406329808321844,0.8429430369779998,-0.535701313384366,0.017322484050201096,-0.046594750722613404
1752651502.8071442,1.9552267233477991,-1.488097572033741,0.873797595500946,-1.9410110912718717,-1.5486543814288538,-2.707407538090841,-0.0183254145085811,-0.0,0.0055088847875595,-0.0004608065646607,0.0,0.0212730709463357,-0.2938943563668489,-0.6263722914283529,0.4063511971787493,0.8429414426137938,-0.5357065201194386,0.017308839202111802,-0.046568795466202906
1752651502.8091362,1.9551947752581995,-1.488118016426899,0.873805046081543,-1.941018720666403,-1.548633877431051,-2.7073383967029017,-0.0192963909357786,-0.0,0.0057942983694374,-0.0005103935254737,0.0,0.022920049726963,-0.29389341832741783,-0.6263826571441409,0.4063855049377388,0.8429259610879706,-0.5357333775392918,0.017313295835975528,-0.04653839384378805
1752651502.811303,1.955217186604635,-1.488088772898056,0.873821496963501,-1.9410306415953575,-1.548633877431051,-2.707290236149923,-0.0197424050420522,-0.0,0.0058487989008426,-0.0012892788508906,0.0,0.0232800003141164,-0.29388278838467613,-0.6263871032090988,0.4063533722938791,0.8429165371175553,-0.5357464120481539,0.017314380350551665,-0.04655862610038056
1752651502.8136463,1.955097500477926,-1.4881348621896286,0.8738707304000854,-1.9410392246642052,-1.548642937337057,-2.707254234944479,-0.0202939957380294,-0.0,0.0063923066481947,-0.0016947875265032,0.0,0.0232698004692792,-0.2938763514474107,-0.6264290798418235,0.4064591181444675,0.8429243194116595,-0.5357421231516544,0.0172965581954655,-0.046473630156673204
1752651502.816095,1.955091778432028,-1.4881137323430558,0.8738199472427368,-1.941018720666403,-1.5486457983600062,-2.7072511355029505,-0.0203452110290527,-0.0,0.006732718553394,-0.0015963551122695,0.0,0.0236609932035207,-0.2939112150095173,-0.6264172813691036,0.4064462984895415,0.8429090965856915,-0.5357644849434823,0.01729858858392089,-0.046491186254415603
1752651502.817098,1.9550054709063929,-1.4881094259074708,0.8738527297973633,-1.9409982166686,-1.54861289659609,-2.707174603139059,-0.0205700155347585,-0.0,0.0068329153582453,-0.00168510642834,0.0,0.0256344582885503,-0.2939080096496664,-0.6264535923433819,0.4064946597141505,0.8428982339024748,-0.5357840064530591,0.017308332332920607,-0.046459523728190656
1752651502.8190584,1.954970661793844,-1.4880962383798142,0.873819887638092,-1.9410349331297816,-1.54861289659609,-2.7071145216571253,-0.0203328467905521,-0.0,0.0066216285340487,-0.0014975987141951,0.0,0.0253876578062772,-0.293942099107929,-0.6264600844533114,0.4065113306330725,0.842874702335424,-0.5358236510188966,0.017303902329744294,-0.046430874813130095
1752651502.8211582,1.954952065144674,-1.4881048959544678,0.8738572001457214,-1.9410230122008263,-1.5486133734332483,-2.707085911427633,-0.0208272915333509,-0.0,0.0066713667474687,-0.0013944284291937,0.0,0.0253058113157749,-0.29392112892013633,-0.6264738380684649,0.4065273344876961,0.8428774002564038,-0.5358201020013384,0.017301138032804593,-0.04642388448903449
1752651502.8230507,1.9549034277545372,-1.488109440808632,0.873886227607727,-1.941058774987692,-1.5486295858966272,-2.707054440175192,-0.021625842899084,-0.0,0.0072351256385445,-0.0012955178972333,0.0,0.025873901322484,-0.2939186699925692,-0.6264982146369596,0.40656427783061155,0.8428791071386296,-0.535821584553637,0.017285920867194906,-0.04638143179537799
1752651502.8255434,1.9548447767840784,-1.4880932357958336,0.8739262819290161,-1.9410392246642052,-1.548662010823385,-2.706989828740255,-0.0218637604266405,-0.0,0.0075139454565942,-0.0013926250394433,0.0,0.0267089493572711,-0.29391169956777846,-0.6265257546539814,0.4065875133401728,0.8428736326424816,-0.535831558881376,0.01726595213625955,-0.0463731258343645
1752651502.8301034,1.9548094908343716,-1.4880812925151368,0.8738754987716675,-1.9410716495909632,-1.548621956502096,-2.7069416681872767,-0.0220827236771583,-0.0,0.0072593665681779,-0.0021719988435506,0.0,0.0283657349646091,-0.2939530425509757,-0.626529480519855,0.4066049529154917,0.8428477186800907,-0.5358744134990944,0.017282215604065072,-0.04634286457032106
1752651502.8303518,1.9548543135272425,-1.488117353325226,0.8739456534385681,-1.9410516224303187,-1.548621956502096,-2.706893746052877,-0.0225499887019395,-0.0,0.0072679789736866,-0.00311845773831,0.0,0.0290956664830446,-0.2938911534891286,-0.6265286721146568,0.4065991945252023,0.8428530042514566,-0.5358648066862177,0.01728135100962274,-0.046358139379390186
1752651502.8312757,1.9547646681415003,-1.4881137025407334,0.8739609718322754,-1.9410516224303187,-1.54865008989443,-2.706854883824484,-0.0231150612235069,-0.0,0.0079011395573616,-0.0030228707473725,0.0,0.0296556893736124,-0.2939067270429816,-0.6265581429305959,0.4066521253214552,0.8428491954294397,-0.5358749490265666,0.01726057812535374,-0.04631787141589542
1752651502.833069,1.954665486012594,-1.4881094259074708,0.8739530444145203,-1.9410716495909632,-1.5486543814288538,-2.70679480234255,-0.0238934699445962,-0.0,0.0079608345404267,-0.0031332105863839,0.0,0.029588246718049,-0.29393881931266064,-0.6265874452223629,0.4067127652231293,0.8428337245785934,-0.5359044817158057,0.01724977733023392,-0.04626169443445396
1752651502.8351357,1.95462686220278,-1.4881005001119156,0.8739640712738037,-1.9410673580565396,-1.54865008989443,-2.7067208925830286,-0.0241291932761669,-0.0,0.0076679182238876,-0.0025101627688854,0.0,0.031160369515419,-0.29394200405332993,-0.6266035269778439,0.40673023074172865,0.8428173904064518,-0.5359312648791139,0.017248286915021647,-0.04624956596584188
1752651502.837372,1.954583470021383,-1.4880843323520203,0.8739892840385437,-1.9410954914488732,-1.5486205259906214,-2.70667010942568,-0.024454353377223,-0.0,0.0079359197989106,-0.0023245599586516,0.0,0.0291947983205318,-0.29393892518308357,-0.626631505056546,0.40674937000341493,0.8428113069996401,-0.5359430078970261,0.01725757107221971,-0.046220875376109305
1752651502.839114,1.9544819037066856,-1.4881348398378869,0.8739848136901855,-1.9410668812193808,-1.5486457983600062,-2.706602160130636,-0.0248962752521038,-0.0,0.0083496868610382,-0.0021465762984007,0.0,0.0323951542377471,-0.2939593745801924,-0.626646691278428,0.40684284222483436,0.8427952136753004,-0.5359741016691639,0.017235576206770093,-0.046161943836433426
1752651502.8411615,1.9544838110553189,-1.4880975049785157,0.8740200996398926,-1.9410668812193808,-1.548633877431051,-2.7065919081317347,-0.024930028244853,-0.0,0.0082730632275342,-0.0020259795710444,0.0,0.0317185744643211,-0.29394114655399806,-0.6266638695002689,0.40681670729760544,0.8428008013825499,-0.5359634366732439,0.017242974399723783,-0.04618098712877263
1752651502.84324,1.954411331807272,-1.4880975198796769,0.8740581274032593,-1.9410754642882289,-1.548621956502096,-2.706506315861837,-0.0257246159017086,-0.0,0.0078365411609411,-0.0017362210201099,0.0,0.0320533812046051,-0.2939348343441894,-0.6266981486060698,0.4068625142640135,0.8427897292627274,-0.5359843512716372,0.017240761286372242,-0.04614112689832245
1752651502.845637,1.9543750921832483,-1.4880932134440918,0.8741028308868408,-1.941124578515524,-1.5486457983600062,-2.706446234379904,-0.026545288041234,-0.0,0.0084238555282354,-0.001811028108932,0.0,0.0325061902403831,-0.29392252750376857,-0.626725734615213,0.4068873015364466,0.8427879076319861,-0.5359910833033562,0.017221283270752133,-0.046103457257585786
1752651502.847777,1.9543750921832483,-1.4880932134440918,0.8741028308868408,-1.941124578515524,-1.5486457983600062,-2.706446234379904,-0.026545288041234,-0.0,0.0084238555282354,-0.001811028108932,0.0,0.0325061902403831,-0.29392252750376857,-0.626725734615213,0.4068873015364466,0.8427879076319861,-0.5359910833033562,0.017221283270752133,-0.046103457257585786
1752651502.8496802,1.9542749563800257,-1.4880975049785157,0.8740518689155579,-1.9410368404784144,-1.5486543814288538,-2.706357542668478,-0.0271350629627704,-0.0,0.0090486975386738,-0.0026713805273175,0.0,0.0335510224103927,-0.2939721329192945,-0.626730310124853,0.4069426165986352,0.8427510166597636,-0.5360499196463228,0.01721508179962657,-0.04609607927728769
1752651502.8517709,1.9542749563800257,-1.4880975049785157,0.8740518689155579,-1.9410368404784144,-1.5486543814288538,-2.706357542668478,-0.0271350629627704,-0.0,0.0090486975386738,-0.0026713805273175,0.0,0.0335510224103927,-0.2939721329192945,-0.626730310124853,0.4069426165986352,0.8427510166597636,-0.5360499196463228,0.01721508179962657,-0.04609607927728769
1752651502.8532376,1.954110924397604,-1.4880975422314189,0.8740995526313782,-1.941127439538473,-1.548642937337057,-2.706118647252218,-0.0285601336508989,-0.0,0.0092806117609143,-0.0036934441886842,0.0,0.0347378700971603,-0.2939890822262084,-0.6268023832615163,0.40705396207116284,0.8427054644061018,-0.5361327678347961,0.017197645537848534,-0.04597169239707636
1752651502.8550973,1.9541075865374964,-1.4881517303041,0.8741357922554016,-1.941099306146139,-1.5486133734332483,-2.7060959974872034,-0.0291561651974916,-0.0,0.0089319553226232,-0.0034070916008204,0.0,0.0353023000061512,-0.29395438091988524,-0.6268040783728415,0.4070893325800187,0.8427092705109736,-0.536127789976605,0.017209025737731774,-0.04595571393006713
1752651502.857118,1.9540618101703089,-1.4881137174418946,0.874173104763031,-1.9411679706969205,-1.548666779194967,-2.7060375849353235,-0.0296080708503723,-0.0,0.0095125716179609,-0.0035526843275874,0.0,0.0357906781136989,-0.29395817872656255,-0.6268378455496969,0.40709950428856223,0.8427063160927277,-0.5361363845647305,0.017175436134926943,-0.0459221771789862
1752651502.8591323,1.953950707112448,-1.4881017965129395,0.8741641044616699,-1.9411636791624964,-1.5486543814288538,-2.705961052571432,-0.0303746238350868,-0.0,0.0098281353712081,-0.003197798738256,0.0,0.0364785194396972,-0.2939914826403568,-0.6268705183372285,0.4071598446972456,0.8426853632760094,-0.5361734088704782,0.017173882088166365,-0.04587495955979389
1752651502.8611283,1.9539044539081016,-1.4880518478206175,0.8742088675498962,-1.9410649738707484,-1.5486543814288538,-2.7059219519244597,-0.0306123737245798,-0.0,0.0096979066729545,-0.0030692142900079,0.0,0.0385794155299663,-0.2939740094533362,-0.6268963353308883,0.4071443503677888,0.8426845144332095,-0.53617018969096,0.017178584199686917,-0.045926387470823206
1752651502.8631878,1.9538024107562464,-1.4881017965129395,0.874195396900177,-1.9411145649352013,-1.5486133734332483,-2.7057910601245325,-0.0312415286898612,-0.0,0.009614317677915,-0.0028157089836895,0.0,0.0383346751332283,-0.2940007395829813,-0.6269216822024547,0.4072464115612203,0.842649752074177,-0.5362333569509137,0.01718315453279095,-0.045824899593825394
1752651502.8651664,1.9538124243365689,-1.4881137174418946,0.8742043375968933,-1.941101213494772,-1.5486176649676722,-2.705785338078634,-0.0318495072424411,-0.0,0.0099616544321179,-0.0028535446617752,0.0,0.0372896790504455,-0.2939902256647935,-0.6269176629755693,0.40724673950274065,0.8426504257617159,-0.5362318344354787,0.017181433825800254,-0.045830972423131895
1752651502.8671062,1.9537037054644983,-1.4881137174418946,0.8742524981498718,-1.9411512813963832,-1.5486543814288538,-2.705651585255758,-0.0336153581738472,-0.0,0.0095416698604822,-0.002782417461276,7.693103043493467e-08,0.03911117836833,-0.2939941868099373,-0.6269659874552085,0.4073193510429519,0.8426317800495816,-0.536268554476516,0.017148823637462736,-0.045756295501195136
1752651502.8691027,1.9536479155169888,-1.4881137174418946,0.8742689490318298,-1.9411593876280728,-1.5486262480365198,-2.705562655125753,-0.03436766192317,-0.0,0.0097707156091928,-0.0041035553440451,7.505858157230705e-10,0.0395602881908416,-0.29399576819447054,-0.6269901563573668,0.40735483191083866,0.8426133273777784,-0.5363000893052816,0.017156214831632176,-0.04572372501389924
1752651502.8711586,1.9535754362689417,-1.4880842876485367,0.8743211030960083,-1.941174646417135,-1.54865008989443,-2.705540482197897,-0.0367352180182933,-0.0,0.0102949496358633,-0.0042037260718643,-0.0002292602875968,0.0417328737676143,-0.2939885732376916,-0.6270316568507015,0.40738157910127665,0.8426231251405617,-0.53628752184795,0.017138944725989372,-0.045697039972162186
1752651502.873155,1.9534738699542444,-1.4880975049785157,0.874362051486969,-1.9411751232542933,-1.5486577192889612,-2.7054019610034388,-0.0363869667053222,-0.0,0.0101439263671636,-0.0043762940913438,-2.7868863980984315e-05,0.0432821884751319,-0.2939867061388523,-0.6270707814333498,0.40745333145035006,0.8425997457702404,-0.53632943056042,0.01712362750900269,-0.04564199517543678
1752651502.8777475,1.9534738699542444,-1.4880975049785157,0.874362051486969,-1.9411751232542933,-1.5486577192889612,-2.7054019610034388,-0.0363869667053222,-0.0,0.0101439263671636,-0.0043762940913438,-2.7868863980984315e-05,0.0432821884751319,-0.2939867061388523,-0.6270707814333498,0.40745333145035006,0.8425997457702404,-0.53632943056042,0.01712362750900269,-0.04564199517543678
1752651502.8782184,1.9533608595477503,-1.4880812925151368,0.8743484020233154,-1.9411865673460904,-1.5485923925982874,-2.705271307622091,-0.0362012833356857,-0.0,0.010404173284769,-0.0044569773599505,-2.6528756968957623e-09,0.0418781414628028,-0.2940205553118906,-0.6271088772828459,0.4075138399843865,0.8425623984290093,-0.5363922100499356,0.017146321331190165,-0.0455851446867167
1752651502.8795457,1.95327598253359,-1.4880975049785157,0.8744310736656189,-1.9411622486510216,-1.5486248175250452,-2.7051618734942835,-0.0378277078270912,-0.0,0.0105393147096037,-0.0038673086091876,-2.5883064788678745e-11,0.0437283292412757,-0.2939881512635411,-0.6271505443300631,0.4075745265608148,0.8425575484938056,-0.5364035498903035,0.017120938212679026,-0.045550879419686344
1752651502.881508,1.953179661427633,-1.4880680751851578,0.8743796348571777,-1.9411865673460904,-1.5486324469195765,-2.7050955931292933,-0.0378317981958389,-0.0,0.0102823935449123,-0.0035646145697683,-2.525308792373365e-13,0.0432924032211303,-0.2940510698410185,-0.6271707008473677,0.40761706383794016,0.8425282007009282,-0.5364537448653496,0.017110942985664648,-0.045506332237835456
1752651502.885831,1.9530990759478968,-1.4880975049785157,0.8744131326675415,-1.9411994419493617,-1.5486043135272425,-2.7049739996539515,-0.040135383605957,-0.0,0.0105561120435595,-0.0040083657950162,-2.4638443547756253e-15,0.0443838983774185,-0.2940441490623927,-0.6272025105455685,0.40768813617749755,0.8425068997077825,-0.5364923196225884,0.017113428074893043,-0.04544497233226632
1752651502.888927,1.9529169241534632,-1.4881049406579514,0.8744606375694275,-1.9412442646422328,-1.5486457983600062,-2.704846207295553,-0.0379903651773929,-0.0,0.0105307642370462,-0.0051753451116383,-2.3453672293175413e-19,0.0451353974640369,-0.2940654453213269,-0.6272700534507148,0.4078106556266389,0.8424914480310869,-0.536527312779359,0.01707381127463624,-0.04533307407181106
1752651502.8893118,1.9528282324420372,-1.488101789062359,0.8744217157363892,-1.941268106500143,-1.5486457983600062,-2.704813305531637,-0.0401867032051086,-0.0,0.0110086966305971,-0.0049725952558219,-2.288282477425362e-21,0.0457993410527706,-0.29411408110560655,-0.627287576698794,0.4078660514793328,0.8424746795958472,-0.5365584409637,0.01706690549737456,-0.045278851655291844
1752651502.8913336,1.9527671972857876,-1.4880887058428307,0.8744709491729736,-1.94124760250234,-1.5486415068255823,-2.704696242009298,-0.0413583070039749,-0.0,0.0108324466273188,-0.0048914207145571,-2.2325871178465564e-23,0.0466793924570083,-0.29409805714621834,-0.6273206102816191,0.4078928749617746,0.8424570343170995,-0.5365873046101388,0.0170634996436615,-0.04526639858409519
1752651502.8930871,1.9526785055743616,-1.4881049630096932,0.8745400905609131,-1.941213747064108,-1.5486753622638147,-2.704567019139425,-0.0410912297666072,-0.0,0.0113085964694619,-0.0057441010139882,-2.1782473514412094e-25,0.047060027718544,-0.2940743790140984,-0.6273583550674712,0.4079549391016819,0.8424431229527709,-0.5366126072112704,0.01703767423183807,-0.045235075199175696
1752651502.8953247,1.952583138142721,-1.4880725529840966,0.8745236396789551,-1.941256662408346,-1.5486176649676722,-2.7044735590564173,-0.0416966788470745,-0.0,0.0110910143703222,-0.0051482985727488,-2.1252301824502824e-27,0.0471493527293205,-0.2941112240528282,-0.6273957297784948,0.40799709043806537,0.8424150491007185,-0.5366607191482022,0.017057699091878542,-0.04517955813926737
1752651502.897266,1.95251971880068,-1.4881137174418946,0.8745474815368652,-1.941290994683737,-1.5486457983600062,-2.704344574605124,-0.0417839884757995,-0.0,0.0113975647836923,-0.0044949664734303,-2.0735032731329695e-29,0.0473770573735237,-0.29411116587964764,-0.6274154558056407,0.40806760080785753,0.8423904862774333,-0.5367056343602061,0.017031391602232087,-0.04511388229103674
1752651502.8995707,1.952444855366842,-1.4880887654474757,0.8745967745780945,-1.9412867031493128,-1.5486834684955042,-2.704269711171285,-0.0428464002907276,-0.0,0.0113523928448557,-0.004184563178569,-2.023035416818833e-31,0.0475308150053024,-0.29410528744727665,-0.627453078054783,0.40809669223739375,0.8423853128391595,-0.5367161325540674,0.0170070073817371,-0.0450947831682751
1752651502.9022105,1.9523304144488731,-1.4880855989507218,0.8745832443237305,-1.94126619915151,-1.5486295858966272,-2.7041943709002894,-0.0431525446474552,-0.0,0.0109979584813117,-0.0040934374555945,-1.973796258023712e-33,0.0478847697377204,-0.2941358791338557,-0.6274853318004541,0.4081633765085009,0.8423625980466147,-0.5367551887120661,0.01702647028001746,-0.0450468657359802
1752651502.9034517,1.9522727171527308,-1.4880680826357384,0.874628484249115,-1.941262861291403,-1.5486262480365198,-2.7040725390063685,-0.0439437590539455,-0.0,0.011537954211235,-0.0044340672902762,-1.925755629136091e-35,0.0481868535280227,-0.2941236522926215,-0.6275185810793512,0.40818702766989945,0.8423428219970928,-0.536787794927921,0.017021996683372703,-0.04502982428686107
1752651502.9055877,1.9521921316729944,-1.4881137323430558,0.8746523261070251,-1.9412499866881312,-1.5486176649676722,-2.7039766947375696,-0.0443042330443859,-0.0,0.011366507038474,-0.0046057743020355,-1.8788839622615297e-37,0.0492428801953792,-0.2941200102840795,-0.6275406973302409,0.40826616814991384,0.8423259242408938,-0.5368191594863794,0.017016283750124785,-0.04497414198621869
1752651502.9076352,1.952054802571432,-1.4880931836417697,0.8746433258056641,-1.9412747822203575,-1.5486591498004358,-2.7038849035846155,-0.045259740203619,-0.0,0.0107626328244805,-0.0041587105952203,-1.833153427657368e-39,0.0491421893239021,-0.2941681121101917,-0.6275813104186508,0.4083400623328278,0.8423027970073548,-0.5368620302922472,0.016984802615904526,-0.04490740544912213
1752651502.909309,1.951984707509176,-1.4880607289126893,0.8746296763420105,-1.94126619915151,-1.5486534277545374,-2.7038055101977747,-0.0448976084589958,-0.0,0.0113583859056234,-0.0037655364722013,-1.7884772300177638e-41,0.0495869480073452,-0.294197419446994,-0.6276031521197186,0.4083608246075104,0.8422783808256483,-0.5369015395869157,0.016984298006472016,-0.04489320220424415
1752651502.9115305,1.9518969694720667,-1.4880812925151368,0.8747243285179138,-1.9413062534727992,-1.5486295858966272,-2.7036834398852747,-0.0457478873431682,6.34127136436291e-05,0.010918547399342,-0.0042675375007092,-1.7516230804060213e-43,0.0497936382889747,-0.29415769205665704,-0.6276588778963681,0.408433376821254,0.8422739712713855,-0.5369146518551804,0.01698174116891671,-0.04482002240998647
1752651502.9134188,1.9517715612994595,-1.4881474387696765,0.8747243285179138,-1.9413191280760709,-1.5486543814288538,-2.703608814870016,-0.0464261583983898,0.0001039928538375,0.0113043207675218,-0.0042494973167777,-1.401298464324817e-45,0.0528707541525363,-0.29418207651402356,-0.6276835541351552,0.40855675870408825,0.8422589866648803,-0.5369472688476203,0.016954702843189697,-0.0447210007807205
1752651502.9170942,1.9517291227923792,-1.488081270163395,0.874748170375824,-1.941338678399557,-1.548671070729391,-2.70353347459902,-0.0466010197997093,0.0001112465106416,0.0113641591742634,-0.0043879952281713,-0.0,0.0491744838654994,-0.29419027717142665,-0.6277152600455037,0.4085407829787883,0.842245352363949,-0.5369686454506449,0.016944487225513387,-0.044724988282742684
1752651502.9181674,1.951571766530172,-1.4880932208946724,0.8747346997261047,-1.9413148365416468,-1.5486262480365198,-2.703349892293112,-0.0460076220333576,0.0001254648959729,0.0112906089052557,-0.0040883049368858,0.0,0.052133485674858,-0.2942296563945649,-0.6277564509345404,0.4086438421416582,0.842194958304336,-0.5370535102844372,0.01695357940882184,-0.04465148870027125
1752651502.921267,1.9514787832843223,-1.488065080051758,0.87481290102005,-1.9413429699339808,-1.548638168965475,-2.7032886187182825,-0.0484703220427036,0.0001286471961066,0.0115361092612147,-0.0042709349654614,0.0,0.053078755736351,-0.29421084575627765,-0.6278135377261338,0.4086856282599032,0.842201805421709,-0.5370469097372953,0.016938619166850348,-0.044607385787061096
1752651502.9219496,1.9514196554767052,-1.4880855840495606,0.8748202323913574,-1.941349645654196,-1.5486248175250452,-2.7031565348254603,-0.0490382872521877,0.0001270653447136,0.0113764330744743,-0.0046848966740071,0.0,0.0564301833510398,-0.2942171015791216,-0.6278311187314884,0.408736782022271,0.8421700212541919,-0.537100336311532,0.016936608870186835,-0.044564956128458656
1752651502.9231672,1.9512298742877403,-1.4881180015257378,0.8748276233673096,-1.941379209558004,-1.5485971609698694,-2.703010861073629,-0.0472348295152187,0.0001244722370756,0.0113774659112095,-0.0042090839706361,0.0,0.053750667721033,-0.29425420092515187,-0.6278882821150507,0.40887943820789785,0.8421380758158503,-0.5371609775004726,0.01693082265432931,-0.04443976548274967
1752651502.9252186,1.9512041250811976,-1.4881018114141007,0.8748640418052673,-1.9413863621153773,-1.548662010823385,-2.702977959309713,-0.0492009259760379,0.000121746386867,0.0119730727747082,-0.0044212471693754,0.0,0.0535714738070964,-0.2942463875197018,-0.6279052317987605,0.4088851545512407,0.8421405043111898,-0.5371585547145457,0.016896097307037717,-0.04443624636787349
1752651502.927377,1.9510543982135216,-1.488106088047363,0.8748640418052673,-1.9413663349547328,-1.54865008989443,-2.7028396765338343,-0.0496261790394783,0.0001190800103358,0.0116128949448466,-0.0041519575752317,0.0,0.0560828372836113,-0.2942797699703638,-0.6279473602757196,0.40897870158022065,0.8421061670889767,-0.537218015587239,0.016890382485977372,-0.044370283509335244
1752651502.9293072,1.9510329405414024,-1.4880984139493485,0.8749160170555115,-1.941362043420309,-1.5485971609698694,-2.702690664921896,-0.0525668859481811,0.0001165125140687,0.0117632756009697,-0.0040433392859995,0.0,0.0555953383445739,-0.2942484391230928,-0.6279738403103925,0.40898652892223863,0.842079410494175,-0.5372598186905926,0.016911533407349574,-0.04436387810084123
1752651502.9316542,1.950913731251852,-1.4880842578462143,0.8749852776527405,-1.9414268932738248,-1.548605744038717,-2.7025993506061,-0.0499862432479858,0.0001237664255313,0.0118803940713405,-0.0039644818753004,0.0,0.055124245584011,-0.2942422767857068,-0.6280373594721623,0.4090579669147091,0.8420774429886987,-0.5372702744498539,0.016892897159282792,-0.04428162404157774
1752651502.9333467,1.950793568287985,-1.4881017965129395,0.8749598860740662,-1.9414359531798304,-1.5486591498004358,-2.70249849954714,-0.051046647131443,0.0001281339355045,0.0119917914271354,-0.0039057442918419,0.0,0.0546017736196517,-0.2942906019734132,-0.6280589477428123,0.4091450844719597,0.8420477240015408,-0.5373236795531414,0.016855428264739424,-0.04421298941838409
1752651502.93509,1.950660053883688,-1.4881017965129395,0.8749834895133972,-1.9414268932738248,-1.5486457983600062,-2.7023783365832728,-0.0529105253517627,0.000127157793031,0.0122308237478137,-0.0038466264959424,0.0,0.0553551018238067,-0.294306551104716,-0.6281051685315334,0.40922692820823797,0.8420243363422031,-0.5373655094359391,0.016850941559560684,-0.044151693565280856
1752651502.9373713,1.9505308310138147,-1.4881223005107422,0.8749864101409912,-1.9413734875121056,-1.5486133734332483,-2.7023006121264856,-0.0527062602341175,0.0001367816730635,0.012276773341,-0.0039355340413749,0.0,0.055994912981987,-0.2943261140580999,-0.6281375432653777,0.40931510117212294,0.8420058371621892,-0.5373982729192467,0.01685909261549804,-0.044102578659233754
1752651502.9431229,1.950414005910055,-1.4880650726011773,0.8750391006469727,-1.9413777790465296,-1.5486133734332483,-2.7020512262927454,-0.0530118532478809,0.0002405108098173,0.0116942636668682,-0.0041942801326513,0.0,0.0562329851090908,-0.29433035522614703,-0.6281977640202462,0.40934963299846805,0.8419544072893065,-0.5374815692046904,0.016848370782019537,-0.04407347516781215
1752651502.9434187,1.9502814451800743,-1.4880855840495606,0.8750255703926086,-1.941467424432272,-1.5486586729632776,-2.70191461244692,-0.0538709759712219,0.0002956091193482,0.0128968236967921,-0.0047278851270675,0.0,0.0569961220026016,-0.29437963983228166,-0.6282343860571951,0.4094552399731196,0.8419202332982783,-0.5375458915313811,0.016807801664962197,-0.0439571730653456
1752651502.9452584,1.9501937071429647,-1.488077015881874,0.875070333480835,-1.9414764843382777,-1.5486424604998987,-2.701816860829489,-0.0544521883130073,0.0003079401212744,0.0131208002567291,-0.0046127177774906,0.0,0.0567564852535724,-0.2943735359550829,-0.6282768788982377,0.40950494140946037,0.8419076791747193,-0.5375691348806823,0.016807098043377534,-0.043913624601403876
1752651502.9471471,1.9500158468829556,-1.4881093886545678,0.8750896453857422,-1.9414597950377408,-1.5486457983600062,-2.701684538518087,-0.0550114661455154,0.0003125179209746,0.013530227355659,-0.0042983256280422,0.0,0.060414932668209,-0.2943991100627903,-0.6283271167357295,0.4096351748198997,0.8418816592611774,-0.537618124983396,0.016789834052720404,-0.04381923049833827
1752651502.9493906,1.9498913923846644,-1.4881018188646813,0.8751349449157715,-1.9414226017394007,-1.5486457983600062,-2.701564613972799,-0.0556842684745788,0.0003228562418371,0.0134076820686459,-0.0044671082869172,0.0,0.0580974146723747,-0.29439917167051016,-0.6283746178542021,0.40970326362409626,0.8418633671240187,-0.5376501425025848,0.016781160453963793,-0.04378113766656295
1752651502.9514017,1.9497926870929163,-1.4880779546550291,0.8751797080039978,-1.941463132897848,-1.5485966841327112,-2.701449219380514,-0.0560752712190151,0.0003129896067548,0.0134771196171641,-0.0048166248016059,0.0,0.0578378364443779,-0.2943975946681442,-0.6284285301121062,0.4097530247394006,0.8418461064242694,-0.5376815437181806,0.016794671512361893,-0.043722187181383876
1752651502.9558206,1.949742619191305,-1.4880562511137505,0.8751826286315918,-1.941429277459616,-1.548605744038717,-2.7013002077685755,-0.0562287233769893,0.0002995336544699,0.013467576354742,-0.0051938369870185,0.0,0.0588821657001972,-0.2944092425725265,-0.6284438938557664,0.40976581956911645,0.8418068604883271,-0.5377428470313258,0.016787209978683514,-0.04372676162902997
1752651502.9561193,1.949637238179342,-1.4880812776139756,0.875272810459137,-1.9414617023863732,-1.54865008989443,-2.701183382664816,-0.0565784014761447,0.0003171333228237,0.0134944953024387,-0.004856982268393,0.0,0.0617771036922931,-0.2943812517801209,-0.6284967444143091,0.40985141666289104,0.8418040515881213,-0.5377545747471846,0.016750411718337202,-0.04365065607255439
1752651502.9580562,1.9494941870318807,-1.488081270163395,0.8752517104148865,-1.9415065250792445,-1.5486014525042933,-2.7011428515063685,-0.0562851279973983,0.0003106637159362,0.0136237321421504,-0.0044897245243191,0.0001284990139538,0.0587737783789634,-0.2944287784359996,-0.628540428003356,0.40994518389486534,0.8417908121979197,-0.5377827168563679,0.016762192326850837,-0.04355464221122615
1752651502.9589927,1.94938308397402,-1.4881017741611977,0.8752993941307068,-1.9414826832213343,-1.5486176649676722,-2.7010181585894983,-0.0574041865766048,0.000349181384081,0.0137082748115062,-0.0040907836519181,0.0001495695614721,0.0604573674499988,-0.29442245055140376,-0.6285798471499896,0.41002526191669864,0.841772756843557,-0.5378156779901383,0.016743592117968487,-0.04350372934580307
1752651502.961366,1.94922906557192,-1.4881223303130646,0.8752858638763428,-1.94148125270986,-1.5486457983600062,-2.7008124033557337,-0.0591118074953556,0.0004314366378821,0.0141101535409688,-0.00420997524634,0.0001449974224669,0.061219111084938,-0.2944679540675848,-0.62861507639157,0.4101344260579279,0.841718074480178,-0.5379088157937203,0.01671453258446814,-0.04342134711477634
1752651502.9633458,1.949100796376364,-1.4880736631206055,0.8753804564476013,-1.9415184460082,-1.5486796537982386,-2.700716320668356,-0.0564921572804451,0.0004569143929984,0.0141710480675101,-0.0045342221856117,0.0001404735958203,0.0604378320276737,-0.2944530157902319,-0.6286901278303875,0.41018533437419075,0.8417208132939202,-0.5379097741599309,0.016686246010082575,-0.043367228700077386
1752651502.9651306,1.949038330708639,-1.4880237218788643,0.8753294944763184,-1.9414941273131312,-1.5486457983600062,-2.7005794684039515,-0.0575423650443553,0.0004558905202429,0.0145796490833163,-0.0046015996485948,0.0001548369909869,0.0620963163673877,-0.29450265184845026,-0.6287023631620761,0.4101880193995005,0.8416694676744049,-0.5379892703557954,0.016701899789887717,-0.04337163485656684
1752651502.9670098,1.948909584675924,-1.4880898904851456,0.8754150867462158,-1.9415022335448209,-1.5486086050616663,-2.7005015055285853,-0.061543621122837,0.000460965471575,0.0146841369569301,-0.0046588033437728,0.0001585781137691,0.062838576734066,-0.29446787528276364,-0.6287571464736084,0.4103133454463929,0.8416753578068796,-0.5379881713034437,0.016703970776346493,-0.04327004689783162
1752651502.96916,1.948784653340475,-1.4880812925151368,0.8753941655158997,-1.941584249536032,-1.548621956502096,-2.70036489168276,-0.0596224330365657,0.0004379189049359,0.014976006001234,-0.004685828462243,0.0001772472896846,0.0638237968087196,-0.2945206438172642,-0.6287960304673557,0.4103940305093533,0.8416375549885697,-0.5380557283628077,0.016682346044445785,-0.043173586129533516
1752651502.9710062,1.9486730734454556,-1.4880822834423562,0.8754582405090332,-1.9415174923338832,-1.548621956502096,-2.7002087275134485,-0.0589450970292091,0.0004113724862691,0.0150079680606722,-0.0052954615093767,0.0001748071081237,0.0642453655600547,-0.2945020103837608,-0.6288408576382571,0.41045670343168356,0.8416137834666745,-0.5380948207737921,0.016674705282868765,-0.04315272342575103
1752651502.972989,1.9485824743853968,-1.4881104242852707,0.875503659248352,-1.9415251217284144,-1.5486834684955042,-2.7000585238086146,-0.0614215657114982,0.0003865914477501,0.0152404606342315,-0.0050608469173312,0.0001936429471243,0.0647250339388847,-0.29449752240032884,-0.6288719000350221,0.4105325286308927,0.8415893862860971,-0.5381388716482594,0.016632054536926674,-0.04309564332516037
1752651502.975344,1.9484079519854944,-1.4880855915001412,0.8755019307136536,-1.941570898095602,-1.548638168965475,-2.69994026819338,-0.0615096986293792,0.0003980495675932,0.0154576255008578,-0.0044333627447485,0.0001892941218102,0.0646753162145614,-0.2945445034135365,-0.6289346411106863,0.41062932846076006,0.841560615289454,-0.5381915265249869,0.016639685958387287,-0.042996888510055835
1752651502.9770153,1.948317352925436,-1.488048830335476,0.8755285143852234,-1.9415623150267545,-1.5486176649676722,-2.699853006993429,-0.0613587535917758,0.0003892881504725,0.0153477620333433,-0.0043426915071904,0.000184451957466,0.0651057586073875,-0.2945527626261728,-0.628976142767525,0.410660019050067,0.84154493230641,-0.5382177175810383,0.016644550235110103,-0.04297411242513683
1752651502.9792018,1.9482062498675743,-1.4880693790367625,0.8755613565444946,-1.9415818653502408,-1.54865008989443,-2.6996787230121058,-0.0619133897125721,0.0003722414840012,0.0154647771269083,-0.0047581000253558,0.0003261535894125,0.066069558262825,-0.29456064897074424,-0.6290141355128309,0.4107448690362089,0.8415107063870019,-0.5382778312277583,0.01661453229240541,-0.042902969145442164
1752651502.9815848,1.9480903784381312,-1.4880574357560654,0.8756350874900818,-1.9415861568846644,-1.5486133734332483,-2.6995464007007044,-0.062463279813528,0.0003972155391238,0.0153205217793583,-0.0054284129291772,0.0003637658955994,0.0654865503311157,-0.2945413402090996,-0.6290749873850718,0.41080937609607865,0.8414966819154458,-0.5383038601817118,0.016621507086005936,-0.042848733247937545
1752651502.9838989,1.9479215780841272,-1.4880617421916504,0.8756335377693176,-1.9416142902769984,-1.5486534277545374,-2.699456755314962,-0.0626808181405067,0.0004152419860474,0.015735451132059,-0.0056116003543138,0.0003371351631358,0.0691839009523391,-0.294588674600067,-0.6291228276689578,0.410920083522176,0.8414771803384751,-0.5383430728114537,0.016587141579821368,-0.04275228250915259
1752651502.9862354,1.9478490988360804,-1.488066056077816,0.8756998777389526,-1.9416099987425743,-1.5486415068255823,-2.6992819944964808,-0.0628009587526321,0.0004329990188125,0.01581447198987,-0.0050431243143975,0.0003743126289919,0.0660730004310607,-0.2945625448718119,-0.629163252768973,0.4109675688109586,0.8414493717219452,-0.5383894073022696,0.016583346853760055,-0.04271760223353257
1752651502.9871736,1.94769794145693,-1.48807034761224,0.8756861686706543,-1.9416505299010216,-1.5486133734332483,-2.699205938969748,-0.0627203211188316,0.0004622173728421,0.0162129737436771,-0.0047808988019824,0.0003518202574923,0.0668927058577537,-0.29460812877506687,-0.6292086497739617,0.41106885026033424,0.8414289907156378,-0.538429045443089,0.016583665784826982,-0.04261922847312398
1752651502.9921858,1.9476149717914024,-1.4880855840495606,0.8757547736167908,-1.941634794274801,-1.548605744038717,-2.6990347544299524,-0.0632417500019073,0.0004744959878735,0.0164454281330108,-0.0047038118354976,0.0003847955958917,0.0712916627526283,-0.29458095715003063,-0.6292494312450626,0.41112894053285276,0.8414030338851365,-0.5384729211940823,0.01657716974993415,-0.042579867927007166
1752651502.9933257,1.947314564381735,-1.4880650726011773,0.8757910132408142,-1.9416505299010216,-1.548610035573141,-2.6988006273852747,-0.0656414404511451,0.0008860391099005,0.0171594247221946,-0.0054135485552251,0.000390820641769,0.0690827816724777,-0.29463596151800564,-0.6293526447816605,0.41130352655051805,0.8413562161623043,-0.5385582466115173,0.01655078730334778,-0.04243588070745502
1752651502.9952333,1.9471290747271937,-1.4880206894925614,0.8758177757263184,-1.9416576824583949,-1.5486295858966272,-2.6986189524279998,-0.0625083744525909,0.0009068711660802,0.0167952217161655,-0.006008465308696,0.0003721092070918,0.070619449019432,-0.29467313251876126,-0.6294217576950327,0.4113896997388787,0.8413180218529902,-0.5386241793508469,0.016527407431147927,-0.04236536707740139
1752651502.9972496,1.9470699469195765,-1.4880779472044487,0.8758659362792969,-1.9416820011534632,-1.548666779194967,-2.698503319417135,-0.0642077475786209,0.0010011836420744,0.0167954489588737,-0.0054895719513297,0.0003564563812687,0.0703672096133232,-0.29465403722735706,-0.6294426372724545,0.41146749137202576,0.8413034964657381,-0.5386529972236973,0.01649671638605672,-0.042299335277630905
1752651502.9995136,1.946921173726217,-1.488053136771061,0.8759032487869263,-1.941678663293356,-1.5486457983600062,-2.698375765477316,-0.0674624666571617,0.0010600471869111,0.0164770726114511,-0.0058345138095319,0.0004369317030068,0.0701454356312751,-0.2946682518293547,-0.6295026760069465,0.4115429738426125,0.8412814399773493,-0.5386921515171735,0.016496092923619858,-0.04223959708249537
1752651503.0011938,1.9468234221087852,-1.4880866196802636,0.8759509921073914,-1.9416939220824183,-1.5486543814288538,-2.698193613682882,-0.0638612508773803,0.0010504636447876,0.0169504322111606,-0.0055559207685291,0.000476485438412,0.0718395113945007,-0.2946590165292825,-0.6295401597697073,0.41162788781813203,0.8412485250472739,-0.5387496065465881,0.016477844680998298,-0.04216943426643803
1752651503.003178,1.946665112172262,-1.4880898904851456,0.8759663105010986,-1.9417058430113732,-1.548662010823385,-2.698028866444723,-0.0660006999969482,0.0010120221413671,0.0173248946666717,-0.0057235960848629,0.0004898771876469,0.0730912089347839,-0.2946890155933273,-0.6295908472061396,0.4117297829433273,0.8412121180141753,-0.5388135828302762,0.01645945023836904,-0.04208541269319694
1752651503.0051615,1.946491543446676,-1.488082268541195,0.875993013381958,-1.9416896305479945,-1.5486586729632776,-2.697881285344259,-0.067325659096241,0.0009604695951566,0.0177732072770595,-0.0055761472322046,0.0005353663000278,0.07352976500988,-0.29471389389455455,-0.6296493452510821,0.41183080747854783,0.8411827030572514,-0.5388655449233112,0.016448107730352258,-0.042012430587739624
1752651503.0071633,1.9464028517352503,-1.4880498212626954,0.876075804233551,-1.9417306385436,-1.5486133734332483,-2.6977627913104456,-0.066820204257965,0.0009429176570847,0.0180636439472436,-0.0059753628447651,0.0007524974062107,0.0738958716392517,-0.2946873833122073,-0.6297127326206613,0.4118687304334653,0.8411744190825207,-0.5388819526437904,0.01646027257497165,-0.04196304591849124
1752651503.0093362,1.946237866078512,-1.4880660486272357,0.8760904669761658,-1.9417458973326625,-1.5486295858966272,-2.6975932757007044,-0.0673258826136589,0.0009559643222019,0.0176008660346269,-0.005520103033632,0.0008790445863269,0.0732126533985138,-0.29471850164536156,-0.629762527706413,0.4119838572886049,0.8411371568371847,-0.5389482253893467,0.016436151843360492,-0.041868205718817324
1752651503.0118406,1.9461296240436,-1.4880379003337405,0.8761807084083557,-1.9417301617064415,-1.5485971609698694,-2.697444502507345,-0.0673940777778625,0.0009689996368251,0.0180330574512481,-0.0059001692570745,0.0008829755242913,0.0771408453583717,-0.2946879443651465,-0.6298265609359563,0.41203060338701314,0.8411222247966297,-0.538973795672983,0.016443216534832127,-0.04183624219518312
1752651503.013246,1.94596511522402,-1.4880617421916504,0.8761789202690125,-1.9417830906310023,-1.5486262480365198,-2.697286907826559,-0.0682696923613548,0.0011904456187039,0.0181341022253036,-0.0056077255867421,0.0008528113830834,0.0737397894263267,-0.29473235596034403,-0.6298726942464153,0.41215465704424764,0.8410848881218533,-0.5390420819943098,0.016410556509258434,-0.041719760873545134
1752651503.0159016,1.9458721319781704,-1.4880455148271103,0.8762146830558777,-1.941758295098776,-1.5486014525042933,-2.697165552769796,-0.0691820904612541,0.001215509371832,0.0183314830064773,-0.00600355444476,0.0007908157422207,0.0739983022212982,-0.2947305741987981,-0.6299126494756628,0.41219892886567644,0.841062517854987,-0.5390788220042455,0.01641634141744901,-0.0416937460587366
1752651503.0176277,1.94568902650942,-1.4880585980466383,0.8762102127075195,-1.941758295098776,-1.5485971609698694,-2.6970089117633265,-0.0699068233370781,0.0012962919427081,0.0186847168952226,-0.0064493422396481,0.0007157127256505,0.079140655696392,-0.2947754912594836,-0.6299626501703602,0.4123216348622553,0.8410231880480312,-0.5391480163477832,0.016403124954875222,-0.041597489413320074
1752651503.0211108,1.94568902650942,-1.4880585980466383,0.8762102127075195,-1.941758295098776,-1.5485971609698694,-2.6970089117633265,-0.0699068233370781,0.0012962919427081,0.0186847168952226,-0.0064493422396481,0.0007157127256505,0.079140655696392,-0.2947754912594836,-0.6299626501703602,0.4123216348622553,0.8410231880480312,-0.5391480163477832,0.016403124954875222,-0.041597489413320074
1752651503.02322,1.945345703755514,-1.4880617570928116,0.8763377666473389,-1.9417935810484828,-1.5486353079425257,-2.6965227762805384,-0.0700244456529617,0.0013394280103966,0.0182767435908317,-0.0054999035783112,0.0006625863024964,0.0780228599905967,-0.29478417583816796,-0.6301002095021082,0.4125411081382994,0.8409352209233626,-0.539300885003789,0.016347828741657845,-0.04141567505351991
1752651503.0251086,1.945151154194967,-1.488025502567627,0.876376211643219,-1.941789289514059,-1.5486176649676722,-2.6964011828051966,-0.0728901997208595,0.0013234193902462,0.0182282105088233,-0.005317741073668,0.000591097108554,0.0783236771821975,-0.2948105569732105,-0.63017552044007,0.4126373421187345,0.8409157655942648,-0.5393371850240953,0.016343733796668182,-0.04133954995981332
1752651503.0272946,1.9449804464923304,-1.4880210247686882,0.8764381408691406,-1.941789289514059,-1.548610035573141,-2.696224037800924,-0.0704959630966186,0.0013654694193974,0.0184366721659898,-0.0055881207808852,0.0006185793899931,0.0782196000218391,-0.2948128704327334,-0.6302448126230987,0.41274057636474576,0.8408880766880336,-0.5393868960079286,0.01633230213917859,-0.04125863310467905
1752651503.029089,1.9448869864093223,-1.4879885402372857,0.8764619827270508,-1.941801687280172,-1.5485604445086878,-2.6960843245135706,-0.0708458870649337,0.0014207466738298,0.0190876238048076,-0.006054762750864,0.0006205188692547,0.0771031454205513,-0.29482187455874836,-0.6302897320743249,0.4127783612186543,0.8408575655173802,-0.5394368682026222,0.016348975558061807,-0.041220513511277354
1752651503.0313466,1.944735829030172,-1.488058590596058,0.8764984011650085,-1.9418178997435511,-1.5485861937152308,-2.695845429097311,-0.0741214379668235,0.0014373713638633,0.0191417150199413,-0.0058983056806027,0.000592996017076,0.0793124288320541,-0.2948287307662651,-0.6303315841982263,0.41292129229747665,0.8408083633743862,-0.5395232420141527,0.016315894857480945,-0.041106678061157
1752651503.0331695,1.9445865789996544,-1.4880335864475749,0.8765249252319336,-1.941862245599264,-1.5485976378070276,-2.6957088152514856,-0.0723090767860412,0.001423897454515,0.0192567687481641,-0.0062893275171518,0.0005633755936287,0.0793998762965202,-0.2948564647160555,-0.6303907141839954,0.4130021868146882,0.8407823894127667,-0.5395705102797167,0.016296477471791273,-0.04102514974812833
1752651503.0352118,1.9444096724139608,-1.4880379003337405,0.876578688621521,-1.941862245599264,-1.548605744038717,-2.695611302052633,-0.0732088536024093,0.0016067142132669,0.0192947145551443,-0.0063036740757524,0.0005933350184932,0.0789484083652496,-0.2948654663029868,-0.6304566166714963,0.4131151956262543,0.8407745153828735,-0.539590022428236,0.016278192551053023,-0.04093705443557195
1752651503.0372047,1.9442904631244105,-1.488058590596058,0.8766043186187744,-1.9418288669981896,-1.548610035573141,-2.695438687001364,-0.0743807032704353,0.0016148332506418,0.0191894024610519,-0.006380318198353,0.0006241324590519,0.0792622119188308,-0.2948727568250046,-0.6304915625819256,0.4131996744401609,0.8407371557587928,-0.5396524755447363,0.01626545057361825,-0.040886130688662856
1752651503.041844,1.9442904631244105,-1.488058590596058,0.8766043186187744,-1.9418288669981896,-1.548610035573141,-2.695438687001364,-0.0743807032704353,0.0016148332506418,0.0191894024610519,-0.006380318198353,0.0006241324590519,0.0792622119188308,-0.2948727568250046,-0.6304915625819256,0.4131996744401609,0.8407371557587928,-0.5396524755447363,0.01626545057361825,-0.040886130688662856
1752651503.0422237,1.9439852873431605,-1.4879973542741318,0.8766853213310242,-1.9418727360167445,-1.5486062208758753,-2.6950600782977503,-0.0751464888453483,0.0017327789682894,0.0197436641901731,-0.0065570501610636,0.0008724521612748,0.0805942863225936,-0.2949077966784139,-0.6306196075653885,0.41335327327194177,0.8406627935571788,-0.5397795910130048,0.01624026127246455,-0.04074695777939104
1752651503.0433702,1.9438651243792933,-1.488025502567627,0.8767211437225342,-1.941901346246237,-1.5486305395709437,-2.694950882588522,-0.0760506391525268,0.0018241652287542,0.019302349537611,-0.0059286602772772,0.0009379453258588,0.0835005342960357,-0.2949145488949525,-0.6306610004022196,0.4134501271113357,0.8406470679051122,-0.5398112706486922,0.01621438817553291,-0.04066193452450537
1752651503.0452576,1.943723503743307,-1.4879929956844826,0.8767856955528259,-1.9418884716429647,-1.548605744038717,-2.694754425679342,-0.0759953781962394,0.0017846296541392,0.0191057492047548,-0.0059037054888904,0.000932807684876,0.0830492824316024,-0.2949096454129306,-0.6307275859707598,0.4135150859651656,0.8406130673709153,-0.5398677309465411,0.01621546849157489,-0.04061480800758334
1752651503.0472257,1.9435723463641563,-1.4879973542741318,0.8768259286880493,-1.9419747791686,-1.548610035573141,-2.6945648829089563,-0.0779167339205741,0.0017964739818125,0.0195238757878541,-0.0069559807889163,0.0009285068372264,0.083122931420803,-0.29492749032709026,-0.6307906153845028,0.4136216127588396,0.8405778528838398,-0.5399320523075334,0.016193854175598918,-0.04049705198046248
1752651503.0494633,1.9433983008014124,-1.4879692134312172,0.8768624067306519,-1.941953798333639,-1.5486133734332483,-2.6944130102740687,-0.0775490626692771,0.0017210145015269,0.0195858813822269,-0.0071689151227474,0.0008641656022518,0.0831577032804489,-0.29494931401513436,-0.6308546539710072,0.4137087599510824,0.84054934213692,-0.5399813407190173,0.016180735156000815,-0.04043685099380102
1752651503.0514054,1.9432676474200647,-1.4879897397807618,0.8769264221191406,-1.9419170818724572,-1.5486062208758753,-2.694200102482931,-0.0793475732207298,0.0016964795067906,0.0194829236716032,-0.0069071841426193,0.0010031553683802,0.0837258473038673,-0.2949338128122508,-0.6309047505320251,0.4137999690764461,0.8405113955310248,-0.5400447876460204,0.016171679515729533,-0.0403819031311607
1752651503.0557768,1.9431169668780728,-1.4880059894970437,0.8769537806510925,-1.9419204197325648,-1.548556152974264,-2.6940768400775355,-0.0770676657557487,0.0016863252967596,0.0197701640427112,-0.0061897230334579,0.0009984336793422,0.0844503715634346,-0.29494629117326,-0.6309576940065721,0.41390528422735723,0.8404882172069678,-0.5400869638254442,0.016183048106694516,-0.04029562254194047
1752651503.056029,1.9429310003863731,-1.4879692134312172,0.8770267367362976,-1.9419614277281705,-1.5485976378070276,-2.69388467470278,-0.0802024155855178,0.0016130353324115,0.0198440998792648,-0.0061447126790881,0.0009906718041747,0.0849081203341484,-0.2949576341771349,-0.6310406378885665,0.41400076464415236,0.8404606135079055,-0.5401377184077468,0.0161455255949997,-0.04020602316133721
1752651503.057851,1.942812744771139,-1.4880309712937851,0.8770467638969421,-1.9420019588866173,-1.548577610646383,-2.693775240574972,-0.0789315328001976,0.001466236077249,0.0197281874716281,-0.007359457667917,0.0012586822267621,0.0850744694471359,-0.29496578359685766,-0.6310751895675598,0.41412056225643645,0.8404406891710879,-0.5401770444514072,0.016139388986310194,-0.04009649307006629
1752651503.0611515,1.942675892506735,-1.487985425894596,0.8770824670791626,-1.9420629940428675,-1.5485976378070276,-2.6935530344592493,-0.078761450946331,0.0014325357042253,0.0200032014399766,-0.0071520674973726,0.0010711590293794,0.0841937586665153,-0.29498976530395354,-0.6311380030617144,0.4141818001618662,0.8403937640922337,-0.5402561295897361,0.016115000565038045,-0.04002427353986828
1752651503.0615237,1.942512337361471,-1.4879909616759797,0.8771262168884277,-1.942021509210104,-1.5486019293414517,-2.6933472792254847,-0.0801033154129982,0.0013825092464685,0.0200888067483901,-0.0071932384744286,0.0008941333508118,0.0872348174452781,-0.2949977961105652,-0.6311929910142627,0.41428290029502834,0.8403526865213639,-0.5403249810582236,0.01610010653891074,-0.03996327902202834
1752651503.0634513,1.9423568884478968,-1.4879940164140244,0.8770906925201416,-1.94201721767568,-1.5486143271075647,-2.693183485661642,-0.080244593322277,0.001304633799009,0.0197112560272216,-0.0064046052284538,0.0007669911137782,0.0858905166387558,-0.29505799328734866,-0.6312256765148367,0.4143813460164538,0.8403021915956613,-0.5404095617843475,0.016082008042697545,-0.03988861176943278
1752651503.0652423,1.9422004858600064,-1.488022269015648,0.8771674633026123,-1.942045351068014,-1.5485904852496546,-2.693036381398336,-0.0803944244980812,0.0013164733536541,0.0198097694665193,-0.0062778014689683,0.0007716628024354,0.0852387323975563,-0.29504312866366966,-0.6312930779677188,0.4145010333011766,0.840287160625871,-0.5404408514419362,0.01607641893973542,-0.03978344547800054
1752651503.067238,1.942014519368307,-1.4879535001567383,0.8771747350692749,-1.94207825283193,-1.54858905473818,-2.692830626164572,-0.080236904323101,0.0012942922767251,0.0201655700802803,-0.0070160888135433,0.0006966313230805,0.0897970795631408,-0.2950961367153684,-0.6313647597165656,0.41457422741306504,0.8402365642606633,-0.5405252408601324,0.016063767882460212,-0.039710646355236134
1752651503.0692527,1.9418647925006312,-1.4879523378661652,0.8772604465484619,-1.9420324764647423,-1.5486143271075647,-2.69268519083132,-0.0827794894576072,0.0012531809043139,0.0200685895979404,-0.006891603115946,0.0007139437948353,0.0864911675453186,-0.29507682114481704,-0.6314273071097806,0.4146617016612787,0.840222918945109,-0.5405506375005908,0.01604040729915286,-0.03966308246648291
1752651503.0712242,1.9417622725116173,-1.488005967145302,0.8773341774940491,-1.9420205555357877,-1.5485976378070276,-2.69251519838442,-0.0831685364246368,0.0013311762595549,0.0201618075370788,-0.0065066153183579,0.0005954365478828,0.0885413736104965,-0.29504446756061115,-0.6314691918350401,0.4147605158767524,0.8401995736703443,-0.5405922546601545,0.016035099100770514,-0.03959250184632032
1752651503.073145,1.94155723253359,-1.487956554894783,0.8773324489593506,-1.9420978031554164,-1.5485976378070276,-2.6923351923571985,-0.08390424400568,0.0013423453783616,0.0204745195806026,-0.0061248866841197,0.0005956147797405,0.0893331319093704,-0.29510851801271165,-0.6315444286356713,0.4148635441219238,0.8401551809797349,-0.5406701067481379,0.016017453455664254,-0.039478459020859925
1752651503.075483,1.94136363664736,-1.487936110501625,0.8773846626281738,-1.942101141015524,-1.5485861937152308,-2.6921399275409144,-0.0837031900882721,0.0015067372005432,0.020457049831748,-0.0068317069672048,0.0006260151858441,0.0895913019776344,-0.29512442099358605,-0.631620735589801,0.4149708897751513,0.8401199059501147,-0.540731499168609,0.016007554688698408,-0.039392227991411885
1752651503.0771737,1.9412525335894983,-1.4879654210856934,0.8774237632751465,-1.942080637017721,-1.5486062208758753,-2.691950623189108,-0.08376145362854,0.0015552778495475,0.020563967525959,-0.007164160721004,0.0006611673743464,0.0906768441200256,-0.29512219580598287,-0.6316556646784658,0.41505764808947804,0.840082037264778,-0.540795077728034,0.01598587144909798,-0.03933581681117912
1752651503.079175,1.941064182912008,-1.4880029049566763,0.8774266839027405,-1.9421259365477503,-1.5486233870135706,-2.691754166279928,-0.086190178990364,0.0015671122819185,0.0208939351141452,-0.0068388157524168,0.0012413042131811,0.0906967222690582,-0.29516520031921784,-0.6317073662635142,0.4152053537095935,0.8400354498001898,-0.5408778620162903,0.015957047886110017,-0.039204005948881696
1752651503.0815897,1.9408963362323208,-1.487936132853367,0.8775331377983093,-1.9420968494811,-1.548577610646383,-2.691566292439596,-0.0834409222006797,0.0015747904544696,0.0210950579494237,-0.0060616298578679,0.0011816185433417,0.0915568545460701,-0.2951418594608152,-0.6317999793498147,0.41526194366533964,0.8400141629153935,-0.5409131676122999,0.015969629197388556,-0.03916787138046503
1752651503.0835786,1.940748993550436,-1.4879492235234757,0.8775690197944641,-1.9421373806395472,-1.548610035573141,-2.691390816365377,-0.0839347541332244,0.0015736463246867,0.0206122901290655,-0.0061350306496024,0.0010080346837639,0.0915146470069885,-0.29515878986823496,-0.6318523240423498,0.41536707353541863,0.8399809634391421,-0.5409726173642009,0.015937288392653955,-0.039071871732306016
1752651503.0888746,1.9406397978412075,-1.4879204344800492,0.8775796890258789,-1.9421330891051236,-1.5485623518573206,-2.6911988894092005,-0.0889812484383583,0.0015395769150927,0.0204839017242193,-0.0073553984984755,0.0009917435236275,0.0906939953565597,-0.2951779833061967,-0.6318953862869624,0.4154154334913025,0.839932715678096,-0.541049897481343,0.01595238627980078,-0.03903284438811561
1752651503.0923707,1.939964596425192,-1.4879535150578995,0.8777536153793335,-1.9422131977477013,-1.5485695044146937,-2.6906116644488733,-0.0879309698939323,0.001485452055931,0.0211292803287506,-0.0065699308179318,0.0008883410482667,0.0940014794468879,-0.2952322386906455,-0.6321430877405891,0.41586793984134474,0.8398367888722029,-0.5412283143036057,0.01588660800834453,-0.0386483575187029
1752651503.0936944,1.939964596425192,-1.4879535150578995,0.8777536153793335,-1.9422131977477013,-1.5485695044146937,-2.6906116644488733,-0.0879309698939323,0.001485452055931,0.0211292803287506,-0.0065699308179318,0.0008883410482667,0.0940014794468879,-0.2952322386906455,-0.6321430877405891,0.41586793984134474,0.8398367888722029,-0.5412283143036057,0.01588660800834453,-0.0386483575187029
1752651503.095464,1.9397099653827112,-1.48792918146167,0.877821147441864,-1.9422489605345667,-1.5485904852496546,-2.69026500383486,-0.0890048667788505,0.0016400610329583,0.0207771882414817,-0.008184908889234,0.0009452215163037,0.0931377187371254,-0.2952590142057075,-0.632242855886889,0.41601435816693544,0.8397668683513697,-0.5413468840105478,0.015852238269016636,-0.03852096225778968
1752651503.0972362,1.9394834677325647,-1.4879215669683,0.8778438568115234,-1.9422170124449671,-1.5485904852496546,-2.6900938192950647,-0.0887579023838043,0.0016072401776909,0.0204787142574787,-0.0071962978690862,0.0009857141412794,0.0939026474952697,-0.2952975246096385,-0.632313233711795,0.4161471155157981,0.8397303905403426,-0.5414103828509915,0.015837298125025608,-0.03842978704345818
1752651503.0991704,1.9393294493304647,-1.4879247185638924,0.8778796195983887,-1.9422532520689904,-1.5486152807818812,-2.6898306051837366,-0.0918031185865402,0.0016792500391602,0.0206659194082021,-0.006508563645184,0.0009727956494316,0.0949580892920494,-0.29531647118611515,-0.632369328171459,0.4162493449493275,0.8396730302578937,-0.5415067298573275,0.015807677144638557,-0.03833772450264123
1752651503.1011865,1.9391544500934048,-1.4879246962121506,0.8779908418655396,-1.942244669000143,-1.5485709349261685,-2.6896265188800257,-0.0883086919784545,0.0017368297558277,0.0216097403317689,-0.006425333674997,0.0009716694476082,0.0950473472476005,-0.29528339360121925,-0.6324551457538585,0.4163577846986804,0.8396504915925007,-0.5415473509142045,0.01581367595437204,-0.03825501717539123
1752651503.103164,1.9389660994159144,-1.4879010182670136,0.8780338168144226,-1.9422651729979457,-1.5485904852496546,-2.689464632664816,-0.0901857241988182,0.0017272167606279,0.0218385383486747,-0.0076738372445106,0.001007791608572,0.0955314338207244,-0.295308270661487,-0.6325269881311554,0.4164616404434859,0.839622250816259,-0.5415981373074046,0.015788998770846666,-0.03816596805012209
1752651503.1051722,1.9388063589679163,-1.487954707150795,0.8780355453491211,-1.9422971210875453,-1.5485995451556605,-2.689275328313009,-0.0920418724417686,0.0017008448485285,0.0213838256895542,-0.008578447625041,0.0009931429522112,0.0948861017823219,-0.2953406999493886,-0.6325662349375173,0.4166011763187262,0.8395764251954176,-0.5416782538994872,0.01576621192193634,-0.03804631480338909
1752651503.1071105,1.9386146704303189,-1.4879247111133118,0.8781086802482605,-1.9423252544798792,-1.5485823790179651,-2.689087692891256,-0.0913106128573417,0.0016496456228196,0.0213668327778577,-0.0080836936831474,0.0008795824833214,0.0981375351548194,-0.2953455384688778,-0.6326525438100876,0.4167038116895821,0.8395488791005193,-0.5417277054075106,0.015758444925944436,-0.03795318443149405
1752651503.109117,1.9384310881244105,-1.487917260532715,0.8781075477600098,-1.9423328838744105,-1.5485666433917444,-2.688904587422506,-0.0929934233427047,0.0017090507317334,0.0222698673605918,-0.0068489178083837,0.0007566765416413,0.0953608900308609,-0.2953904910682484,-0.6327083855881368,0.416814358028718,0.8395023348907179,-0.5418063659648619,0.01575184594150782,-0.03786252583251777
1752651503.111154,1.938213173543112,-1.487889082436897,0.878159761428833,-1.942308088342184,-1.5485456625567835,-2.6886912027942103,-0.0926662683486938,0.0016224097926169,0.0226709563285112,-0.007348689250648,0.0007383461925201,0.0998663604259491,-0.2954099392674616,-0.6327908879572899,0.4169288029319463,0.8394615780638449,-0.5418752928621263,0.015747405848121405,-0.03778154508749603
1752651503.1134348,1.9380467573748987,-1.4879215669683,0.878229022026062,-1.9423243008055628,-1.5485604445086878,-2.6885531584369105,-0.092613361775875,0.0016808828804641,0.0223518572747707,-0.0081432843580842,0.0006890934891998,0.096585527062416,-0.2954036068419745,-0.6328538432335413,0.417056496673382,0.8394473717686379,-0.5419052521938186,0.015723364942378304,-0.03767736018312374
1752651503.115685,1.937859360371725,-1.4879010257175942,0.8782646059989929,-1.9423524341978968,-1.5485823790179651,-2.6882782618152063,-0.092559814453125,0.0016784741310402,0.021652290597558,-0.0076188803650438,0.0006213980377651,0.0988733991980552,-0.29543317915656486,-0.632923143069502,0.41716278451123606,0.8393866604000493,-0.5420065619469425,0.015695054913695217,-0.03758439037903304
1752651503.1176915,1.9376691023456016,-1.487901010816433,0.8783293962478638,-1.9423967800536095,-1.5485666433917444,-2.688144985829489,-0.0933637395501136,0.0016714758239686,0.0217570140957832,-0.0065817441791296,0.000645526102744,0.0986701473593711,-0.2954397562436863,-0.6330025212249195,0.4172866312552452,0.8393724224728853,-0.542036909911241,0.015685215289930714,-0.037468636313346834
1752651503.1195796,1.9374702612506312,-1.4878967341831704,0.8783679008483887,-1.9423510036864224,-1.5485871473895472,-2.6879194418536585,-0.0929662510752677,0.0016273385845124,0.0220748577266931,-0.0072293104603886,0.0005451337783597,0.1005667820572853,-0.29546166684254155,-0.6330659569672213,0.4174029353591902,0.839324928077551,-0.5421160114209729,0.01566127769263227,-0.03739812361153604
1752651503.1213288,1.9372699896441856,-1.4878686156919976,0.8784207105636597,-1.9423967800536095,-1.5485580603228968,-2.6877031962024134,-0.092966079711914,0.0015994437271729,0.0226854979991912,-0.0077273049391806,0.0005479041137732,0.1004096046090126,-0.2954813402211617,-0.6331509026012023,0.41751426748830295,0.8392844032399571,-0.5421862703495142,0.015657769063751145,-0.03729038737501942
1752651503.1235738,1.9371040503131312,-1.4878685784390946,0.8784727454185486,-1.9424377880492152,-1.5485246817218226,-2.6874826590167444,-0.0939146801829338,0.0016325573669746,0.0232666693627834,-0.0079393163323402,0.0005817046039737,0.1009261161088943,-0.29548828081866807,-0.6332204700329268,0.41762261359568675,0.8392422124930584,-0.542258635615043,0.015657004779776267,-0.037187888781085754
1752651503.1253014,1.9368980566607876,-1.4879258585027235,0.878495454788208,-1.9424568615355435,-1.5485871473895472,-2.6872451941119597,-0.094352439045906,0.0015941350720822,0.0234110057353973,-0.0073807439766824,0.0006098432349972,0.101882018148899,-0.29552147964759334,-0.6332731558684267,0.41779210304621045,0.8391903709931917,-0.5423495676393005,0.015604498885884865,-0.037053573758724735
1752651503.1273408,1.936702076588766,-1.487885833983757,0.8785176277160645,-1.9424525700011197,-1.5485542456256312,-2.68706185022463,-0.0948599129915237,0.0017458272632211,0.0233018994331359,-0.00801482796669,0.0005857973010279,0.1026513576507568,-0.2955569224895415,-0.6333453937247444,0.41788722223133457,0.839149080911981,-0.5424185076685719,0.015608058328942747,-0.03697798072335945
1752651503.1293428,1.936589066182272,-1.4879063752344628,0.878584086894989,-1.942456384698385,-1.5485246817218226,-2.6868534723864954,-0.0937287807464599,0.0016873789718374,0.0234086159616708,-0.007912416011095,0.0008187981438823,0.1017582044005394,-0.2955363073551094,-0.6333963374919811,0.41797229649419715,0.8391127796178459,-0.542479235424318,0.015609541774797744,-0.03691022109173348
1752651503.131338,1.9362767378436487,-1.4878934186748047,0.8786270618438721,-1.9425302944579064,-1.548516098652975,-2.686657969151632,-0.0993497148156166,0.0017547983443364,0.0237380117177963,-0.0077860709279775,0.0009266173001378,0.1039252877235412,-0.29559059032825413,-0.633508921201891,0.4181671093442144,0.8390784241489431,-0.5425454853484103,0.015587408280000737,-0.03672638232792374
1752651503.1334963,1.936134640370504,-1.487893411224224,0.878700852394104,-1.9424520931639613,-1.5485737959491177,-2.686453644429342,-0.0965815261006355,0.0017984544392675,0.0236789006739854,-0.0073571666143834,0.0008428252185694,0.1014505550265312,-0.29557658837953277,-0.6335597030556991,0.4182472107947454,0.8390451012253467,-0.5425998600583968,0.015549919534468088,-0.036700272162855416
1752651503.1352408,1.9359148184405728,-1.4878490281156085,0.878752589225769,-1.942512651483053,-1.5485261122332972,-2.686233107243673,-0.0982848405838012,0.001850335043855,0.0235739201307296,-0.0083121182397007,0.000848717696499,0.1054532155394554,-0.295603430085403,-0.6336556394176646,0.41836155258060553,0.8390030854370586,-0.5426726415451455,0.015554707498979258,-0.03658247968810996
1752651503.137336,1.9357474485980437,-1.4878621113351365,0.8787670135498047,-1.9425622425475064,-1.5485737959491177,-2.685991112385885,-0.0987140759825706,0.001795511925593,0.023738382384181,-0.0089699681848287,0.0008578934357501,0.104037344455719,-0.2956403651058106,-0.6337067915626824,0.41848050353267957,0.8389464225748359,-0.5427687906452515,0.01551285508524897,-0.036473158315125924
1752651503.139334,1.9356001059161585,-1.4878652405789872,0.8788601756095886,-1.9425488911070763,-1.5485871473895472,-2.68579608598818,-0.0991161093115806,0.0018084323965013,0.024127984419465,-0.007935726083815,0.0008589105564169,0.1041472032666206,-0.29561602396862297,-0.6337737680727268,0.4185733225412537,0.838921578967871,-0.5428121222053844,0.015492934629226088,-0.036408148888888534
1752651503.143958,1.935314957295553,-1.4878738907030602,0.8788765668869019,-1.9426099262633263,-1.5485623518573206,-2.685571257268087,-0.0992666259407997,0.0017735362052917,0.0242652911692857,-0.007990276440978,0.0007775321719236,0.1051438376307487,-0.2956747701190795,-0.6338665804573128,0.4187644784992847,0.8388713473447738,-0.5429018663332237,0.01548005750274403,-0.0362324986107525
1752651503.1443286,1.935139004384176,-1.4878576558879395,0.8789276480674744,-1.942544599572653,-1.5484936873065394,-2.685409132634298,-0.1019966602325439,0.0017212617676705,0.0242322217673063,-0.0083632702007889,0.0006799622788093,0.1053507179021835,-0.29567529800423464,-0.6339339435547507,0.41885658573938633,0.8388419604935176,-0.5429498500679951,0.015504736161284427,-0.036183266617353556
1752651503.145514,1.9348967711078089,-1.4878407728723069,0.8790244460105896,-1.9426008663573209,-1.5485623518573206,-2.685171667729513,-0.0984322801232338,0.0017791363643482,0.0243402495980262,-0.0082511380314826,0.0006038753781467,0.104644700884819,-0.2956846843361636,-0.6340354342772196,0.41900287012045867,0.838810100703688,-0.5430095347304674,0.015448161720256683,-0.03605016572409725
