mathias31415/evaluate_motion_primitives_from_trajectory_controller/data/trajectory_20250716_093119_executed.csv
timestamp,elbow_joint_pos,shoulder_lift_joint_pos,shoulder_pan_joint_pos,wrist_1_joint_pos,wrist_2_joint_pos,wrist_3_joint_pos,elbow_joint_vel,shoulder_lift_joint_vel,shoulder_pan_joint_vel,wrist_1_joint_vel,wrist_2_joint_vel,wrist_3_joint_vel,pose_x,pose_y,pose_z,pose_qx,pose_qy,pose_qz,pose_qw
1752651150.366462,1.499265495930807,-1.4706662607244034,2.0711686611175537,-1.574839254418844,-1.6294315497027796,-1.5106704870807093,-0.0,-0.0,0.0,0.0,0.0,0.0,0.506391390280159,-0.5773601749996767,0.6547300242494293,0.8442076516697429,-0.5350735260899757,-0.024924555867086865,0.019711140371034917
1752651150.366774,1.499286953602926,-1.4707060170224686,2.071226119995117,-1.5747949085631312,-1.6294849554644983,-1.5106423536883753,-0.0,-0.0,0.0,0.0,0.0,0.0,0.5064061405913544,-0.5773103387311124,0.6547402314880327,0.8442150811291874,-0.5350600431573164,-0.024948008101992897,0.01972926512248551
1752651150.3708365,1.4993026892291468,-1.470669151549675,2.07119369506836,-1.574835916558737,-1.6294482390033167,-1.5106619040118616,-0.0,-0.0,0.0,0.0,0.0,0.0,0.5064008730052586,-0.5773424548907966,0.6547063155030917,0.844212001511597,-0.5350657748029526,-0.02494471616909955,0.019709750722480213
1752651150.3732214,1.4992788473712366,-1.4706409212997933,2.071234226226806,-1.5748564205565394,-1.6294482390033167,-1.5106208960162562,-0.0,-0.0,0.0,0.0,0.0,0.0,0.5064334182009806,-0.577338652266946,0.654703963904907,0.8442118310039012,-0.5350662286132658,-0.02493686593344866,0.019714667332577707
1752651150.3735735,1.4993117491351526,-1.4706367936781426,2.0711848735809326,-1.5748230419554652,-1.6294735113727017,-1.510629955922262,-0.0,-0.0,0.0,0.0,0.0,0.0,0.5063992341657865,-0.5773593679844372,0.654674493985965,0.844201008863178,-0.5350818028095936,-0.024974335293297165,0.019707955578544635
1752651150.377249,1.4992831389056605,-1.470636786227562,2.0712218284606934,-1.5748845539488734,-1.6294358412372034,-1.510658089314596,-0.0,-0.0,0.0,0.0,0.0,0.0,0.5064297960061727,-0.577348389696428,0.6547011164757394,0.8442185246978786,-0.5350562325809425,-0.02492574172512889,0.019713394752754066
1752651150.3813908,1.4992697874652308,-1.470650033359863,2.071185111999512,-1.574867387811178,-1.6294649283038538,-1.5106537977801722,-0.0,-0.0,0.0,0.0,0.0,0.0,0.5064025044423129,-0.5773628946810359,0.6547184260552157,0.8442072640319386,-0.5350733109768337,-0.024928966839029006,0.019727996561636468
1752651150.3846378,1.499298397694723,-1.470607155268528,2.0712056159973145,-1.5748597584166468,-1.6294692198382776,-1.5106380621539517,-0.0,-0.0,0.0,0.0,0.0,0.0,0.5064213575174498,-0.5773663802645388,0.6546657327787346,0.8442087116910667,-0.5350700021246725,-0.024964240818438756,0.01971117986249101
1752651150.3855717,1.499326531087057,-1.4705984529903908,2.071234226226806,-1.5748325786986292,-1.6294806639300743,-1.5106495062457483,-0.0,-0.0,0.0,0.0,0.0,0.0,0.5064353006940853,-0.5773499573116333,0.6546367466374042,0.8442194932677323,-0.5350519413317665,-0.02499482821338917,0.0197009092801431
1752651150.387355,1.4993322531329554,-1.470619053845741,2.071217536926269,-1.574827333489889,-1.629476372395651,-1.5106447378741663,-0.0,-0.0,0.0,0.0,0.0,0.0,0.5064207455899434,-0.5773483725783896,0.6546476068228175,0.8442137662075418,-0.5350612060177522,-0.024989696196576438,0.019701214290226015
1752651150.389591,1.4993050734149378,-1.470607155268528,2.0711774826049805,-1.574855466882223,-1.6294611136065882,-1.5106762091266075,-0.0,-0.0,0.0,0.0,0.0,0.0,0.5064052608562669,-0.5773789299941148,0.6546605808639765,0.8442114934513653,-0.5350657091822969,-0.024967730212024503,0.019704152606005575
1752651150.3947446,1.4993050734149378,-1.470607155268528,2.0711774826049805,-1.574855466882223,-1.6294611136065882,-1.5106762091266075,-0.0,-0.0,0.0,0.0,0.0,0.0,0.5064052608562669,-0.5773789299941148,0.6546605808639765,0.8442114934513653,-0.5350657091822969,-0.024967730212024503,0.019704152606005575
1752651150.3953688,1.4993117491351526,-1.4706572529724615,2.0712430477142334,-1.5748845539488734,-1.6294568220721644,-1.5106619040118616,-0.0,-0.0,0.0,0.0,0.0,0.0,0.506433390016246,-0.5773269017734913,0.6546969086089818,0.8442250528994484,-0.5350452644121534,-0.024934201394488566,0.019720818641008418
1752651150.3988376,1.4993117491351526,-1.4706572529724615,2.0712430477142334,-1.5748845539488734,-1.6294568220721644,-1.5106619040118616,-0.0,-0.0,0.0,0.0,0.0,0.0,0.506433390016246,-0.5773269017734913,0.6546969086089818,0.8442250528994484,-0.5350452644121534,-0.024934201394488566,0.019720818641008418
1752651150.4018445,1.4993141333209437,-1.4706586760333558,2.0711731910705566,-1.5748521290221156,-1.6294692198382776,-1.5106247107135218,-0.0,-0.0,0.0,0.0,0.0,0.0,0.5063894600595488,-0.5773587034828379,0.6546926267384421,0.8441963897456909,-0.53508976582152,-0.024952117740334685,0.019717755290218218
1752651150.4022727,1.4993322531329554,-1.4706322860768817,2.071185111999512,-1.5748468838133751,-1.6294315497027796,-1.51062518755068,-0.0,-0.0,0.0,0.0,0.0,0.0,0.5064047067953623,-0.5773588275989711,0.6546595049122675,0.8442001810592211,-0.5350842443484732,-0.02496465634335799,0.019689379961284913
1752651150.4040167,1.4993117491351526,-1.4706071329167862,2.07116436958313,-1.5748239956297816,-1.6294735113727017,-1.5106843153582972,-0.0,-0.0,0.0,0.0,0.0,0.0,0.506394194812907,-0.5773821855481434,0.6546523737817582,0.8442101425770717,-0.5350670620427023,-0.02498762486232559,0.019700073368667647
1752651150.4053955,1.4993141333209437,-1.4706281137517472,2.0712218284606934,-1.5748597584166468,-1.6294525305377403,-1.5106661955462857,-0.0,-0.0,0.0,0.0,0.0,0.0,0.5064266299411354,-0.5773466472088712,0.6546704977409344,0.8442207133144273,-0.5350515830978966,-0.02495804121193295,0.019704994650539327
1752651150.4073634,1.4993141333209437,-1.4706281137517472,2.0712218284606934,-1.5748597584166468,-1.6294525305377403,-1.5106661955462857,-0.0,-0.0,0.0,0.0,0.0,0.0,0.5064266299411354,-0.5773466472088712,0.6546704977409344,0.8442207133144273,-0.5350515830978966,-0.02495804121193295,0.019704994650539327
1752651150.409986,1.4993117491351526,-1.470616230075695,2.0712218284606934,-1.5748683414854945,-1.6294286886798304,-1.5106752554522913,-0.0,-0.0,0.0,0.0,0.0,0.0,0.5064324106506725,-0.577351436462327,0.6546640723893882,0.8442233560355101,-0.5350480555134325,-0.024952769123468648,0.019694230843222207
1752651150.4130418,1.4993398825274866,-1.4706027594259758,2.07120132446289,-1.5748607120909632,-1.6294892469989222,-1.5106332937823694,-0.0,-0.0,0.0,0.0,0.0,0.0,0.5064151905783384,-0.5773666638326082,0.6546341339208509,0.844206225152182,-0.535072860132532,-0.024988720498963595,0.019709074349648102
1752651150.4150672,1.4993613401996058,-1.470661961739399,2.0712263584136963,-1.5748802624144496,-1.6294568220721644,-1.5106661955462857,-0.0,-0.0,0.0,0.0,0.0,0.0,0.5064192107058417,-0.5773270443652544,0.654665804073854,0.8442218672083938,-0.5350497269671219,-0.024955909539323397,0.01970865745418997
1752651150.4185393,1.4993274847613731,-1.4706324350884934,2.0711894035339355,-1.5749174557127894,-1.6294692198382776,-1.510690991078512,-0.0,-0.0,0.0,0.0,0.0,0.0,0.5064076565961976,-0.5773666530349573,0.6546714092118961,0.8442183909334651,-0.5350553486715691,-0.024941359210466127,0.019723358446048424
1752651150.4197924,1.4993251005755823,-1.4706869435361405,2.07116436958313,-1.5748511753477992,-1.629482571278707,-1.5106495062457483,-0.0,-0.0,0.0,0.0,0.0,0.0,0.5063758087222835,-0.5773507566788179,0.654706244841878,0.8442004984828628,-0.5350831052740355,-0.02494852855641427,0.019727131936783812
1752651150.4216733,1.4993026892291468,-1.4706281510046502,2.0712056159973145,-1.5748726330199183,-1.6295345465289517,-1.5106199423419395,-0.0,-0.0,0.0,0.0,0.0,0.0,0.5064103768779298,-0.5773621417952292,0.6546804685224279,0.8442031908974238,-0.5350772617644269,-0.02496691627324981,0.01974713936486488
1752651150.427512,1.4993026892291468,-1.470645689671375,2.07120132446289,-1.574905057946676,-1.6294167677508753,-1.5105999151812952,-0.0,-0.0,0.0,0.0,0.0,0.0,0.5064177797132209,-0.5773538220304353,0.6546966018378545,0.8441976224654129,-0.5350898458508231,-0.024916450909804506,0.01970790615833903
1752651150.4280338,1.4992745558368128,-1.4706735175899048,2.0712056159973145,-1.574876924554342,-1.6294692198382776,-1.51062518755068,-0.0,-0.0,0.0,0.0,0.0,0.0,0.5064087992283649,-0.5773434148161951,0.6547338908686385,0.8442049806028337,-0.5350771193550594,-0.02491716597734502,0.019737322708974304
1752651150.428706,1.4992745558368128,-1.470623442237713,2.0712218284606934,-1.5748478374876915,-1.6294568220721644,-1.5106537977801722,-0.0,-0.0,0.0,0.0,0.0,0.0,0.5064291482579594,-0.5773522929805249,0.6546928712436869,0.8442172964455105,-0.535057120612906,-0.02494890597962611,0.019712588720893494
1752651150.4299903,1.4993274847613731,-1.470616192822792,2.0712387561798096,-1.574827333489889,-1.6294525305377403,-1.5106704870807093,-0.0,-0.0,0.0,0.0,0.0,0.0,0.5064363893052886,-0.5773380493810688,0.6546485813714708,0.8442265429023689,-0.5350417215116207,-0.024983144902991555,0.019691190206596067
1752651150.4317243,1.4992888609515589,-1.4706280914000054,2.0711894035339355,-1.5749007664122523,-1.6294611136065882,-1.510662857686178,-0.0,-0.0,0.0,0.0,0.0,0.0,0.5064110299361287,-0.5773708562795168,0.6546927297959266,0.8442108911284019,-0.5350676053387805,-0.024931431109348583,0.019724420398392308
1752651150.4339058,1.499286953602926,-1.4706528571299096,2.071197032928467,-1.574827333489889,-1.629498306904928,-1.5106704870807093,-0.0,-0.0,0.0,0.0,0.0,0.0,0.5064019314318436,-0.5773513178630605,0.654704271160454,0.8442147598702558,-0.5350599463767616,-0.02496086563580434,0.01972937371572579
1752651150.4355435,1.4993613401996058,-1.4706734728864213,2.0712056159973145,-1.5748683414854945,-1.6294525305377403,-1.51062518755068,-0.0,-0.0,0.0,0.0,0.0,0.0,0.5064043733861178,-0.5773312740263831,0.6546730083394197,0.8442053871171099,-0.5350758418069478,-0.024954851874579142,0.019706933930843475
1752651150.4383004,1.4992778936969202,-1.470628098850586,2.071156740188598,-1.5748349628844205,-1.629449192677633,-1.5106661955462857,-0.0,-0.0,-0.00054823665414,0.0,-3.061574886942253e-07,0.0,0.5063903338552129,-0.5773811462919518,0.6546925064044705,0.8442033000156982,-0.5350792799494438,-0.024952878434220904,0.019705488302420093
1752651150.4406743,1.49929124513735,-1.4706735101393242,2.0712099075317383,-1.5748683414854945,-1.629415337239401,-1.5106118361102503,-0.0,-0.0,-0.0019810029771178,0.0,-2.2778515358368168e-06,0.0,0.5064151978657161,-0.5773353451115799,0.6547210265908814,0.8442031143605949,-0.535081249644833,-0.024915023922889402,0.019707855421583938
1752651150.4428113,1.499228302632467,-1.4706366521171113,2.0711894035339355,-1.574799200097555,-1.6294940153705042,-1.5106819311725062,-0.0,-0.0,-0.0029443174134939,0.0,-0.0040333177894353,-0.0003224571119062,0.5064038559331783,-0.5773657156392186,0.6547291730459455,0.8442157812628192,-0.5350586166081874,-0.02495375850711983,0.01973072214869117
1752651150.4470005,1.4993117491351526,-1.4706366223147889,2.0712099075317383,-1.5748964748778285,-1.6294649283038538,-1.5106380621539517,-0.0,-0.0,-0.0027787694707512,-0.0013187587028369,-0.0033820017706602,-0.0022316356189548,0.5064188039845535,-0.5773539655148868,0.654682894914451,0.8442097581087727,-0.535069074843462,-0.02494006047918123,0.01972214094321402
1752651150.447425,1.4993441740619105,-1.4706324499896546,2.07120680809021,-1.574871679345602,-1.6295059362994593,-1.5106976667987269,-0.0,-0.0,-0.0023482195101678,-0.0014494762290269,-0.0024969731457531,-0.0032932811882346,0.5064102511042649,-0.5773531114206076,0.6546548310417808,0.8442246655338692,-0.5350437256978466,-0.02497743346738748,0.01972443948446591
1752651150.447696,1.4993098417865198,-1.4707016509822388,2.071156740188598,-1.5748802624144496,-1.6294892469989222,-1.510648552571432,-0.0,-0.0,-0.0019823820330202,-0.0018004548037424,-0.0020037996582686,-0.0038141626864671,0.5063700352152237,-0.5773537358685948,0.6547312179080776,0.8441979833337389,-0.535087566728561,-0.024924387140621767,0.01974425975873924
1752651150.4495122,1.4993050734149378,-1.470611849134304,2.0711774826049805,-1.5748521290221156,-1.6294930616961878,-1.510701958333151,-0.0,-0.0,-0.0014793642330914,-0.0019265232840552,-0.0018329737940803,-0.0038808672688901,0.5064007436992202,-0.5773784167964059,0.6546639270774358,0.8442180881984448,-0.5350544444297768,-0.02497511263263394,0.019718133874510883
1752651150.4512963,1.499282185231344,-1.470645659869053,2.071152448654175,-1.5749255619444789,-1.629516903554098,-1.5107153097735804,-0.0,-0.0,-0.0012709213187918,-0.0026389837730675,-0.0032926467247307,-0.0046896538697183,0.5063818599239296,-0.5773887747246891,0.6547137741997843,0.844214397707361,-0.5350611052097891,-0.024924355499209128,0.019759577379740774
1752651150.4532287,1.4993684927569788,-1.4706367713264008,2.071202278137207,-1.5748793087401332,-1.6295259634601038,-1.5106900374041956,-0.0,-0.0,-0.0010657227830961,-0.0036208340898156,-0.0056677157990634,-0.0057018958032131,0.5064034637546453,-0.5773526327391274,0.6546423615665475,0.8442212633831245,-0.5350484026401017,-0.024987650976687443,0.019730245379719732
1752651150.455563,1.4993365446673792,-1.470689759855606,2.0711817741394043,-1.5748912296690882,-1.629479710255758,-1.5107062498675743,-0.0,-0.0,-0.00166672677733,-0.0039663421921432,-0.0070906481705605,-0.0073913582600653,0.5063870556428188,-0.5773434412717438,0.6547051440775236,0.8442202776675992,-0.5350523368541825,-0.024934484142817213,0.01973299526812141
1752651150.4574866,1.49929124513735,-1.4706071776202698,2.071190595626831,-1.5748588047423304,-1.629512612019674,-1.5107477347003382,-0.0,-0.0,-0.0038288466166704,-0.0038468311540782,-0.0072321756742894,-0.0084467828273773,0.506408664930781,-0.5773771576970526,0.6546708574262269,0.8442336223975172,-0.5350295795696864,-0.02497323745718798,0.01973010922316132
1752651150.459664,1.4992573896991177,-1.4706781816533585,2.071157932281494,-1.5749036274352015,-1.629540745412008,-1.510733429585592,-0.0,-0.0,-0.0049248551949858,-0.0044430191628634,-0.0080500654876232,-0.0094642471522092,0.506375556342777,-0.5773744607353594,0.6547528140742305,0.8442203995187093,-0.5350513859178802,-0.024914772484840378,0.019778411863828584
1752651150.461541,1.4993160406695765,-1.4706662979773064,2.0711536407470703,-1.574944635430807,-1.6295822302447718,-1.510754410420553,-0.0,-0.0,-0.0054821749217808,-0.0049952827394008,-0.0088523682206869,-0.0092167109251022,0.5063700798897723,-0.5773812106858502,0.6547086189902698,0.8442245654350095,-0.5350433374436502,-0.024937959685106634,0.019789096492100523
1752651150.463523,1.4992788473712366,-1.470645674770214,2.071142196655273,-1.5748912296690882,-1.629597012196676,-1.510733429585592,-0.0,-0.0,-0.0061375251971185,-0.0049021355807781,-0.0084199449047446,-0.0100996801629662,0.5063660186104998,-0.5773952479054059,0.6547126153487864,0.8442158553819452,-0.5350562535027391,-0.02495754394700105,0.01978676601865201
1752651150.465488,1.4993308226214808,-1.470623397534229,2.0711417198181152,-1.5749193630614222,-1.629629913960592,-1.5107458273517054,-0.0,-0.0,-0.006454097572714,-0.0058856648392975,-0.0110098859295248,-0.0107458420097827,0.5063656801150598,-0.5774033534753159,0.6546636603533116,0.844218868384616,-0.5350500678187563,-0.02498578863674026,0.01978983468204883
1752651150.4676714,1.499228302632467,-1.470628098850586,2.071129322052002,-1.5749393902220667,-1.6295798460589808,-1.5107935110675257,-0.0,-0.0,-0.0064842300489544,-0.0061859735287725,-0.0112429987639188,-0.0107586691156029,0.5063703757072153,-0.5774191696969913,0.6547397458680231,0.8442284218992587,-0.5350378235680033,-0.02491864464873174,0.019797983684500548
1752651150.4735796,1.4992392698871058,-1.4706944909742852,2.071077346801758,-1.574963232079977,-1.629624668751852,-1.5108678976642054,-0.0,-0.0,-0.0065534492023289,-0.0065441378392279,-0.0113954897969961,-0.0119615336880087,0.5063213444480872,-0.5774215688358011,0.6547850566106892,0.8442337918445851,-0.535029022492933,-0.024896075428754848,0.019835201693351703
1752651150.477405,1.4992392698871058,-1.4706944909742852,2.071077346801758,-1.574963232079977,-1.629624668751852,-1.5108678976642054,-0.0,-0.0,-0.0065534492023289,-0.0065441378392279,-0.0113954897969961,-0.0119615336880087,0.5063213444480872,-0.5774215688358011,0.6547850566106892,0.8442337918445851,-0.535029022492933,-0.024896075428754848,0.019835201693351703
1752651150.4777474,1.4993026892291468,-1.4706281212023278,2.0710771083831787,-1.5749718151488246,-1.6296518484698694,-1.5108750502215784,-0.0,-0.0,-0.0078029497526586,-0.0071203517727553,-0.0127552337944507,-0.0126052778214216,0.5063298917263575,-0.5774441692952628,0.6546928494638437,0.8442357225050353,-0.5350238478420477,-0.02495571157882296,0.01981765743687352
1752651150.478006,1.4993050734149378,-1.470673495238163,2.071078300476074,-1.574991842309469,-1.629700009022848,-1.510886017476217,-0.0,-0.0,-0.0086171878501772,-0.0079959947615861,-0.0140180615708231,-0.0132892364636063,0.506316341030966,-0.5774292004118396,0.6547278908484684,0.8442383630952854,-0.535019076408949,-0.02493990017704308,0.019853854433519072
1752651150.4782605,1.4992778936969202,-1.4706456524184723,2.071045398712158,-1.575003286401266,-1.6296785513507288,-1.5109055677997034,-0.0,-0.0,-0.0087680500000715,-0.0081572849303483,-0.0137033145874738,-0.0129025820642709,0.5063082840250519,-0.5774606705921879,0.6547269205178097,0.8442349585917612,-0.5350251613579469,-0.024930519666766408,0.019846425235170367
1752651150.479633,1.4993026892291468,-1.4706190463951607,2.071017265319824,-1.575052877465719,-1.6297443548785608,-1.5109341780291956,-0.0,-0.0,-0.0093387039378285,-0.0075736064463853,-0.0143990600481629,-0.0145495468750596,0.5062925971835043,-0.5774919006169037,0.6546961635965449,0.8442344879346553,-0.5350240734701516,-0.024947784199478646,0.019874059792915722
1752651150.481464,1.4993069807635706,-1.470628098850586,2.07100510597229,-1.5750395260252894,-1.6297887007342735,-1.5109747091876429,-0.0,-0.0,-0.0096161682158708,-0.0089005166664719,-0.0136581072583794,-0.013514295220375,0.5062779507563054,-0.577494864975034,0.6546987379255766,0.8442416942037773,-0.5350113834659577,-0.024962785825727373,0.019890717774803043
1752651150.486392,1.4993026892291468,-1.4706279200366517,2.070997714996338,-1.5750647983946742,-1.6297920385943812,-1.510993782673971,-0.0,-0.0,-0.0096000200137496,-0.0094548286870121,-0.0152279147878289,-0.0146569423377513,0.5062751070497856,-0.5775020229707636,0.6547045368275446,0.8442447080428215,-0.5350068704120756,-0.0249510094928729,0.01989896175317124
1752651150.4867134,1.4993308226214808,-1.470648543243744,2.0709688663482666,-1.5750838718810023,-1.6298535505877894,-1.5110300222979944,-0.0,-0.0,-0.0102772042155265,-0.0092067588120698,-0.0146989692002534,-0.0127805648371577,0.5062467443088461,-0.5775101388277504,0.6547032850401708,0.8442460878166568,-0.5350031295651853,-0.02496147614633621,0.019927851623382134
1752651150.487312,1.4993489424334925,-1.4706648153117676,2.07095718383789,-1.5750838718810023,-1.6298893133746546,-1.5109975973712366,-0.0,-0.0,-0.0108221871778368,-0.0092640547081828,-0.0155144622549414,-0.013073100708425,0.5062314717298447,-0.5775091289932542,0.654703255986045,0.8442339647422358,-0.5350212521949124,-0.024970724898610762,0.019943303974804035
1752651150.489485,1.4993446508990689,-1.470619076197483,2.070925712585449,-1.5751234493651332,-1.6298964659320276,-1.5110538641559046,-0.0,-0.0,-0.0110164172947406,-0.0101466495543718,-0.014071368612349,-0.0125763369724154,0.5062255053267959,-0.577549136967523,0.6546766047738012,0.844240537048209,-0.5350106626960559,-0.024974146971856737,0.019944883782734086
1752651150.4930542,1.4993322531329554,-1.47065723062072,2.070913791656494,-1.5751573048033656,-1.629899803792135,-1.511033360158102,-0.0,-0.0,-0.0114511996507644,-0.0100327413529157,-0.0146333519369363,-0.0132064027711749,0.5062123495489794,-0.5775445060048443,0.6547177205431707,0.8442315983294404,-0.5350256343917271,-0.02493796841467579,0.019966889021504355
1752651150.4943116,1.4993446508990689,-1.470673495238163,2.0708975791931152,-1.5751515827574671,-1.6299522558795374,-1.5110939184771937,-0.0,-0.0,-0.0114824846386909,-0.0106451325118541,-0.0137447388842701,-0.0133835300803184,0.5061928047658962,-0.5775468072620699,0.6547210700333028,0.844242982418963,-0.535006201665971,-0.024952230855045388,0.01998842141444883
1752651150.4956226,1.499286953602926,-1.4706190463951607,2.0708537101745605,-1.5751635036864222,-1.6299718062030235,-1.511080567036764,-0.0,-0.0,-0.012231876142323,-0.0115011660382151,-0.0143531952053308,-0.0132392598316073,0.5061822815811196,-0.577600869447742,0.6547214997313315,0.8442274525419793,-0.5350303390867912,-0.024950632692056482,0.020000263983743476
1752651150.4971514,1.4992745558368128,-1.4706648153117676,2.0708537101745605,-1.5751964054503382,-1.630007568989889,-1.5111053625689903,-0.0,-0.0,-0.0124076241627335,-0.0110399955883622,-0.0139079960063099,-0.0140084698796272,0.5061709168254183,-0.5775887471572124,0.6547684360483552,0.844233499405112,-0.5350208395189118,-0.024919719403564997,0.02003764825335123
1752651150.499755,1.499286953602926,-1.470623568897583,2.070817470550537,-1.5751549206175746,-1.63005239168276,-1.511169735585348,-0.0,-0.0,-0.0126063292846083,-0.0118115795776247,-0.0143584189936518,-0.0142661537975072,0.5061516093285299,-0.577620940599392,0.6547244412648547,0.8442408777785603,-0.5350068808333036,-0.02497315326783075,0.020032956960143934
1752651150.501387,1.499265495930807,-1.470648543243744,2.070789098739624,-1.5752369366087855,-1.6300924460040491,-1.511193577443258,-0.0,-0.0,-0.0133514665067195,-0.0126266479492187,-0.0143333543092012,-0.0149019686505198,0.5061315410335804,-0.5776382849757974,0.6547678028958467,0.8442389325964608,-0.535010294098463,-0.02492721623240932,0.02008093095370743
1752651150.5037198,1.4992731253253382,-1.4706528943828123,2.0707902908325195,-1.5752388439574183,-1.6301000753985804,-1.5112507979022425,-0.0,-0.0,-0.0133585315197706,-0.012557903304696,-0.0148235997185111,-0.0148313986137509,0.5061300755040246,-0.5776355899511519,0.6547660887968186,0.8442544909718008,-0.5349855157130187,-0.024930223563471465,0.020083236897876475
1752651150.5060172,1.499326531087057,-1.470614695256092,2.070729255676269,-1.5752788982787074,-1.6301196257220667,-1.5112746397601526,-0.0,-0.0,-0.0138865485787391,-0.0131259802728891,-0.0144710838794708,-0.0148072745651006,0.5061003217240782,-0.5776813008007912,0.6547055168430839,0.8442445064709391,-0.5350001484661628,-0.024958338833326633,0.020078240896676335
1752651150.5078323,1.499347988759176,-1.4706190463951607,2.070718288421631,-1.5752588711180628,-1.6301644484149378,-1.511268440877096,1.2820192978324485e-06,-0.0,-0.0136622851714491,-0.0121286623179912,-0.0149496523663401,-0.0150949386879801,0.5060858848195589,-0.5776828981454528,0.6546919755995262,0.8442396034906348,-0.5350062235600749,-0.024985461654018378,0.02008878681998411
1752651150.511149,1.499256436024801,-1.4706366223147889,2.070665121078491,-1.5753032169737755,-1.6301916281329554,-1.5113180319415491,1.7199925039790287e-08,-0.0,-0.0138891246169805,-0.0127128772437572,-0.0147739043459296,-0.015460574068129,0.5060568878065619,-0.577719546958536,0.6547735439252466,0.8442379575545943,-0.535009798873654,-0.024925985882968345,0.020136567755741568
1752651150.5127184,1.499265495930807,-1.4706619468382378,2.0706377029418945,-1.575338979760641,-1.6301916281329554,-1.5113661924945276,2.3075893973434347e-10,-0.0,-0.0135028688237071,-0.0121340490877628,-0.015477992594242,-0.016146095469594,0.5060367478843584,-0.5777255482914441,0.6547904753707717,0.8442433569890379,-0.5350018630537341,-0.02490400607773893,0.020148230448192604
1752651150.515761,1.4992530981646937,-1.4706572455218812,2.0705525875091557,-1.5754076443114222,-1.630242649708883,-1.5114629904376429,4.153579539231504e-14,-0.0,-0.0141746858134865,-0.011842630803585,-0.0159907229244709,-0.0178119894117116,0.5059881619178966,-0.5777820840895179,0.6548038733799565,0.8442457858657766,-0.5349974703573068,-0.024884810564242958,0.020186776918111788
1752651150.5176706,1.4992697874652308,-1.470623397534229,2.070594310760498,-1.5754596195616664,-1.6303365866290491,-1.511458698903219,5.572556703394341e-16,-0.0,-0.0149894813075661,-0.0111704831942915,-0.0154393995180726,-0.0166074894368648,0.5060122589162989,-0.5777837591221289,0.6547737460521237,0.8442549163527244,-0.5349804686246158,-0.024906449072868767,0.020228771564816832
1752651150.5193844,1.4992955366717735,-1.4706190463951607,2.070488691329956,-1.5754271946349083,-1.630310360585348,-1.5114858786212366,7.47629660427068e-18,-0.0,-0.0152294710278511,-0.0115774739533662,-0.0162350870668888,-0.0178882703185081,0.5059513709430851,-0.5778310892210983,0.654748784037564,0.8442343604782914,-0.5350129351033261,-0.024928772295429193,0.020200499295244197
1752651150.5211422,1.4993050734149378,-1.4706190463951607,2.070518016815185,-1.5754748783507289,-1.6303685347186487,-1.5114977995501917,1.0030406324984792e-19,-0.0,-0.0155571997165679,-0.0116279227659106,-0.0162033475935459,-0.0178052969276905,0.5059644838028438,-0.577823356914986,0.6547482028847267,0.8442447392553476,-0.5349953676264072,-0.02492600275827493,0.020235395831316515
1752651150.5232008,1.4993141333209437,-1.4706897896579283,2.070465564727783,-1.5754991970457972,-1.63039476076235,-1.5115369001971644,1.3457069382469192e-21,-0.0,-0.0153226405382156,-0.0118589578196406,-0.0166762303560972,-0.0183405764400959,0.5059162302399105,-0.5778233895741257,0.6547980234712516,0.8442406709543351,-0.5350020192122836,-0.024895689429221185,0.02026656342839356
1752651150.5251815,1.4993026892291468,-1.4706691962531586,2.070457935333252,-1.5755111179747523,-1.6304424444781702,-1.5116284529315394,1.8054375547867418e-23,-0.0,-0.0156651549041271,-0.0117307184264063,-0.0173769202083349,-0.0196496285498142,0.5059130578573121,-0.5778410924829388,0.6547921906341171,0.8442626641941808,-0.5349660154922086,-0.024907025127869655,0.020286848336142364
1752651150.527176,1.4992778936969202,-1.4706781816533585,2.070402145385742,-1.5755516491331996,-1.6304667631732386,-1.5115602652179163,2.4222250196127995e-25,-0.0,-0.0161277782171964,-0.0113649237900972,-0.0168279707431793,-0.0202635340392589,0.5058802208368047,-0.5778741255587911,0.6548209067670039,0.8442290531619674,-0.5350192058172707,-0.024880308468511993,0.020315645557469893
1752651150.5292325,1.4992745558368128,-1.4706619468382378,2.070365190505981,-1.575522085229391,-1.6305282751666468,-1.511712376271383,3.249723669451636e-27,-0.0,-0.0166521146893501,-0.0121970735490322,-0.0178719889372587,-0.0222378689795732,0.5058548045162019,-0.5779003181380606,0.6548080022636537,0.8442594039225583,-0.5349691237830558,-0.024915676443696425,0.02032989312488888
1752651150.5312788,1.4992831389056605,-1.4706572455218812,2.070387125015259,-1.5755344829955042,-1.6305306593524378,-1.5116856733905235,4.3599190043976093e-29,-0.0,-0.0173465423285961,-0.012382922694087,-0.0180306434631347,-0.0219361241906881,0.5058684553975039,-0.5778915878675512,0.6548000375374666,0.8442581086349012,-0.5349710915579612,-0.024916146676088415,0.02033132647709916
1752651150.5333552,1.4992879072772425,-1.470623397534229,2.0703139305114746,-1.5755864582457484,-1.6305506865130823,-1.5117839018451136,5.849387783477072e-31,-0.0,-0.0169941764324903,-0.0128815928474068,-0.0184775367379188,-0.0226556919515132,0.5058344556888312,-0.5779486881205776,0.6547776046059561,0.8442645767219014,-0.5349604740306442,-0.02491690031239995,0.02034118473243887
1752651150.5355675,1.4992573896991177,-1.4706528943828123,2.070270538330078,-1.5756398640074671,-1.6305988470660608,-1.5117481390582483,7.847700203109411e-33,-0.0,-0.0171257723122835,-0.0121799651533365,-0.0195023249834775,-0.022974207997322,0.505802793012745,-0.5779702686405896,0.6548273094415685,0.8442426119563186,-0.5349950526739798,-0.024879073994432767,0.02038964072066796
1752651150.5375795,1.499284569417135,-1.470628098850586,2.0702004432678223,-1.5756103001036583,-1.6306708494769495,-1.5118024984942835,1.0528690530730364e-34,-0.0,-0.0168020166456699,-0.0126334773376584,-0.0194849148392677,-0.0235788468271493,0.505757109578814,-0.5780137374767877,0.6547870539019721,0.8442379662350139,-0.5349994669847705,-0.024933409197017906,0.020399798998840955
1752651150.5406475,1.499352757130758,-1.4706572455218812,2.070218086242676,-1.5757037601866664,-1.6306746641742151,-1.5118373076068323,1.4125582674284616e-36,-0.0,-0.0173601899296045,-0.0135996723547577,-0.0198354925960302,-0.0240536257624626,0.5057612075769625,-0.5779945600321296,0.6547729308459187,0.8442517981284254,-0.5349781372533552,-0.024910727910952342,0.02041444715874249
1752651150.5414026,1.4993231932269495,-1.4706528943828123,2.0701491832733154,-1.57570280651235,-1.630709473286764,-1.5119717756854456,1.895127393670444e-38,-0.0,-0.0178421791642904,-0.0140476496890187,-0.0202483143657445,-0.0239587128162384,0.5057206806941751,-0.578036580596858,0.654790151065668,0.8442689335139332,-0.5349503904021463,-0.02491063405411397,0.02043301306364167
1752651150.5433023,1.499261204396383,-1.4706279200366517,2.0700972080230717,-1.5757671795287074,-1.63076621690859,-1.511987034474508,2.542557972624878e-40,-0.0,-0.0180929023772478,-0.014288805425167,-0.0207952503114938,-0.0247924886643886,0.5056982095964977,-0.57809053789794,0.654822032274769,0.8442582686139074,-0.5349667548995223,-0.02488076366844059,0.020481568020960256
1752651150.5457993,1.499293629323141,-1.470673495238163,2.0700933933258057,-1.5758081875243128,-1.6307771841632288,-1.5119527021991177,3.410760462166605e-42,-0.0,-0.0188591051846742,-0.0143458768725395,-0.0210188832134008,-0.0247804764658212,0.5056847743149679,-0.5780745409583403,0.6548387537649822,0.8442477959497994,-0.5349835719212276,-0.024859442852937848,0.02049987583747737
1752651150.5486832,1.499293629323141,-1.4706528943828123,2.0700132846832275,-1.575778146783346,-1.630833927785055,-1.5120256582843226,4.624284932271896e-44,-0.0,-0.0193162336945533,-0.0141157088801264,-0.0207788050174713,-0.0260188393294811,0.5056356351515251,-0.5781236506461047,0.65482019043565,0.84424549765399,-0.5349850507446874,-0.024896884109251335,0.02051049322472659
1752651150.5491512,1.499347988759176,-1.4706648153117676,2.069988965988159,-1.5758019886412562,-1.6309059301959437,-1.512094799672262,0.0,-0.0,-0.0196303371340036,-0.0148148722946643,-0.0212786570191383,-0.026471534743905,0.505609354518959,-0.5781310313220106,0.6547950015512319,0.8442568588751472,-0.5349648966037082,-0.02492341088268767,0.02053629065888848
1752651150.5512407,1.4993355909930628,-1.4706528943828123,2.069985628128052,-1.5758301220335902,-1.6309502760516563,-1.5121787230121058,0.0,-0.0,-0.0199833530932664,-0.0151801295578479,-0.0218845009803771,-0.0270929187536239,0.5056080132340475,-0.578144575322166,0.6547982035356915,0.8442779035317796,-0.5349307541208806,-0.024922550664616416,0.020561526500205714
1752651150.5531278,1.499298397694723,-1.4706322711757205,2.0699462890625,-1.575845380822653,-1.6310141722308558,-1.5122388044940394,-0.0,-0.0,-0.0203252360224723,-0.0157360639423131,-0.0214612483978271,-0.0275698956102132,0.5055867109596626,-0.5781826389555045,0.6548105808036325,0.8442827440014705,-0.5349216695370828,-0.02492514862151743,0.020595936667284206
1752651150.5551956,1.499293629323141,-1.4706071254662056,2.069943189620972,-1.5758902035155238,-1.6310012976275845,-1.5123079458819788,-0.0,-0.0,-0.0206874459981918,-0.0164498202502727,-0.0216493364423513,-0.0270071383565664,0.5055948050559685,-0.5781992101265784,0.6548001696711537,0.8443004549277185,-0.5348943460064399,-0.024912092934810535,0.020595340366158833
1752651150.557154,1.499282185231344,-1.4706366223147889,2.0698373317718506,-1.5759464703001915,-1.6310456434832972,-1.5122945944415491,-0.0,-0.0,-0.0209379475563764,-0.0172471106052398,-0.0227542612701654,-0.0275549869984388,0.5055263259696321,-0.5782501712774644,0.6548370591423166,0.84426784652444,-0.5349456335188655,-0.024881324016145928,0.020637156279098703
1752651150.559054,1.4993184248553677,-1.4707299035838624,2.0698177814483643,-1.5760022602477015,-1.631101433430807,-1.512362305318014,2.959357061627088e-06,-0.0,-0.0213898140937089,-0.0166493114084005,-0.0235278494656085,-0.0287827812135219,0.5054889898696802,-0.57822585627232,0.6548889632995819,0.8442798408392267,-0.5349263666192362,-0.024846452723770528,0.020687833020352663
1752651150.5610232,1.4993231932269495,-1.4706528943828123,2.069737195968628,-1.5760227642455042,-1.631124321614401,-1.5124347845660608,0.0001641136477701,-0.0,-0.0218555647879838,-0.0174086205661296,-0.0226483847945928,-0.0281811635941267,0.5054583869014984,-0.5783015073515245,0.6548305130812231,0.8442776449360521,-0.5349285186045252,-0.0248803510624577,0.02068106321760597
1752651150.5633006,1.499352757130758,-1.4706366223147889,2.069721937179565,-1.5760756931700648,-1.6311810652362269,-1.5124624411212366,0.00016042777861,-0.0,-0.0221597198396921,-0.0166962686926126,-0.0236361809074878,-0.0292176436632871,0.5054485615934793,-0.5783211794276751,0.6548045588119228,0.8442803937080109,-0.5349226585378579,-0.024891450705629016,0.020707048674436103
1752651150.5658967,1.499298397694723,-1.4706735175899048,2.0696945190429688,-1.5760776005186976,-1.6312568823443812,-1.512554947529928,0.0001549339212942,-0.0,-0.0223887674510478,-0.0171296931803226,-0.0249817613512277,-0.0293280072510242,0.5054202284550253,-0.5783305746904758,0.6548703963789022,0.8442967785901175,-0.5348956743285216,-0.024870376108764556,0.020761301481241362
1752651150.567901,1.4993069807635706,-1.4706442070058363,2.069600820541382,-1.5761381588377894,-1.6313017050372522,-1.5126150290118616,0.0001497770426794,-0.0,-0.0230505019426345,-0.0177910216152668,-0.0255871955305337,-0.0301487166434526,0.5053710044030114,-0.5783979474521743,0.6548499216166752,0.8442872834694104,-0.5349096421984041,-0.024872939711255763,0.020784477985720574
1752651150.5693386,1.499256436024801,-1.4706322711757205,2.06962251663208,-1.5761743984618128,-1.63135272661318,-1.512613598500387,0.0001449520786991,-0.0,-0.0237280093133449,-0.0185405127704143,-0.0259426236152648,-0.0298926718533039,0.505386392698768,-0.5784046023059565,0.6548803733192945,0.8442919719761819,-0.5349016126972359,-0.02485237475544284,0.020825231318797474
1752651150.573218,1.4992888609515589,-1.470616177921631,2.0695343017578125,-1.5761939487852992,-1.6314204374896448,-1.5127108732806605,0.0001673813385423,-0.0,-0.0242364965379238,-0.0184554196894168,-0.0261772368103265,-0.030061112716794,0.5053311171533035,-0.5784578488586516,0.6548487533135703,0.8442938324758114,-0.5348964459562813,-0.02488337821465834,0.020845479972213827
1752651150.5736456,1.499296013508932,-1.4706324648908158,2.0694985389709477,-1.576226373712057,-1.6314809958087366,-1.5127323309527796,0.0001633998617762,-0.0,-0.0247207470238208,-0.0185167454183101,-0.0261907428503036,-0.0309308692812919,0.5053019371680114,-0.5784750571121388,0.6548602647340687,0.8442892862175411,-0.5349023574205277,-0.024880507759825646,0.020881320309079597
1752651150.5751944,1.4993355909930628,-1.4705865022591134,2.06939697265625,-1.5762540302672328,-1.6315000692950647,-1.5127933661090296,0.0001819422177504,-0.0,-0.0248421821743249,-0.0188429206609725,-0.0270775482058525,-0.0326245836913585,0.5052506653638966,-0.5785447617186179,0.6548019337190267,0.8442784470118121,-0.5349182969740452,-0.024912112768845068,0.020873574468744112
1752651150.5770814,1.499298397694723,-1.4706528943828123,2.0693814754486084,-1.5763141117491664,-1.6315634886371058,-1.5129101912127894,0.0001797285804059,-0.0,-0.0252584032714366,-0.0192223358899354,-0.0280323643237352,-0.0329180657863616,0.5052260027650919,-0.5785391911236245,0.6548847986595439,0.8443044021437778,-0.5348773022791893,-0.0248573962191285,0.020939385864441048
1752651150.5792043,1.4993355909930628,-1.4706322711757205,2.0693295001983643,-1.5763126812376915,-1.6316245237933558,-1.5129841009723108,0.0001747822534525,-0.0,-0.0256097689270973,-0.019725190475583,-0.0279901009052991,-0.0311204567551612,0.5051918859960515,-0.5785728672034117,0.6548439966653085,0.8443098665343951,-0.534866303682041,-0.024899395967349285,0.02095009638745975
1752651150.5810928,1.4993098417865198,-1.470614695256092,2.06929874420166,-1.5763899288573209,-1.6317089239703575,-1.5129898230182093,0.0001860349148046,-0.0,-0.0259505286812782,-0.0195850022137165,-0.0295061562210321,-0.0314555466175079,0.5051755242085222,-0.5786115734214213,0.6548581924728859,0.8443020697671557,-0.5348771341615614,-0.024882948200879454,0.021007266048781725
1752651150.5832148,1.499286953602926,-1.470645659869053,2.069201707839966,-1.5763937435545865,-1.631784741078512,-1.51302940050234,0.0001891390566015,-0.0,-0.0265243854373693,-0.0200502630323171,-0.0314564034342765,-0.0336653366684913,0.5051063147079147,-0.5786550437093224,0.6548981495167714,0.8442857716575621,-0.5349013225973658,-0.024877594820124582,0.02105269902291468
1752651150.585081,1.499298397694723,-1.4706322711757205,2.069154024124145,-1.5764204464354457,-1.6318209807025357,-1.5131476561175743,0.0001844023063313,-0.0,-0.0268047098070383,-0.0208227690309286,-0.0298400539904832,-0.0333963856101036,0.5050788348929458,-0.5786881565017885,0.6548836184271255,0.8443042844895878,-0.5348710885704403,-0.0248873190293475,0.021066920883912994
1752651150.5871067,1.4992731253253382,-1.4707151141813777,2.069105863571167,-1.5765100918211878,-1.6319134871112269,-1.5131519476519983,0.0003150497213937,-0.0,-0.0271975565701723,-0.0205381643027067,-0.0291486494243145,-0.035118568688631,0.5050294783635376,-0.5786955087390103,0.6549742854728717,0.8442909846789824,-0.5348915603711802,-0.024823962292873016,0.021154733029760883
1752651150.5892122,1.4993050734149378,-1.470632293527462,2.0690577030181885,-1.5765000782408656,-1.6319316069232386,-1.5133150259601038,0.0002997120609506,-0.0,-0.0276720933616161,-0.0208276137709617,-0.0297638643532991,-0.037054032087326,0.5050158903391163,-0.5787504943507005,0.6548891543191278,0.8443219567942379,-0.5348408190817515,-0.02488508171306914,0.021129700121962875
1752651150.591174,1.4993355909930628,-1.4706500482610243,2.068989992141724,-1.5765773258604945,-1.631974999104635,-1.5133708159076136,0.0003305568825453,-0.0,-0.028364235535264,-0.021626902744174,-0.0310709550976753,-0.0353507958352565,0.5049706668923226,-0.5787841582897774,0.6548908138522237,0.8443181262125006,-0.534846316831124,-0.024868763287412592,0.02116279125605826
1752651150.594679,1.4993141333209437,-1.4706543770483511,2.0689172744750977,-1.5766459904112755,-1.632080380116598,-1.513374153767721,0.0003173576260451,-0.0,-0.0287900418043136,-0.0218135099858045,-0.0313959680497646,-0.0339424721896648,0.5049221294054583,-0.5788346793597932,0.6549176284661443,0.8442982137058757,-0.5348757435984028,-0.024853911015867296,0.02123083489499323
1752651150.5951474,1.4992688337909144,-1.4706322637251397,2.0688822269439697,-1.5766779385008751,-1.632155720387594,-1.5134790579425257,0.0002998203854076,-0.0,-0.0289799906313419,-0.0218154042959213,-0.0311682876199483,-0.0365445651113987,0.5049039057993232,-0.5788745149710639,0.6549365184194723,0.8443159625018017,-0.5348461545949567,-0.024849616789087498,0.0212754065784742
1752651150.5972936,1.4993098417865198,-1.470657282774784,2.068830966949463,-1.5766736469664515,-1.6321786085711878,-1.5135210196124476,0.0003294457274023,-0.0,-0.029355252161622,-0.0221833307296037,-0.0318106263875961,-0.0372240766882896,0.5048633304334753,-0.5788859205719479,0.6549267036481417,0.8443133182282263,-0.5348494574951677,-0.024865020666310234,0.02127931452915393
1752651150.5992005,1.4993274847613731,-1.470682517891266,2.068753957748413,-1.576773305932516,-1.6322549025165003,-1.5136645475970667,0.0003148008254356,-0.0,-0.0296655613929033,-0.0225181765854358,-0.0326053574681282,-0.0377162136137485,0.5048097664099255,-0.5789268564696755,0.6549456996153195,0.8443299819856492,-0.5348220995539493,-0.024839073081524103,0.021335974251707038
1752651150.601502,1.4993355909930628,-1.4706561353853722,2.0686938762664795,-1.5768052540221156,-1.6323350111590784,-1.5136984030352991,0.0003279225493315,-0.0,-0.0300056338310241,-0.0227882619947195,-0.0328770391643047,-0.0377272628247737,0.5047740683454844,-0.5789750160148867,0.6549246558313135,0.8443221804902908,-0.5348320879883209,-0.024860641843404346,0.021369175868706573
1752651150.6034606,1.4993355909930628,-1.470623457138874,2.068609952926636,-1.5768982372679652,-1.6323941389666956,-1.5137622992144983,0.0003269092412665,-0.0,-0.0300194583833217,-0.0230870079249143,-0.0335926413536071,-0.037809245288372,0.5047321220558464,-0.579044007986586,0.6549114750890921,0.8443160267419836,-0.5348407394046117,-0.024850258649668035,0.021407828119707466
1752651150.6064303,1.4992888609515589,-1.4706499961069603,2.0685911178588867,-1.5768519840636197,-1.6324494520770472,-1.513855282460348,0.0003132151905447,-0.0,-0.0303572118282318,-0.0237745884805917,-0.0337994657456874,-0.0377246737480163,0.5047099495252861,-0.5790462592593278,0.6549585236308194,0.8443352085662668,-0.5348091499869047,-0.024853100308146674,0.021437165640923968
1752651150.6071825,1.4993050734149378,-1.470670649116375,2.068522691726685,-1.5769497356810511,-1.6325348059283655,-1.5139315764056605,0.0004210227052681,-0.0,-0.0315538421273231,-0.0237846206873655,-0.0336056910455226,-0.0388628467917442,0.5046614380966354,-0.5790852318903364,0.6549749155894549,0.8443361003262029,-0.5348063569050322,-0.02483078211744711,0.02149750123487778
1752651150.6090066,1.499296013508932,-1.470628098850586,2.068434476852417,-1.5769759617247523,-1.6325934568988243,-1.5139992872821253,0.0003866866172757,-0.0,-0.0316288098692894,-0.0239049233496189,-0.035089511424303,-0.0381520427763462,0.5046160695899844,-0.579154565790714,0.6549527459525339,0.8443300546741866,-0.5348141333277407,-0.024849881734045405,0.021519408555687854
1752651150.6110246,1.499354664479391,-1.470632241373398,2.068411350250244,-1.5770608387389125,-1.6326664129840296,-1.514034096394674,0.0004262786533217,-0.0,-0.0311938989907503,-0.024723844602704,-0.0355671681463718,-0.0405584387481212,0.5045953164397002,-0.5791704678349286,0.6549259429592863,0.8443323384172426,-0.5348087393922919,-0.02485497963587728,0.021557934961367844
1752651150.6133726,1.4993684927569788,-1.470645697121956,2.068297863006592,-1.577092309991354,-1.6327455679522913,-1.5141213575946253,0.0003959641617257,-0.0,-0.030837370082736,-0.0250651761889457,-0.034525342285633,-0.0417522825300693,0.5045193474632428,-0.579228172534923,0.654930770181582,0.8443244181920191,-0.5348192802168088,-0.02486280990732419,0.021597570154885167
1752651150.615379,1.4993398825274866,-1.4706071254662056,2.0682597160339355,-1.577137132684225,-1.6328261534320276,-1.5142181555377403,0.0004230311024002,-0.0,-0.0318677015602588,-0.0254843384027481,-0.0359164290130138,-0.0420588627457618,0.5045021418462248,-0.5792760685727011,0.6549273836402649,0.8443391643737783,-0.5347940308906407,-0.024868642071008595,0.021639562608202115
1752651150.617146,1.4993436972247522,-1.4706528422287484,2.0681614875793457,-1.5772420368590296,-1.6329057852374476,-1.514306370412008,0.0004027740797027,-0.0,-0.0324647389352321,-0.0256937630474567,-0.0368387438356876,-0.0421082340180873,0.5044324671431566,-0.5793215133991376,0.6549719087280511,0.8443351532232078,-0.5347995837756198,-0.02482595104605465,0.021707749298926778
1752651150.6191435,1.499326531087057,-1.4706146282008667,2.068089485168457,-1.5772906742491664,-1.632949177418844,-1.514303986226217,0.0004305172769818,-0.0,-0.0334545634686946,-0.0256847962737083,-0.0366971530020237,-0.0428587943315506,0.5043988349120506,-0.5793833021095322,0.654961090881998,0.8443147216559571,-0.5348308665605016,-0.024825217125281997,0.02173254618882152
1752651150.621177,1.499380890523092,-1.470644236808159,2.0680220127105717,-1.5772725544371546,-1.6330860296832483,-1.5144460836993616,0.0004107918939553,-0.0,-0.0341767109930515,-0.0265547726303339,-0.0377748869359493,-0.0433742143213748,0.504334524098534,-0.579404242514999,0.6549447301620965,0.8443334422467129,-0.5347968902619841,-0.02487948468747925,0.021779249564978346
1752651150.6230876,1.499326531087057,-1.4706528794816514,2.0679755210876465,-1.57733215908193,-1.6331284681903284,-1.51455003419985,0.0005032760091125,-0.0,-0.0339313112199306,-0.0265100877732038,-0.0387309901416301,-0.043808426707983,0.5043081865628731,-0.5794391461584697,0.6549959357631228,0.8443479262413279,-0.534774057056224,-0.024837943341264913,0.02182576280846734
1752651150.6251342,1.499282185231344,-1.4706691664508362,2.067890167236328,-1.5774532757201136,-1.6331961790667933,-1.5146382490741177,0.0005413179751485,-0.0,-0.0331631004810333,-0.027185084298253,-0.0369176529347896,-0.0441432558000087,0.5042578562959392,-0.5794970998219875,0.6550533768650733,0.8443473284044911,-0.5347748980373311,-0.024777003151028515,0.021897432731133554
1752651150.6270869,1.499347988759176,-1.47068257004533,2.0678226947784424,-1.5774980984129847,-1.633251969014303,-1.5147298018084925,0.0004951447481289,-0.0,-0.0337060391902923,-0.0269946157932281,-0.0357274897396564,-0.0439590513706207,0.5042083201107361,-0.5795254956967709,0.6550237778234385,0.8443532239029748,-0.5347638852246721,-0.024795624311324812,0.02191796886297346
1752651150.6293583,1.499317471181051,-1.4706811022809525,2.0677506923675537,-1.5775419674315394,-1.6333606878863731,-1.514789406453268,0.000528069504071,-0.0,-0.0344962701201438,-0.0278160106390714,-0.0390770323574543,-0.0440922603011131,0.5041602707149874,-0.5795766702536106,0.6550496271651741,0.8443485206637584,-0.5347688829357606,-0.02479170596207887,0.02198155617901653
1752651150.6311235,1.4993050734149378,-1.4706409734538577,2.067662477493286,-1.5775848827757777,-1.6334860960589808,-1.5148990789996546,0.0005568746128119,-0.0,-0.0347880944609642,-0.0278605427592992,-0.0388059355318546,-0.0463886074721813,0.5041086327725561,-0.579650807387056,0.6550340213872017,0.8443529099910424,-0.5347584391360727,-0.024817777354686703,0.022037538192437266
1752651150.6331036,1.499312702809469,-1.470645674770214,2.0675785541534424,-1.5776406727232877,-1.633508030568258,-1.5149949232684534,0.0007336594862863,-0.0,-0.0351558625698089,-0.0282227639108896,-0.0382662490010261,-0.0454363524913787,0.50405935043352,-0.5796972951919811,0.6550389963336966,0.8443556714162362,-0.534753975446857,-0.024802035409623772,0.022057763498569864
1752651150.6357963,1.499354664479391,-1.4706281212023278,2.0675597190856934,-1.5777036152281705,-1.6335833708392542,-1.5150578657733362,0.0008479691459797,-0.0,-0.0355311818420887,-0.0284861307591199,-0.0383396632969379,-0.0432535298168659,0.5040455621292226,-0.5797198841795241,0.6550048714487333,0.8443666733780827,-0.5347344300209802,-0.02481978241256831,0.022090464901408136
1752651150.6431608,1.4993718306170862,-1.4706485506943243,2.0674257278442383,-1.5777603588499964,-1.633655850087301,-1.515158478413717,0.0008812882588244,-0.0,-0.0359280183911323,-0.0283393952995538,-0.0388219319283962,-0.04561048746109,0.5039579644583699,-0.5797868141457528,0.6550155557206264,0.8443567704238307,-0.5347485500291719,-0.024813844337187328,0.02213381147354964
1752651150.6539445,1.4993093649493616,-1.470645674770214,2.067150831222534,-1.5779382191100062,-1.6340277830706995,-1.5154855887042444,0.0012801885604858,-0.0,-0.036748468875885,-0.0291136801242828,-0.0404544211924076,-0.0466571040451526,0.5037752938475129,-0.5799732066994798,0.6550800085979902,0.8443659384639564,-0.5347255180067515,-0.024807549458230913,0.02234653987020995
1752651150.6542375,1.499300781880514,-1.4706619766405602,2.067082405090332,-1.5780850849547328,-1.6340625921832483,-1.5156925360309046,0.0013998360373079,-0.0,-0.0371800921857357,-0.0298892688006162,-0.0399141497910022,-0.0496894307434558,0.5037372318544244,-0.5800191799702002,0.65511563208476,0.8444019305863081,-0.5346693692673855,-0.02474420443175775,0.022400212864420194
1752651150.6546223,1.499300781880514,-1.4706619766405602,2.067082405090332,-1.5780850849547328,-1.6340625921832483,-1.5156925360309046,0.0013998360373079,-0.0,-0.0371800921857357,-0.0298892688006162,-0.0399141497910022,-0.0496894307434558,0.5037372318544244,-0.5800191799702002,0.65511563208476,0.8444019305863081,-0.5346693692673855,-0.02474420443175775,0.022400212864420194
1752651150.658929,1.4993389288531702,-1.470623442237713,2.066723585128784,-1.578334470788473,-1.6345098654376429,-1.516135040913717,0.0023140523117035,-0.0,-0.0387503467500209,-0.0307956505566835,-0.0421062037348747,-0.0507656745612621,0.5035036999313895,-0.5802623187673701,0.6550930357586431,0.8444188863510729,-0.534631036876328,-0.024786942316302726,0.022627555607368788
1752651150.6592574,1.4993751684771937,-1.4705864575556298,2.066623449325561,-1.578468462029928,-1.6346185843097132,-1.516209904347555,0.002479079645127,-0.0,-0.0384087190032005,-0.0301028732210397,-0.0423061028122901,-0.0497871041297912,0.5034480675402655,-0.580343890119296,0.6550568742328116,0.8444107271896893,-0.5346412843443661,-0.02478894307200131,0.02268764383887802
1752651150.661973,1.4993751684771937,-1.4705864575556298,2.066623449325561,-1.578468462029928,-1.6346185843097132,-1.516209904347555,0.002479079645127,-0.0,-0.0384087190032005,-0.0301028732210397,-0.0423061028122901,-0.0497871041297912,0.5034480675402655,-0.580343890119296,0.6550568742328116,0.8444107271896893,-0.5346412843443661,-0.02478894307200131,0.02268764383887802
1752651150.6638122,1.4994409720050257,-1.4706409734538577,2.0664587020874023,-1.5785628757872523,-1.6347211042987269,-1.516437832509176,0.002787753008306,-0.0,-0.0405075922608375,-0.0323266424238681,-0.0423218831419944,-0.0519988648593425,0.5033307712591131,-0.5804117990910839,0.6550642853772681,0.8444261822117018,-0.534614632049339,-0.02478217040413196,0.022747791633037157
1752651150.665284,1.4994409720050257,-1.4706409734538577,2.0664587020874023,-1.5785628757872523,-1.6347211042987269,-1.516437832509176,0.002787753008306,-0.0,-0.0405075922608375,-0.0323266424238681,-0.0423218831419944,-0.0519988648593425,0.5033307712591131,-0.5804117990910839,0.6550642853772681,0.8444261822117018,-0.534614632049339,-0.02478217040413196,0.022747791633037157
1752651150.6670935,1.4994409720050257,-1.4706409734538577,2.0664587020874023,-1.5785628757872523,-1.6347211042987269,-1.516437832509176,0.002787753008306,-0.0,-0.0405075922608375,-0.0323266424238681,-0.0423218831419944,-0.0519988648593425,0.5033307712591131,-0.5804117990910839,0.6550642853772681,0.8444261822117018,-0.534614632049339,-0.02478217040413196,0.022747791633037157
1752651150.669418,1.4994285742389124,-1.4706366074136277,2.0661981105804443,-1.5787059269347132,-1.6350300947772425,-1.5166967550860804,0.0036010819021612,-0.0,-0.0402659885585308,-0.0340290963649749,-0.0436944663524627,-0.0517387054860591,0.5031577689329778,-0.5805783188169744,0.655088647165812,0.8444217949399416,-0.534613788697624,-0.024797644025761723,0.022913009744489028
1752651150.6714325,1.4994056860553189,-1.470611811881401,2.0661137104034424,-1.5788427791991175,-1.6350796858416956,-1.5168545881854456,0.0037399518769234,-0.0,-0.0405428260564804,-0.033551700413227,-0.0451889373362064,-0.0536311864852905,0.5031184836650586,-0.5806509057100756,0.6551022522182957,0.8444403216770369,-0.5345843464874739,-0.024753709799180925,0.022964613380611773
1752651150.6736107,1.4993823210345667,-1.4706456822207947,2.066083669662476,-1.5788899860777796,-1.6351636091815394,-1.516991917287008,0.0041524516418576,-0.0,-0.0426371917128562,-0.0323814302682876,-0.045070007443428,-0.0549876131117343,0.5030889871382692,-0.5806642443873686,0.6551499187523471,0.8444676478449026,-0.5345396653027543,-0.024730604095132374,0.023024664653517702
1752651150.6755788,1.499438587819235,-1.4706663352302094,2.065913438796997,-1.5789376697936,-1.635247532521383,-1.5170376936541956,0.0042127026244997,-0.0,-0.0423111878335475,-0.034024890512228,-0.0466277711093425,-0.0527466796338558,0.5029759709426715,-0.5807441940506523,0.655132883922012,0.8444334221707835,-0.5345913220020487,-0.024748326530644984,0.023061532797577958
1752651150.6775355,1.4994648138629358,-1.4706324648908158,2.065858840942383,-1.5790063343443812,-1.635383431111471,-1.5171497503863731,0.0039582140743732,-0.0,-0.0414874628186225,-0.0342967770993709,-0.0469139628112316,-0.0541788078844547,0.5029401877078638,-0.5807973766121048,0.6550985023820548,0.8444472672212752,-0.5345654375652534,-0.024779708612059876,0.02312081063221736
1752651150.6799457,1.4995091597186487,-1.4706500706127663,2.065815687179565,-1.5791059933104457,-1.6354835669146937,-1.5173161665545862,0.0038194751832634,-0.0,-0.0418136604130268,-0.0340684130787849,-0.0463388264179229,-0.0556928813457489,0.5029036879914818,-0.5808224132639218,0.6550936205659065,0.8444788069614023,-0.5345132873647961,-0.024774819681394,0.023179700888491892
1752651150.681245,1.499427620564596,-1.4706409734538577,2.065716028213501,-1.5791455707945763,-1.6356290022479456,-1.5173571745501917,0.0036878895480185,-0.0,-0.0426861681044101,-0.0339984893798828,-0.0501583702862262,-0.0564314238727092,0.5028404449524959,-0.5808982183087787,0.6551487027512986,0.8444610558905261,-0.5345380017279056,-0.02476317323151924,0.023268756831880996
1752651150.6852405,1.4994953314410608,-1.470611811881401,2.065648317337036,-1.579249998132223,-1.635700527821676,-1.5175069014178677,0.00377700291574,-0.0,-0.0427277199923992,-0.0344822108745574,-0.049676027148962,-0.0539723858237266,0.5028019056340343,-0.5809512547280035,0.6550929991276608,0.8444821582757888,-0.534502566705253,-0.024779890607730774,0.023299089270426034
1752651150.687724,1.4994242827044886,-1.4706572455218812,2.065435647964477,-1.5794149837889613,-1.635906998311178,-1.5176733175860804,0.0042102881707251,-0.0,-0.0432657301425933,-0.0351143777370452,-0.0496064275503158,-0.0555794276297092,0.5026608479511505,-0.5810763190210582,0.6551969563270437,0.8444662810586696,-0.534524044178507,-0.02471215445299213,0.023453267838087804
1752651150.6902304,1.4994662443744105,-1.4706324648908158,2.065375566482544,-1.5794130764403285,-1.635963265095846,-1.5177972952472132,0.0039958609268069,-0.0,-0.0436656028032302,-0.0347501039505004,-0.0495377704501152,-0.0557098574936389,0.5026229608923884,-0.5811147900918456,0.6551496694464435,0.8444830411686199,-0.5344952054696211,-0.02475797713059343,0.02345871004525328
1752651150.6917138,1.4994662443744105,-1.4706324648908158,2.065375566482544,-1.5794130764403285,-1.635963265095846,-1.5177972952472132,0.0039958609268069,-0.0,-0.0436656028032302,-0.0347501039505004,-0.0495377704501152,-0.0557098574936389,0.5026229608923884,-0.5811147900918456,0.6551496694464435,0.8444830411686199,-0.5344952054696211,-0.02475797713059343,0.02345871004525328
1752651150.6938453,1.4995034376727503,-1.4705777329257508,2.0652048587799072,-1.5795933208861292,-1.6361897627459925,-1.5180423895465296,0.0036162598989903,-0.0,-0.0441870018839836,-0.0363898277282714,-0.0485597364604473,-0.0562854520976543,0.5025206687246285,-0.5812503762083538,0.655105894666117,0.8445000140009014,-0.5344623097657953,-0.024779782585838954,0.02357388740295087
1752651150.6955943,1.499491039906637,-1.470614695256092,2.0650620460510254,-1.579689165154928,-1.636310402547018,-1.518167797719137,0.0038135412614792,-0.0,-0.0443950705230236,-0.0367845483124256,-0.0501026734709739,-0.056862473487854,0.5024231834981776,-0.58132486044275,0.6551543401133222,0.8444933627521435,-0.5344704882639063,-0.024749213619825215,0.023658695393416345
1752651150.697542,1.4995020071612757,-1.470628098850586,2.065003633499145,-1.5797697506346644,-1.6363728682147425,-1.518270317708151,0.0037405919283628,-0.0,-0.0450670607388019,-0.0361126028001308,-0.0512757785618305,-0.0583003684878349,0.5023836512864329,-0.5813591765408691,0.6551667857315413,0.8445040733565372,-0.5344524238192678,-0.02473024259484549,0.023704258248811554
1752651150.699696,1.4994638601886194,-1.4706409734538577,2.064904928207397,-1.5797883472838343,-1.636477295552389,-1.5183690229998987,0.0037610931321978,-0.0,-0.0453786998987197,-0.0347950793802738,-0.051088273525238,-0.0587911233305931,0.5023161752199679,-0.5814156384417026,0.6552057030649128,0.844502584466081,-0.5344522190632138,-0.024727819076843703,0.023764371067193632
1752651150.701428,1.4994638601886194,-1.4706572455218812,2.064811944961548,-1.579844137231344,-1.636596981679098,-1.5184291044818323,0.0037951660342514,-0.0,-0.0460771135985851,-0.0369898155331611,-0.0516052469611167,-0.059533804655075,0.5022493421676129,-0.5814679886867888,0.6552253815570936,0.8444921150003443,-0.5344657504894328,-0.024727549980650063,0.023832279118187666
1752651150.7032447,1.4995091597186487,-1.4706366074136277,2.064682722091675,-1.5800181827940882,-1.6367090384112757,-1.5186403433429163,0.0038408294785767,-0.0,-0.0465867891907691,-0.0373872891068458,-0.0503918640315532,-0.060343462973833,0.5021742616124671,-0.5815604926852375,0.655200012109136,0.8445122661356287,-0.5344314543256627,-0.02471196645425857,0.023903382350320766
1752651150.705637,1.4994819800006312,-1.470623397534229,2.0646321773529053,-1.5801106892027796,-1.6368125120746058,-1.5187543074237269,0.0034098657779395,-0.0,-0.0466453582048416,-0.0382910333573818,-0.0531942434608936,-0.06112527474761,0.5021441910866328,-0.5816100072353373,0.6552204947475809,0.8445275433935728,-0.5344050961674446,-0.024692907325680875,0.02397252526719679
1752651150.7083218,1.4995444456683558,-1.4706735399416466,2.0645148754119877,-1.580132623712057,-1.6369321982013147,-1.518885914479391,0.0036043561995029,-0.0,-0.0469422303140163,-0.039260234683752,-0.0534859001636505,-0.0607524737715721,0.5020496729499022,-0.5816494249666526,0.6552185766747515,0.8445299630792945,-0.5343976636818832,-0.024721020480227444,0.02402393929076711
1752651150.709014,1.4995349089251917,-1.4706485283425828,2.0644235610961914,-1.5802494488158167,-1.6370766798602503,-1.5189240614520472,0.0041211643256247,-0.0,-0.0466317944228649,-0.0373324528336524,-0.0503134131431579,-0.0600264891982078,0.5019945712124629,-0.5817270358715174,0.6552212325018424,0.8445136324297333,-0.5344199217138922,-0.024713840843405874,0.02411012207396573
1752651150.7139618,1.4995124975787562,-1.4706572604230423,2.0643441677093506,-1.580276151696676,-1.6371148268329063,-1.5190814177142542,0.0042714304290711,-0.0,-0.0487417057156562,-0.0373811833560466,-0.0526086464524269,-0.0626818388700485,0.5019454518595952,-0.5817708019698841,0.6552466555410044,0.844533753253797,-0.5343874664217967,-0.024700857273232638,0.024137999012250007
1752651150.7143123,1.4995840231524866,-1.4706619691899796,2.0642240047454834,-1.580355783502096,-1.637226406727926,-1.5192063490497034,0.0039859195239841,-0.0,-0.049052782356739,-0.0392668135464191,-0.0534723810851573,-0.0594949312508106,0.5018629583981807,-0.5818351125810681,0.6552111398512054,0.8445336909567795,-0.5343842191838372,-0.02472558040212789,0.024186707092478523
1752651150.7152152,1.499552075062887,-1.4706409883550189,2.0641446113586426,-1.5804816685118617,-1.6373513380633753,-1.51933461824526,0.003964832983911,-0.0,-0.047659195959568,-0.0392298027873039,-0.0549761615693569,-0.0608153492212295,0.5018178042592156,-0.5819075702810098,0.6552331792914656,0.8445446586242134,-0.5343642353494773,-0.024699141351660077,0.024272123622997285
1752651150.7172604,1.4995501677142542,-1.4706619468382378,2.06402325630188,-1.5805441341795865,-1.6374958197223108,-1.5194504896747034,0.0043855523690581,-0.0,-0.0478094480931758,-0.0388440787792205,-0.0518583692610263,-0.0649945586919784,0.5017313136991143,-0.5819744286344526,0.655258682311494,0.8445411165017583,-0.5343660981022113,-0.024700298828502762,0.024353048572284278
1752651150.7192433,1.4995949904071253,-1.4706324499896546,2.063915491104126,-1.5806032619872037,-1.6375625769244593,-1.519541088734762,0.0042735221795737,-0.0,-0.0489350669085979,-0.0389329530298709,-0.054462045431137,-0.0627831444144249,0.5016688387070769,-0.5820453491453886,0.6552131479718135,0.8445358342364083,-0.534372228368485,-0.02472569519528767,0.024375935596883853
1752651150.721285,1.4995363394366663,-1.4706706938198586,2.063873529434204,-1.580618520776266,-1.6376741568194788,-1.5196974913226526,0.0040041273459792,-0.0,-0.0506471693515777,-0.0395882613956928,-0.0550337210297584,-0.062868095934391,0.5016290085177534,-0.5820651416947635,0.6552849059784681,0.8445645703966107,-0.5343243249486449,-0.024706665538021446,0.02444959870746163
1752651150.7232928,1.499552075062887,-1.4706409734538577,2.063720464706421,-1.5807677708067835,-1.637834374104635,-1.5198214689837857,0.0041898447088897,-0.0,-0.0492641553282737,-0.0397399216890335,-0.0561989843845367,-0.0637997463345527,0.5015375477525097,-0.5821768937509306,0.6552705733914166,0.8445544275027514,-0.5343362622806646,-0.02470418445527301,0.024541415359114686
1752651150.7252567,1.499599758778707,-1.4706500259092827,2.0635855197906494,-1.5808350048460902,-1.637925450001852,-1.5199416319476526,0.0045586787164211,-0.0,-0.0488067381083965,-0.0390680655837059,-0.0565160624682903,-0.0639484599232673,0.5014483478996185,-0.5822471530239903,0.6552531333943898,0.8445492761060119,-0.5343418011478073,-0.02471721439652805,0.02458493618874041
1752651150.7272255,1.499552075062887,-1.4706619468382378,2.063507556915283,-1.5808993778624476,-1.638000790272848,-1.520111385975973,0.0042268927209079,-0.0,-0.0495361350476741,-0.0396790690720081,-0.0566341057419776,-0.0636428445577621,0.5013992180820943,-0.5822978111680129,0.6553030899718645,0.8445723003255087,-0.5343041340330229,-0.024684803246300437,0.0246451286625112
1752651150.729296,1.4996102491961878,-1.47059831887994,2.0634448528289795,-1.5810114345946251,-1.6381576696978968,-1.5202773253070276,0.0045347581617534,-0.0,-0.0499950759112834,-0.0399998947978019,-0.0574844740331172,-0.0633131563663482,0.5013634885609465,-0.582369281893432,0.6552296873169574,0.8445980925244527,-0.5342583421267122,-0.024730368938870286,0.024708193463313745
1752651150.731295,1.4995978514300743,-1.470611811881401,2.0633230209350586,-1.581095357934469,-1.6382892767535608,-1.5203140417682093,0.0047624674625694,-0.0,-0.0500729829072952,-0.0406448394060134,-0.0580970495939254,-0.0629825517535209,0.5012815250361145,-0.5824422106004836,0.6552592587562448,0.8445732551651985,-0.5342944174781018,-0.024716859530677912,0.02479050153459909
1752651150.7340207,1.4996145407306116,-1.4706691813519974,2.0632123947143555,-1.5811711750426234,-1.6384132544146937,-1.5204623381244105,0.0052011250518262,-0.0,-0.0505582988262176,-0.0412463657557964,-0.058455191552639,-0.0638292804360389,0.5011947036170751,-0.5824864323517681,0.6553006970373855,0.8445812644446653,-0.5342788545869244,-0.024699830763741867,0.024869894462521983
1752651150.735372,1.499634091054098,-1.4706146580031891,2.063131332397461,-1.5812589130797328,-1.6385005156146448,-1.520648781453268,0.004970274399966,-0.0,-0.0509735979139804,-0.0418675020337104,-0.0581516101956367,-0.0639114305377006,0.5011544454153554,-0.5825615029607474,0.6552573331781836,0.844608314222036,-0.5342334503557747,-0.024718645283661383,0.02490792330393935
1752651150.737893,1.499629322682516,-1.4706366074136277,2.0630273818969727,-1.5813471279540003,-1.638627831135885,-1.520719353352682,0.0048454049974679,-0.0,-0.0516450814902782,-0.0418247766792774,-0.0585770979523658,-0.0644036009907722,0.5010811678770454,-0.5826212064318396,0.6552884719254849,0.8445972984197693,-0.5342478246228817,-0.02470209959696571,0.0249894310308912
1752651150.7395186,1.4996631781207483,-1.4706500482610243,2.0629169940948486,-1.581435342828268,-1.6387723127948206,-1.520800892506735,0.0047480636276304,-0.0,-0.0519043020904064,-0.042256373912096,-0.0584952346980571,-0.0641840174794197,0.501001817310403,-0.5826840320518807,0.6552867540259235,0.844587523689829,-0.5342592733656392,-0.024710504961275304,0.025066603177546304
1752651150.7421358,1.4996631781207483,-1.4706500482610243,2.0629169940948486,-1.581435342828268,-1.6387723127948206,-1.520800892506735,0.0047480636276304,-0.0,-0.0519043020904064,-0.042256373912096,-0.0584952346980571,-0.0641840174794197,0.501001817310403,-0.5826840320518807,0.6552867540259235,0.844587523689829,-0.5342592733656392,-0.024710504961275304,0.025066603177546304
1752651150.7432568,1.499657932912008,-1.4706071254662056,2.062708139419556,-1.5816556415953578,-1.6390073935138147,-1.5210989157306116,0.0055467644706368,-0.0,-0.0528286881744861,-0.0433605164289474,-0.0582106672227382,-0.0645789057016372,0.5008783127882157,-0.5828431769967531,0.6552859577802489,0.8446075786846464,-0.5342216427784813,-0.024695218534126224,0.025207550398070683
1752651150.74521,1.4996355215655726,-1.470623397534229,2.0626003742218018,-1.5817223987975062,-1.639090363179342,-1.5212472120868128,0.0055150743573904,-0.0,-0.0531639382243156,-0.0434856265783309,-0.0591958761215209,-0.06510891020298,0.5008085167355797,-0.5829045463332556,0.6553221270843422,0.8446168517626385,-0.5342052269713008,-0.02467299175060585,0.025266433725096994
1752651150.7471993,1.4997108618365689,-1.470614695256092,2.06247615814209,-1.581794878045553,-1.6392186323748987,-1.5213807264911097,0.0051546827889978,-0.0,-0.0532525964081287,-0.0437741614878177,-0.0589759387075901,-0.0704715847969055,0.5007241667295106,-0.5829760474229233,0.6552732392628436,0.8446178551154704,-0.5341994433552425,-0.02471281882616518,0.02531620281078152
1752651150.7492042,1.499714199696676,-1.4706366223147889,2.06239652633667,-1.5819317303099574,-1.6393502394305628,-1.5215399901019495,0.0057513760402798,-0.0,-0.0531564801931381,-0.0441679283976554,-0.0593157298862934,-0.0668612346053123,0.5006667847212098,-0.5830278745529818,0.6553045534301246,0.8446367057270335,-0.5341667309504223,-0.02468062670600289,0.025408769150090497
1752651150.7512586,1.4996722380267542,-1.4706146580031891,2.0622751712799072,-1.5819670162596644,-1.6394904295550743,-1.5216262976275845,0.0053397971205413,-0.0,-0.055015031248331,-0.04379428550601,-0.0600631088018417,-0.0679954290390014,0.5005912309307029,-0.5831142082043413,0.6553222619849298,0.8446253507377663,-0.5341806495407774,-0.02469371708542268,0.025480794410762553
1752651150.753255,1.499749485646383,-1.4706782189062615,2.0622048377990723,-1.5820862255492152,-1.6395896116839808,-1.5218294302569788,0.0060110739432275,-0.0,-0.0547636039555072,-0.0441674999892711,-0.060698065906763,-0.0692912638187408,0.5005275598104155,-0.5831315202963967,0.6553315563090041,0.8446590423535729,-0.5341250644330385,-0.02467573131993614,0.025546545726849206
1752651150.7552402,1.4997337500201624,-1.4706528943828123,2.06207275390625,-1.582182069818014,-1.6397464911090296,-1.5219081083880823,0.0059698265977203,-0.0,-0.0542724952101707,-0.0437029786407947,-0.060172151774168,-0.0694440454244613,0.5004464851673918,-0.5832287273167372,0.6553359432898154,0.8446423982504242,-0.5341470465698874,-0.024679537089690437,0.02563341895801092
1752651150.7572625,1.4996965567218226,-1.470623397534229,2.061918258666992,-1.5822497806944789,-1.6398809591876429,-1.5220311323748987,0.0063675665296614,-0.0,-0.0548838265240192,-0.043976966291666,-0.0631058439612388,-0.0701171085238456,0.5003553457891013,-0.5833372679598949,0.6553484952123154,0.8446319356580249,-0.5341598728517846,-0.024683418290095006,0.025707048898301155
1752651150.7592602,1.4997709433185022,-1.4706528943828123,2.0618481636047363,-1.5823575458922328,-1.6399362722979944,-1.5222094694720667,0.0061495881527662,7.345744234044105e-05,-0.0569913797080516,-0.0441868565976619,-0.0616157613694667,-0.0707945972681045,0.5003034655931561,-0.5833654257432508,0.6553325074496438,0.8446598189843622,-0.5341145089653185,-0.024672902136038084,0.025743531347248574
1752651150.7612894,1.4997294584857386,-1.4706945356777688,2.061744451522827,-1.582372327844137,-1.6401146093951624,-1.5223525206195276,0.0058967573568224,0.0001229649351444,-0.0562988519668579,-0.0440997406840324,-0.0603340528905391,-0.0712788254022598,0.5002188322894118,-0.5834161578446975,0.6553955190889584,0.8446675901593809,-0.5340972462279391,-0.02467744685318094,0.02584216173010528
1752651150.766346,1.4997485319720667,-1.4706456822207947,2.061603784561157,-1.5824762783446251,-1.6402180830584925,-1.522509876881735,0.0063430648297071,0.0001314071123488,-0.0563802346587181,-0.0438260100781917,-0.0619414858520031,-0.0712574198842048,0.500141671376714,-0.5835212312918713,0.655358799336715,0.8446705706875944,-0.5340894692060139,-0.02469113268560615,0.025892351462039474
1752651150.7671812,1.49982196489443,-1.470590816145279,2.061422348022461,-1.582700868646139,-1.640493694935934,-1.5227492491351526,0.0063831256702542,0.0001441272179363,-0.0574790760874748,-0.0451323390007019,-0.0603547468781471,-0.0722394585609436,0.5000276656584283,-0.5836647651326496,0.6552957157852667,0.8446820902997204,-0.5340630658793112,-0.024722660085836786,0.02603071395036466
1752651150.7691622,1.499798599873678,-1.4706409660032769,2.061289072036743,-1.5828172169127406,-1.6406219641314903,-1.522928539906637,0.0068043158389627,0.0001467873516958,-0.0577881895005703,-0.0434637293219566,-0.0625183060765266,-0.0715444236993789,0.4999334838669181,-0.5837323713333824,0.6553642016615024,0.8446917035236384,-0.5340452040269236,-0.02467585335279864,0.02612945302692919
1752651150.771242,1.499859635029928,-1.4706281286529084,2.061168670654297,-1.5828920803465785,-1.6407044569598597,-1.5230615774737757,0.0069249202497303,0.0001444025110686,-0.0584941431879997,-0.0458334609866142,-0.0638395920395851,-0.0720577239990234,0.4998579031001474,-0.5838030068572821,0.6553219991860714,0.844694043445858,-0.5340388154342535,-0.024699073387407424,0.026162422488558316
1752651150.7735035,1.4998629728900357,-1.4706945356777688,2.061049222946167,-1.5829674206175746,-1.6408761183368128,-1.52325946489443,0.0066587314940989,0.0001409925025654,-0.0591430105268955,-0.0453657023608684,-0.0643213912844657,-0.0738509893417358,0.4997597124377886,-0.5838517854108667,0.6553798088093975,0.8447120453902066,-0.534005824014144,-0.024685433461216346,0.02626727367848505
1752651150.7755182,1.4998448530780235,-1.4706118416837235,2.060886859893799,-1.583080907861227,-1.6410048643695276,-1.523353401814596,0.0069225318729877,0.0001374863059027,-0.0595354884862899,-0.0473355203866958,-0.0640064775943756,-0.0728911608457565,0.499677657393058,-0.5839886141393286,0.6553446681255117,0.8446918761423918,-0.5340338913448425,-0.024699312141645297,0.02633213348479228
1752651150.7804987,1.4998372236834925,-1.470623397534229,2.0607147216796875,-1.5833007297911583,-1.6412456671344202,-1.5236628691302698,0.006812494713813,0.0001513973402325,-0.060074295848608,-0.0444916412234306,-0.0656884461641311,-0.0769769102334976,0.49956257209911914,-0.58410682940195,0.6553864821352522,0.8447241107306207,-0.533976859051412,-0.02466127302970021,0.02648985391626782
1752651150.781855,1.4998372236834925,-1.470623397534229,2.0607147216796875,-1.5833007297911583,-1.6412456671344202,-1.5236628691302698,0.006812494713813,0.0001513973402325,-0.060074295848608,-0.0444916412234306,-0.0656884461641311,-0.0769769102334976,0.49956257209911914,-0.58410682940195,0.6553864821352522,0.8447241107306207,-0.533976859051412,-0.02466127302970021,0.02648985391626782
1752651150.7866006,1.4998372236834925,-1.470623397534229,2.0607147216796875,-1.5833007297911583,-1.6412456671344202,-1.5236628691302698,0.006812494713813,0.0001513973402325,-0.060074295848608,-0.0444916412234306,-0.0656884461641311,-0.0769769102334976,0.49956257209911914,-0.58410682940195,0.6553864821352522,0.8447241107306207,-0.533976859051412,-0.02466127302970021,0.02648985391626782
1752651150.787975,1.499908749257223,-1.4706500482610243,2.060218572616577,-1.5837093792357386,-1.6418355146991177,-1.5243032614337366,0.007096086628735,0.0003533244598656,-0.0610484704375267,-0.0462008565664291,-0.0652699321508407,-0.0770911797881126,0.49922444754677947,-0.5844098803767693,0.6554102298399079,0.8447529384917565,-0.5339145406666026,-0.024664092009980543,0.02682198239572545
1752651150.7899673,1.499953571950094,-1.4706118565848847,2.060068368911743,-1.5837108097472132,-1.6419718901263636,-1.5244596640216272,0.0079037947580218,0.0003514739801175,-0.0633091181516647,-0.0454620048403739,-0.0676766484975814,-0.0773591697216034,0.49912843274337665,-0.5845031388742743,0.655351971401265,0.8447533360384358,-0.5339087510503276,-0.02473732175739347,0.02685724699376258
1752651150.7917674,1.4999921957599085,-1.4705760416439553,2.0599365234375,-1.583822866479391,-1.6420639196978968,-1.524611775075094,0.0084693441167473,0.0003708997974172,-0.0618770606815815,-0.0487106665968894,-0.0691564828157424,-0.0773738622665405,0.49905368698828145,-0.584596075179301,0.6553124484788742,0.8447573354752819,-0.5338996452064843,-0.0247475508378141,0.02690300608895367
1752651150.7934303,1.5000184218036097,-1.4706500706127663,2.05981183052063,-1.5839344463744105,-1.642254654561178,-1.5248006025897425,0.0078923199325799,0.000364309962606,-0.0622776187956333,-0.0481409132480621,-0.0693641230463981,-0.0789394006133079,0.49894925174236066,-0.5846462362349946,0.6553646770629198,0.8447710253333329,-0.5338728304760421,-0.024729740612164656,0.02702139089728427
1752651150.7951868,1.499955956135885,-1.4705792900970955,2.0597057342529297,-1.584055563012594,-1.6423280874835413,-1.524919335042135,0.0076885735616087,0.0003476765123195,-0.0637184605002403,-0.0458331517875194,-0.0695697963237762,-0.0776223540306091,0.498906149286961,-0.584752927779083,0.6553695061629652,0.8447727558289504,-0.5338684882577628,-0.02470197608305661,0.027078416351844492
1752651150.797464,1.4999969641314903,-1.470637985771038,2.059611320495605,-1.584118982354635,-1.642483059559957,-1.5251253286944788,0.0085659334436059,0.000365795684047,-0.0639750435948371,-0.0488123558461666,-0.0702611431479454,-0.079908937215805,0.4988228792448452,-0.5847856384928011,0.6553940681803689,0.8448000268658089,-0.533820750222811,-0.02470917430048753,0.02716206811846424
1752651150.799097,1.500080410634176,-1.4706205663136025,2.0594491958618164,-1.584238668481344,-1.6426194349872034,-1.525247875844137,0.0081153735518455,0.0003560885379556,-0.0633373111486435,-0.0491582751274108,-0.0698490068316459,-0.076244980096817,0.4987193081061074,-0.5848838039251893,0.6553387355161433,0.8447875709984087,-0.5338360245328242,-0.02473861332957423,0.02722241370871272
1752651150.801162,1.500099007283346,-1.4706042420915146,2.0593578815460205,-1.584302087823385,-1.6427539030658167,-1.5253742376910608,0.0079403929412364,0.0004189566243439,-0.0635663792490959,-0.0521631799638271,-0.0715161561965942,-0.0774853304028511,0.49865807840745496,-0.584947935706358,0.6553222724720875,0.8447949934941489,-0.5338199686295501,-0.024762484264700242,0.027285150404711137
1752651150.8036852,1.5000446478473108,-1.470607080762722,2.059213876724243,-1.58445467571401,-1.6428645292865198,-1.5255430380450647,0.0076607726514339,0.0004387284570839,-0.063906617462635,-0.0489773973822593,-0.0709513053297996,-0.0789422914385795,0.49857375745094684,-0.5850469941830233,0.6553808037299809,0.8447988490355454,-0.533811696237158,-0.024703107841652513,0.027381272643719708
1752651150.805594,1.5000947157489222,-1.4706233602813263,2.059098720550537,-1.5845428905882777,-1.6431120077716272,-1.525687042866842,0.008041781373322,0.0004746974445879,-0.0642984956502914,-0.0501800961792469,-0.072357453405857,-0.0759307965636253,0.498479084722947,-0.5851143398337318,0.6553710006972474,0.8448029512499224,-0.5337972455418877,-0.0247443125299223,0.02749896741218481
1752651150.8086674,1.5000975767718714,-1.470616230075695,2.058957576751709,-1.584609647790426,-1.6432345549212857,-1.5258963743792933,0.0081933215260505,0.0004745193582493,-0.0647132769227027,-0.0513954870402812,-0.0726396515965461,-0.0784862637519836,0.4983890247919288,-0.5852009987279855,0.6553725874963645,0.8448191724045718,-0.533767838741372,-0.024754854089900205,0.027561884224536856
1752651150.8096364,1.5001214186297815,-1.4706368458322068,2.058856010437012,-1.5847417316832484,-1.643420521412985,-1.526019875203268,0.0081602558493614,0.0004788838559761,-0.0651805102825164,-0.0517454706132411,-0.073269672691822,-0.0787538513541221,0.4983117207181608,-0.5852640662306887,0.655388786088695,0.8448217404792239,-0.533758402026406,-0.024748122482923744,0.02767174576066196
1752651150.8113043,1.5001352469073694,-1.4706281137517472,2.0586984157562256,-1.5848056278624476,-1.643550697957174,-1.5262087027179163,0.0077209994196891,0.0004959061625413,-0.0655930191278457,-0.0511437579989433,-0.0737022534012794,-0.0796690434217453,0.49821072704469244,-0.5853583768348678,0.6553813430116636,0.8448280805702817,-0.5337442389289985,-0.02476724075054798,0.02773419325746267
1752651150.813433,1.500101391469137,-1.470607103114464,2.0585827827453613,-1.5849696598448697,-1.643693749104635,-1.5263517538653772,0.008079576306045,0.000480814545881,-0.0660201162099838,-0.0522995702922344,-0.0743059888482093,-0.0801939666271209,0.49814424918606237,-0.58545374726764,0.6554094861334435,0.8448323462438186,-0.5337338854457951,-0.02472956629120711,0.027836932628224963
1752651150.8186426,1.500096623097555,-1.4706368160298844,2.0584466457366943,-1.585069318810934,-1.643813435231344,-1.5264957586871546,0.0081872548907995,0.0005674070562236,-0.0662117451429367,-0.0520979240536689,-0.072923332452774,-0.0806422531604766,0.4980514640850927,-0.5855265907398628,0.6554478596809474,0.8448319699578484,-0.5337313509456569,-0.024704960679257953,0.027918676055671065
1752651150.8189888,1.5001910368548792,-1.470567302112915,2.058323621749878,-1.5851808987059537,-1.6439769903766075,-1.5266431013690394,0.0082650482654571,0.0006054975674487,-0.0668529719114303,-0.0526668056845665,-0.0751511082053184,-0.0811328664422035,0.4979783002203554,-0.5856263187506778,0.6553451588887554,0.8448366088881645,-0.5337180414666582,-0.024771989353519697,0.02797329152620883
1752651150.8204017,1.500164810811178,-1.470590778892376,2.05819034576416,-1.5852366886534632,-1.6441534201251429,-1.5268643538104456,0.0085814343765378,0.0005885999416932,-0.0682663172483444,-0.0528994314372539,-0.0752904936671257,-0.0811234265565872,0.4978816598393743,-0.585701406618425,0.6553889539677706,0.8448570181096499,-0.5336804328672776,-0.024774965676777016,0.028071615578383485
1752651150.8218062,1.5002029577838345,-1.4705640834620972,2.058041572570801,-1.585360666314596,-1.644268814717428,-1.527057472859518,0.0083753848448395,0.0005988202174194,-0.0674558952450752,-0.0535868369042873,-0.0716869086027145,-0.0811714604496955,0.4977930463393993,-0.5858013431790167,0.655358242176904,0.8448669028511405,-0.533661236896252,-0.02478275533759116,0.028132112237814814
1752651150.8240285,1.5002029577838345,-1.4705640834620972,2.058041572570801,-1.585360666314596,-1.644268814717428,-1.527057472859518,0.0083753848448395,0.0005988202174194,-0.0674558952450752,-0.0535868369042873,-0.0716869086027145,-0.0811714604496955,0.4977930463393993,-0.5858013431790167,0.655358242176904,0.8448669028511405,-0.533661236896252,-0.02478275533759116,0.028132112237814814
1752651150.8251777,1.5002010504352017,-1.470602737074234,2.0577661991119385,-1.5855723820128382,-1.6445587317096155,-1.5273407141314903,0.0083180526271462,0.000575223530177,-0.0697177648544311,-0.0546592734754085,-0.0739046856760978,-0.0819665715098381,0.4976051757977621,-0.5859602946742853,0.6554160626626384,0.8448633878670972,-0.5336585751982847,-0.024753217587712543,0.028313586458146474
1752651150.8271766,1.5002511183368128,-1.4706042569926758,2.057655572891236,-1.585691591302389,-1.6447566191302698,-1.5275667349444788,0.0087080709636211,0.00055060419254,-0.0684298127889633,-0.0543673411011695,-0.0741151049733161,-0.0849617272615432,0.4975231163020928,-0.5860319459590617,0.655398468561711,0.8448910032928257,-0.533608500597226,-0.02477649042154888,0.028412781764791326
1752651150.8291247,1.5002110640155235,-1.4706588101438065,2.057499647140503,-1.5857998333373011,-1.644874397908346,-1.5277264753924769,0.0086444905027747,0.000555254460778,-0.0686952620744705,-0.0543102733790874,-0.0758812576532363,-0.0815627425909042,0.49741602633607906,-0.586109102687931,0.6554808386986067,0.8448890322506596,-0.5336089296554243,-0.024722310743049324,0.028510361731490894
1752651150.8314598,1.5002654234515589,-1.470616177921631,2.0573959350585938,-1.5859605274596156,-1.6450303236590784,-1.527852837239401,0.0083286259323358,0.0005284411017782,-0.0693951323628425,-0.0540257431566715,-0.0766949355602264,-0.081794150173664,0.4973541266192322,-0.5861973445737741,0.6554316882746233,0.8448924988748855,-0.5335984609730363,-0.02473671783775271,0.028590952813332557
1752651150.8331008,1.5003097693072718,-1.4706042495420952,2.0572643280029297,-1.586027284661764,-1.6452115217791956,-1.5281146208392542,0.0083913588896393,0.000552263285499,-0.0698045864701271,-0.0542076788842678,-0.0770536586642265,-0.0840280279517173,0.4972618996289005,-0.5862793383498082,0.6554016145460316,0.8449246606659516,-0.5335413000457723,-0.024782826655889753,0.028667236471937387
1752651150.835107,1.5002849737750452,-1.4705879998258131,2.0571203231811523,-1.5861393413939415,-1.645357910786764,-1.5282710234271448,0.0087806992232799,0.0005605134647339,-0.0700454041361808,-0.0541803278028965,-0.0768043622374534,-0.0803803578019142,0.4971737801813047,-0.5863803695804648,0.6554210210677287,0.8449251134129253,-0.5335362911778491,-0.02477126404383198,0.02875696781671498
1752651150.8374448,1.5003131071673792,-1.470629261141159,2.0569581985473637,-1.5862556896605433,-1.64549428621401,-1.5283854643451136,0.008475418202579,0.0005453300545923,-0.070039726793766,-0.0540247075259685,-0.0789824426174163,-0.0823815912008285,0.4970601863375692,-0.5864598437292324,0.6554475357151843,0.844909602967254,-0.5335569538034957,-0.024753050974676352,0.028844866598696728
1752651150.839219,1.5002949873553677,-1.4705804151347657,2.056889533996582,-1.5863877735533656,-1.6456449667560022,-1.5285256544696253,0.0085545890033245,0.0005559343844652,-0.0712728947401046,-0.054351769387722,-0.0764533877372741,-0.0826381891965866,0.49702369186503753,-0.5865386050246306,0.6554402797265353,0.844925879905395,-0.5335265750251892,-0.024749622224584558,0.0289328085004814
1752651150.8459642,1.5003450552569788,-1.4705879625729104,2.056654453277588,-1.5865041218199671,-1.6458290258990689,-1.5287588278399866,0.0085649993270635,0.0005349249113351,-0.0716786086559295,-0.0551274828612804,-0.0800327509641647,-0.0839324221014976,0.4968684671110505,-0.5866684281955037,0.6554267830289913,0.8449222835889121,-0.533526299601903,-0.024770204736218836,0.02902514918694313
1752651150.8462143,1.5004389921771448,-1.4706324648908158,2.0564324855804443,-1.5866991482176722,-1.6461918989764612,-1.529067341481344,0.0089501701295375,0.0006129640387371,-0.0720657184720039,-0.0551577657461166,-0.0781509727239608,-0.0858063474297523,0.49669591206756764,-0.5867888684881974,0.6554216570745621,0.8449392477029886,-0.5334876076236262,-0.02480516141844201,0.029212055219252086
1752651150.8472085,1.500434700642721,-1.4706086304834862,2.056218147277832,-1.5868150196471156,-1.646341625844137,-1.529233757649557,0.0074008964002132,0.000590180105064,-0.0723150968551635,-0.0577359721064567,-0.0804737582802772,-0.0891459435224533,0.4965666687324752,-0.5869260505125891,0.6554217362474795,0.8449236650795299,-0.5335076206902101,-0.024806284570991675,0.029296195995869617
1752651150.8499708,1.5004051367389124,-1.4705967095545311,2.0561330318450928,-1.5869018040099083,-1.6464641729937952,-1.5294259230243128,0.0039557018317282,0.0005990338395349,-0.0721000507473945,-0.0579204894602298,-0.0800921916961669,-0.0853086709976196,0.49651339192647004,-0.5869925509707523,0.6554445112715487,0.8449497364169367,-0.5334626625860226,-0.024795645180671715,0.02937186639719833
1752651150.8514335,1.500362221394674,-1.4706086304834862,2.0559606552124023,-1.587046285668844,-1.6466367880450647,-1.5296476523028772,0.0031034813728183,0.0005687446100637,-0.0742156729102134,-0.0559789836406707,-0.080239787697792,-0.086426593363285,0.4964024640342595,-0.5871026763783556,0.6555016630259755,0.8449590074723905,-0.533443123114615,-0.024758135669587483,0.029491436234354875
1752651150.8533275,1.5004199186908167,-1.4705835741809388,2.05579137802124,-1.587167879144186,-1.6468008200274866,-1.5298402945147913,0.0029108619783073,0.0005829053698107,-0.0731671005487442,-0.0572317950427532,-0.0793432891368866,-0.0884123519062995,0.49629481623839355,-0.5872119173356684,0.6554588941265648,0.8449626199054767,-0.5334318153789928,-0.024787533271152386,0.02956767657893828
1752651150.8552327,1.5004289785968226,-1.4706325319460412,2.055675506591797,-1.587292333642477,-1.64691669145693,-1.5299676100360315,0.0052923732437193,0.0006090751849114,-0.0733098685741424,-0.0598092451691627,-0.0798757076263427,-0.0867120176553726,0.4962102947878299,-0.5872670340795885,0.6555051542712527,0.8449628126998151,-0.5334284115804921,-0.024748862497061926,0.02965583716963414
1752651150.857196,1.5004857222186487,-1.470579208140709,2.0555031299591064,-1.5873867473998011,-1.6471026579486292,-1.530201260243551,0.005340663716197,0.0006426127511076,-0.0755966007709503,-0.0562830679118633,-0.0803027674555778,-0.0883118733763694,0.4961033572832725,-0.5873881199297372,0.6554388037783252,0.8449766052655121,-0.5333998300951033,-0.02480802590604855,0.02972742267891612
1752651150.859145,1.5004599730121058,-1.4705967095545311,2.0553970336914062,-1.58750643352651,-1.6472423712359827,-1.5303238073932093,0.005195964127779,0.000687493593432,-0.0747817382216453,-0.0570575930178165,-0.0816053226590156,-0.088457390666008,0.49603099005140255,-0.587456524275431,0.6554851034111351,0.8449777790148768,-0.5333939823992332,-0.0247757460499014,0.02982574255644675
1752651150.8612895,1.500437084828512,-1.4705804151347657,2.055269479751587,-1.587614198724264,-1.647454563771383,-1.5304907003985804,0.0044007417745888,0.0007268639747053,-0.0753698796033859,-0.058594636619091,-0.081892117857933,-0.0884211435914039,0.4959451956521556,-0.5875521045836811,0.6555032935525162,0.8449843565216082,-0.5333766568372893,-0.02478357652132616,0.029942503396543026
1752651150.8634217,1.5005047957049769,-1.4705760416439553,2.055109024047852,-1.5877758465208949,-1.6475961844073694,-1.5307167212115689,0.0043527036905288,0.0010799500159919,-0.0757341161370277,-0.0586734153330326,-0.0823113396763801,-0.0890526250004768,0.4958419346843333,-0.5876499547325917,0.6554737072055169,0.8449991193846225,-0.5333487243913857,-0.024785944809867535,0.030021381866537362
1752651150.865253,1.5005138556109827,-1.470556580727436,2.0549581050872803,-1.5878540478148402,-1.6477683226214808,-1.5308430830584925,0.0042654261924326,0.0012155957520008,-0.0765486359596252,-0.0591781809926033,-0.0825931131839752,-0.0883161500096321,0.49574356431021965,-0.5877493542028617,0.6554636403102497,0.8449896963838316,-0.5333577563235451,-0.024811574814444688,0.03010485890850652
1752651150.86732,1.500467602406637,-1.470584788625576,2.054805040359497,-1.587978025475973,-1.6479375998126429,-1.531093899403707,0.0044868537224829,0.0012691094307228,-0.0768074244260788,-0.0588458441197872,-0.0835229754447937,-0.088932454586029,0.4956396541134825,-0.5878409831701888,0.6555329132236065,0.8450117921485855,-0.5333178279543941,-0.024774067005062485,0.03022269213475074
1752651150.8696315,1.5005024115191858,-1.4705597472241898,2.0547029972076416,-1.5881263218321742,-1.6481054464923304,-1.531203571950094,0.0041405786760151,0.0013380062300711,-0.076946422457695,-0.0620238110423088,-0.085483118891716,-0.0879691839218139,0.4955738803782966,-0.5879224709328129,0.6555091642177916,0.8450106957288896,-0.533314018746634,-0.02478091922079895,0.03031480751489473
1752651150.8715248,1.5004890600787562,-1.4705521997860451,2.054497718811035,-1.5882331333556117,-1.6482756773578089,-1.5314376989947718,0.0038406166713684,0.0013558015925809,-0.077567920088768,-0.0598754361271858,-0.0856809988617897,-0.0915833264589309,0.4954440294685136,-0.5880493006497812,0.655526882719194,0.8450150248316538,-0.5333016508803085,-0.024781393760276507,0.030411173939775205
1752651150.8735442,1.5004890600787562,-1.4705521997860451,2.054497718811035,-1.5882331333556117,-1.6482756773578089,-1.5314376989947718,0.0038406166713684,0.0013558015925809,-0.077567920088768,-0.0598754361271858,-0.0856809988617897,-0.0915833264589309,0.4954440294685136,-0.5880493006497812,0.655526882719194,0.8450150248316538,-0.5333016508803085,-0.024781393760276507,0.030411173939775205
1752651150.8878562,1.5004914442645472,-1.4705521923354643,2.053776502609253,-1.5888172588744105,-1.6491463820086878,-1.532311741505758,0.0046576554886996,0.0010698883561417,-0.0803586393594741,-0.059732511639595,-0.0870131775736808,-0.0967146828770637,0.49496200344000285,-0.5885141226892798,0.655602304525489,0.8450383067083582,-0.5332363079307341,-0.02477194943842821,0.030913599287208753
1752651150.8881066,1.5005252997027796,-1.4705478262952347,2.0535998344421387,-1.588974138299459,-1.6492841879474085,-1.5325782934771937,0.0044412980787456,0.0010666149901226,-0.0797103717923164,-0.0602385513484478,-0.0875951200723648,-0.0934946313500404,0.49485125982576944,-0.5886231420414658,0.6555955159125432,0.845059260335594,-0.5331986969610958,-0.02476199208521059,0.03099741647331941
1752651150.8909302,1.5005252997027796,-1.4705478262952347,2.0535998344421387,-1.588974138299459,-1.6492841879474085,-1.5325782934771937,0.0044412980787456,0.0010666149901226,-0.0797103717923164,-0.0602385513484478,-0.0875951200723648,-0.0934946313500404,0.49485125982576944,-0.5886231420414658,0.6555955159125432,0.845059260335594,-0.5331986969610958,-0.02476199208521059,0.03099741647331941
1752651150.8912344,1.500601593648092,-1.4705521997860451,2.052980661392212,-1.589463850060934,-1.649987522755758,-1.533363167439596,0.0052125570364296,0.0009149966062977,-0.0810265839099884,-0.0604781918227672,-0.0883304476737976,-0.0954708606004715,0.4944353074045558,-0.5890074523676824,0.6556106583967917,0.8450894294742365,-0.5331271697058295,-0.02477944368195601,0.031388792317860806
1752651150.8942635,1.5005391279803677,-1.4705396232059975,2.052799701690674,-1.589574476281637,-1.6501835028277796,-1.5334809462176722,0.0046885847114026,0.0009050380904227,-0.0813129842281341,-0.0632285922765731,-0.0905648022890091,-0.0970194563269615,0.4943212427305904,-0.5891317567814734,0.6556592232883443,0.8450682838161003,-0.5331542570697558,-0.024763895571000234,0.03151005129568034
1752651150.895347,1.5005844275103968,-1.4705396232059975,2.0526437759399414,-1.5896583996214808,-1.6503632704364222,-1.5337298552142542,0.0050905421376228,0.0008036929648369,-0.0817082300782203,-0.0638120025396347,-0.0900858342647552,-0.0930990055203437,0.49421262009077915,-0.5892218558345677,0.6556395858551546,0.8450900008053059,-0.5331133431019165,-0.02479865740234449,0.031592412643344496
1752651150.8973782,1.500671688710348,-1.4705684942058106,2.052480459213257,-1.5898119411864222,-1.650562588368551,-1.533893887196676,0.0053334832191467,0.0007920679054223,-0.0820021405816078,-0.0637068524956703,-0.0923696085810661,-0.0989080592989921,0.49409243245584544,-0.5893067289839573,0.6556211269850096,0.8450863439089993,-0.5331121972535852,-0.024812710541915927,0.03169835758423761
1752651150.8992512,1.500638786946432,-1.4705611255816002,2.0523488521575928,-1.5900093517699183,-1.6507013479815882,-1.5341070334063929,0.0052599576301872,0.0007221139385364,-0.0823820903897285,-0.0637716427445411,-0.0915435925126075,-0.097640074789524,0.49401500555798766,-0.5894068136287735,0.6556629856745873,0.8451040823848114,-0.5330800317947059,-0.024756686184856134,0.031810000431088795
1752651150.9013116,1.5006001631366177,-1.4705654990724106,2.052131414413452,-1.5900751552977503,-1.6509302298175257,-1.5343435446368616,0.0054102656431496,0.0006786651792936,-0.0826884731650352,-0.0642192959785461,-0.0919824466109275,-0.0995945632457733,0.4938683001638585,-0.5895361678031386,0.6557028524094501,0.8451047121711427,-0.5330710035440137,-0.02477435684849488,0.031930579221986326
1752651150.903448,1.500636402760641,-1.4706010830453415,2.052041292190552,-1.5902472935118617,-1.6510441938983362,-1.5344985167132776,0.0050853299908339,0.0006605525268241,-0.0826770663261413,-0.0648353099822998,-0.0921084657311439,-0.1011520028114318,0.4938027131375455,-0.5895854261607426,0.6557260614442987,0.8451187793948212,-0.5330452754627465,-0.024732821887325583,0.03201984607305345
1752651150.906072,1.5007064978228968,-1.470584788625576,2.051861524581909,-1.590336938897604,-1.6512520948993128,-1.5347073713885706,0.0051516233943402,0.0006144602084532,-0.0844795852899551,-0.0649014711380004,-0.0929387733340263,-0.1014350652694702,0.49367940119357345,-0.5896932092832574,0.6556780401391905,0.8451232664169204,-0.5330303514366157,-0.024789840406628464,0.03210565091641825
1752651150.908837,1.5006278196917933,-1.4705509927919884,2.0517141819000244,-1.5905081234373988,-1.6514108816729944,-1.534936253224508,0.0052700974047183,0.0005422571557573,-0.0834690257906913,-0.065786674618721,-0.0933732688426971,-0.1017069891095161,0.49359778602599974,-0.5898159332947958,0.6557287291198969,0.8451406731567551,-0.5329978185899533,-0.024742476508646714,0.0322238702007843
1752651150.909208,1.5006402174579063,-1.4705565732768555,2.0515170097351074,-1.5906545124449671,-1.651698414479391,-1.5351203123675743,0.004835729021579,0.0005017540534026,-0.0850300341844558,-0.0661637037992477,-0.0929144024848938,-0.1019220352172851,0.49345782667442856,-0.5899401242824236,0.6557444397819886,0.8451314652513279,-0.5330022115276288,-0.024760610748685335,0.032378404904386614
1752651150.911338,1.5007155577289026,-1.470584788625576,2.051377534866333,-1.590795179406637,-1.6518357435809534,-1.5352910200702112,0.0055182958021759,0.0005211427924223,-0.0844162926077842,-0.0658002793788909,-0.0922312811017036,-0.1031077727675437,0.4933581493715738,-0.5900100953510219,0.6557316418330311,0.8451368156932608,-0.5329889631609199,-0.024759768189345957,0.03245738417853018
1752651150.9130616,1.500659290944235,-1.4705684942058106,2.051188945770264,-1.590940614739889,-1.65200645128359,-1.5355847517596644,0.0052782227285206,0.000549696793314,-0.0850714519619941,-0.0647998303174972,-0.0919612273573875,-0.1038151606917381,0.49324425698726054,-0.5901410217725578,0.6557770947796872,0.8451605230066493,-0.5329457511505684,-0.024730494491396176,0.032571756536827076
1752651150.91508,1.5006979147540491,-1.4705396232059975,2.051029920578003,-1.5910421810545865,-1.6522067228900357,-1.535732571278707,0.0053126290440559,0.0005573955713771,-0.0857853442430496,-0.0693032965064048,-0.0937288030982017,-0.1026235148310661,0.4931392206622897,-0.5902483422976141,0.6557427050816153,0.8451540619461689,-0.5329485254600552,-0.024771155271090608,0.03266298596852064
1752651150.9170306,1.5006750265704554,-1.4705565732768555,2.050903081893921,-1.5911456547179164,-1.6523650328265589,-1.5359485785113731,0.0056374380365014,0.000831370067317,-0.086478553712368,-0.064398393034935,-0.0912897735834121,-0.1012124568223953,0.49305135751316304,-0.590325751851889,0.6557850167700219,0.8451740435726587,-0.532911451584785,-0.02475473911915308,0.032763145941464004
1752651150.919224,1.500659290944235,-1.4705441755107422,2.050689697265625,-1.5913011036314906,-1.6525700728045862,-1.53616172472109,0.0050452994182705,0.000893781078048,-0.0869165435433387,-0.0661032199859619,-0.0927686244249343,-0.1041658148169517,0.49291637755897466,-0.590465240506899,0.6558069639023224,0.8451693008285771,-0.5329118459792506,-0.0247448166978893,0.03288634060684685
1752651150.9210978,1.5006888548480433,-1.4705322545817872,2.050521850585937,-1.5914002857603968,-1.652691666279928,-1.5363853613482874,0.0054325642995536,0.0009071076055988,-0.087332434952259,-0.0690476521849632,-0.0941622108221054,-0.1020656824111938,0.492810886216489,-0.5905663125417807,0.6557905418348713,0.8451817051230213,-0.5328877686374276,-0.024756973137597147,0.03294849986008798
1752651150.9230316,1.5007250944720667,-1.470552959745266,2.0503509044647217,-1.591546197930807,-1.6529234091388147,-1.5365613142596644,0.0058265556581318,0.000877272686921,-0.0882936790585517,-0.0656643658876419,-0.094368077814579,-0.1056674271821975,0.4926871594523594,-0.5906651175221382,0.6558006307434785,0.845178150249613,-0.532885079249372,-0.02476480530007037,0.03307704751762326
1752651150.9251056,1.5006979147540491,-1.470539667909481,2.050180196762085,-1.59171785930776,-1.6530793348895472,-1.536797825490133,0.0061877323314547,0.000896027253475,-0.0877104178071022,-0.0667562112212181,-0.0963694304227829,-0.104402408003807,0.4925841412854572,-0.5907842891065935,0.6558312779065836,0.8451914989402138,-0.5328587098119091,-0.024730789179476534,0.033186044707714905
1752651150.9270887,1.5007360617267054,-1.4705573108843346,2.0499632358551025,-1.591809412042135,-1.6532829443561,-1.5369976202594202,0.0061930087395012,0.0008770593558438,-0.0880438014864921,-0.0682413801550865,-0.0968466401100158,-0.1063652262091636,0.4924336932208064,-0.5908996008162556,0.6558310376811788,0.8451829867423527,-0.5328646562241528,-0.024758373091232407,0.03328663440882732
1752651150.929047,1.500756565724508,-1.4705159601620217,2.0498745441436768,-1.5919934711852015,-1.6534798781024378,-1.5371559301959437,0.0056445333175361,0.0008482114062644,-0.0905295610427856,-0.0688269361853599,-0.0984416976571083,-0.106359876692295,0.4923787242305659,-0.5909879697658007,0.6558095745354441,0.845197225134668,-0.5328349703648277,-0.024759423806601694,0.03339934001946242
1752651150.9312384,1.500728432332174,-1.4705322545817872,2.049673795700073,-1.5920921764769496,-1.6536887327777308,-1.537463490162985,0.0065611796453595,0.0008136996184475,-0.0893860831856727,-0.0684592202305793,-0.0987506657838821,-0.1056469529867172,0.49224206035951945,-0.5911047518971448,0.6558549725585773,0.845220966380172,-0.5327898063794707,-0.024758863502076327,0.033519231607841836
1752651150.9353783,1.5007928053485315,-1.4705159601620217,2.0495059490203857,-1.5922380886473595,-1.6538718382464808,-1.537687126790182,0.0070260073989629,0.0008029133896343,-0.0897736474871635,-0.0681336671113967,-0.1009019166231155,-0.1079902872443199,0.4921314250211724,-0.5912115424144293,0.6558174096885275,0.8452322327598463,-0.5327650818018729,-0.02478348422316042,0.033609808482183666
1752651150.9374232,1.5008657614337366,-1.4705442053130646,2.04912543296814,-1.5925327740111292,-1.654330078755514,-1.5381034056292933,0.0067516015842556,0.000780975446105,-0.0899770632386207,-0.0680757015943527,-0.1022441759705543,-0.108320340514183,0.4918643939281066,-0.591433328104888,0.6558277483982113,0.8452319049208838,-0.5327487282597482,-0.024804799579892907,0.03386061663992792
1752651150.939547,1.500779453908102,-1.470523276632168,2.049011468887329,-1.5926691494383751,-1.6544893423663538,-1.5382989088641563,0.0065503744408488,0.0007953501190058,-0.0900053083896637,-0.0696677714586258,-0.0970465764403343,-0.1070010662078857,0.491797842061642,-0.5915312202079261,0.6558893457820764,0.84524910196694,-0.532716001972545,-0.024763300853205276,0.03397640059398047
1752651150.9477675,1.500803295766012,-1.4704996731928368,2.0488061904907227,-1.5928088627257289,-1.654698673878805,-1.5384872595416468,0.0071261837147176,0.0008238495211116,-0.0902061909437179,-0.0730777308344841,-0.0979852229356765,-0.109053187072277,0.49166603737585896,-0.5916650059972187,0.6558738035718708,0.8452402490504665,-0.5327221861456495,-0.02478309850473369,0.03408506713811909
1752651150.9480317,1.500803295766012,-1.4704996731928368,2.0488061904907227,-1.5928088627257289,-1.654698673878805,-1.5384872595416468,0.0071261837147176,0.0008238495211116,-0.0902061909437179,-0.0730777308344841,-0.0979852229356765,-0.109053187072277,0.49166603737585896,-0.5916650059972187,0.6558738035718708,0.8452402490504665,-0.5327221861456495,-0.02478309850473369,0.03408506713811909
1752651150.948254,1.500847641621725,-1.4705529150417824,2.0484750270843506,-1.5930706463255824,-1.6550872961627403,-1.538947884236471,0.0072847642004489,0.0010857543675228,-0.0913375690579414,-0.0703573226928711,-0.0975395441055297,-0.1085242852568626,0.49142972760165343,-0.5918480357146841,0.655918139142079,0.8452656758802882,-0.5326675531408904,-0.024778198500312643,0.03431116274064956
