mathias31415/evaluate_motion_primitives_from_trajectory_controller/data/trajectory_20250715_114057_executed.csv
timestamp,elbow_joint_pos,shoulder_lift_joint_pos,shoulder_pan_joint_pos,wrist_1_joint_pos,wrist_2_joint_pos,wrist_3_joint_pos,elbow_joint_vel,shoulder_lift_joint_vel,shoulder_pan_joint_vel,wrist_1_joint_vel,wrist_2_joint_vel,wrist_3_joint_vel,pose_x,pose_y,pose_z,pose_qx,pose_qy,pose_qz,pose_qw
1752572463.7648826,-1.651210859744534,-1.9812014288744555,-2.5576648199623597,-1.1146386509359862,1.5637077393870733,-0.9874605801450268,0.0,0.0,0.0,0.0,0.0,0.0,-0.8175299952403209,-0.3304940077224276,0.3524909990028553,-0.00035742014567838803,0.9998434802739621,0.012506985014234358,0.012508498324908216
1752572463.7651896,-1.651210859744534,-1.9812014288744555,-2.5576648199623597,-1.1146386509359862,1.5637077393870733,-0.9874605801450268,0.0,0.0,0.0,0.0,0.0,0.0,-0.8175299952403209,-0.3304940077224276,0.3524909990028553,-0.00035742014567838803,0.9998434802739621,0.012506985014234358,0.012508498324908216
1752572463.7668254,-1.651210859744534,-1.9812014288744555,-2.5576648199623597,-1.1146386509359862,1.5637077393870733,-0.9874605801450268,0.0,0.0,0.0,0.0,0.0,0.0,-0.8175299952403209,-0.3304940077224276,0.3524909990028553,-0.00035742014567838803,0.9998434802739621,0.012506985014234358,0.012508498324908216
1752572463.7688682,-1.651210859744534,-1.9812014288744555,-2.5576648199623597,-1.1146386509359862,1.5637077393870733,-0.9874605801450268,0.0,0.0,0.0,0.0,0.0,0.0,-0.8175299952403209,-0.3304940077224276,0.3524909990028553,-0.00035742014567838803,0.9998434802739621,0.012506985014234358,0.012508498324908216
1752572463.770912,-1.651210859744534,-1.9812014288744555,-2.5576648199623597,-1.1146386509359862,1.5637077393870733,-0.9874605801450268,0.0,0.0,0.0,0.0,0.0,0.0,-0.8175299952403209,-0.3304940077224276,0.3524909990028553,-0.00035742014567838803,0.9998434802739621,0.012506985014234358,0.012508498324908216
1752572463.7729352,-1.651210859744534,-1.9812014288744555,-2.5576648199623597,-1.1146386509359862,1.5637077393870733,-0.9874605801450268,0.0,0.0,0.0,0.0,0.0,0.0,-0.8175299952403209,-0.3304940077224276,0.3524909990028553,-0.00035742014567838803,0.9998434802739621,0.012506985014234358,0.012508498324908216
1752572463.7793567,-1.651210859744534,-1.9812014288744555,-2.5576648199623597,-1.1146386509359862,1.5637077393870733,-0.9874605801450268,0.0,0.0,0.0,0.0,0.0,0.0,-0.8175299952403209,-0.3304940077224276,0.3524909990028553,-0.00035742014567838803,0.9998434802739621,0.012506985014234358,0.012508498324908216
1752572463.7797632,-1.651210859744534,-1.9812014288744555,-2.5576648199623597,-1.1146386509359862,1.5637077393870733,-0.9874605801450268,0.0,0.0,0.0,0.0,0.0,0.0,-0.8175299952403209,-0.3304940077224276,0.3524909990028553,-0.00035742014567838803,0.9998434802739621,0.012506985014234358,0.012508498324908216
1752572463.7800982,-1.651210859744534,-1.9812014288744555,-2.5576648199623597,-1.1146386509359862,1.5637077393870733,-0.9874605801450268,0.0,0.0,0.0,0.0,0.0,0.0,-0.8175299952403209,-0.3304940077224276,0.3524909990028553,-0.00035742014567838803,0.9998434802739621,0.012506985014234358,0.012508498324908216
1752572463.7808197,-1.651210859744534,-1.9812014288744555,-2.5576648199623597,-1.1146386509359862,1.5637077393870733,-0.9874605801450268,0.0,0.0,0.0,0.0,0.0,0.0,-0.8175299952403209,-0.3304940077224276,0.3524909990028553,-0.00035742014567838803,0.9998434802739621,0.012506985014234358,0.012508498324908216
1752572463.783581,-1.651210859744534,-1.9812014288744555,-2.5576648199623597,-1.1146386509359862,1.5637077393870733,-0.9874605801450268,0.0,0.0,0.0,0.0,0.0,0.0,-0.8175299952403209,-0.3304940077224276,0.3524909990028553,-0.00035742014567838803,0.9998434802739621,0.012506985014234358,0.012508498324908216
1752572463.7852187,-1.651210859744534,-1.9812014288744555,-2.5576648199623597,-1.1146386509359862,1.5637077393870733,-0.9874605801450268,0.0,0.0,0.0,0.0,0.0,0.0,-0.8175299952403209,-0.3304940077224276,0.3524909990028553,-0.00035742014567838803,0.9998434802739621,0.012506985014234358,0.012508498324908216
1752572463.787075,-1.651210859744534,-1.9812014288744555,-2.5576648199623597,-1.1146386509359862,1.5637077393870733,-0.9874605801450268,0.0,0.0,0.0,0.0,0.0,0.0,-0.8175299952403209,-0.3304940077224276,0.3524909990028553,-0.00035742014567838803,0.9998434802739621,0.012506985014234358,0.012508498324908216
1752572463.7892132,-1.651210859744534,-1.9812014288744555,-2.5576648199623597,-1.1146386509359862,1.5637077393870733,-0.9874605801450268,0.0,0.0,0.0,0.0,0.0,0.0,-0.8175299952403209,-0.3304940077224276,0.3524909990028553,-0.00035742014567838803,0.9998434802739621,0.012506985014234358,0.012508498324908216
1752572463.7911584,-1.651210859744534,-1.9812014288744555,-2.5576648199623597,-1.1146386509359862,1.5637077393870733,-0.9874605801450268,0.0,0.0,0.0,0.0,0.0,0.0,-0.8175299952403209,-0.3304940077224276,0.3524909990028553,-0.00035742014567838803,0.9998434802739621,0.012506985014234358,0.012508498324908216
1752572463.7932775,-1.651210859744534,-1.9812014288744555,-2.5576648199623597,-1.1146386509359862,1.5637077393870733,-0.9874605801450268,0.0,0.0,0.0,0.0,0.0,0.0,-0.8175299952403209,-0.3304940077224276,0.3524909990028553,-0.00035742014567838803,0.9998434802739621,0.012506985014234358,0.012508498324908216
1752572463.7991655,-1.651210859744534,-1.9812014288744555,-2.5576648199623597,-1.1146386509359862,1.5637077393870733,-0.9874605801450268,0.0,0.0,0.0,0.0,0.0,0.0,-0.8175299952403209,-0.3304940077224276,0.3524909990028553,-0.00035742014567838803,0.9998434802739621,0.012506985014234358,0.012508498324908216
1752572463.801469,-1.651210859744534,-1.9812014288744555,-2.5576648199623597,-1.1146386509359862,1.5637077393870733,-0.9874605801450268,0.0,0.0,0.0,0.0,0.0,0.0,-0.8175299952403209,-0.3304940077224276,0.3524909990028553,-0.00035742014567838803,0.9998434802739621,0.012506985014234358,0.012508498324908216
1752572463.804726,-1.651210859744534,-1.9812014288744555,-2.5576648199623597,-1.1146386509359862,1.5637077393870733,-0.9874605801450268,0.0,0.0,0.0,0.0,0.0,0.0,-0.8175299952403209,-0.3304940077224276,0.3524909990028553,-0.00035742014567838803,0.9998434802739621,0.012506985014234358,0.012508498324908216
1752572463.811193,-1.651210859744534,-1.9812014288744555,-2.5576648199623597,-1.1146386509359862,1.5637077393870733,-0.9874605801450268,0.0,0.0,0.0,0.0,0.0,0.0,-0.8175299952403209,-0.3304940077224276,0.3524909990028553,-0.00035742014567838803,0.9998434802739621,0.012506985014234358,0.012508498324908216
1752572463.813269,-1.651210859744534,-1.9812014288744555,-2.5576648199623597,-1.1146386509359862,1.5637077393870733,-0.9874605801450268,0.0,0.0,0.0,0.0,0.0,0.0,-0.8175299952403209,-0.3304940077224276,0.3524909990028553,-0.00035742014567838803,0.9998434802739621,0.012506985014234358,0.012508498324908216
1752572463.8152628,-1.651210859744534,-1.9812014288744555,-2.5576648199623597,-1.1146386509359862,1.5637077393870733,-0.9874605801450268,0.0,0.0,0.0,0.0,0.0,0.0,-0.8175299952403209,-0.3304940077224276,0.3524909990028553,-0.00035742014567838803,0.9998434802739621,0.012506985014234358,0.012508498324908216
1752572463.8170598,-1.651210859744534,-1.9812014288744555,-2.5576648199623597,-1.1146386509359862,1.5637077393870733,-0.9874605801450268,0.0,0.0,0.0,0.0,0.0,0.0,-0.8175299952403209,-0.3304940077224276,0.3524909990028553,-0.00035742014567838803,0.9998434802739621,0.012506985014234358,0.012508498324908216
1752572463.8190615,-1.651210859744534,-1.9812014288744555,-2.5576648199623597,-1.1146386509359862,1.5637077393870733,-0.9874605801450268,0.0,0.0,0.0,0.0,0.0,0.0,-0.8175299952403209,-0.3304940077224276,0.3524909990028553,-0.00035742014567838803,0.9998434802739621,0.012506985014234358,0.012508498324908216
1752572463.8214371,-1.651210859744534,-1.9812014288744555,-2.5576648199623597,-1.1146386509359862,1.5637077393870733,-0.9874605801450268,0.0,0.0,0.0,0.0,0.0,0.0,-0.8175299952403209,-0.3304940077224276,0.3524909990028553,-0.00035742014567838803,0.9998434802739621,0.012506985014234358,0.012508498324908216
1752572463.8232925,-1.651210859744534,-1.9812014288744555,-2.5576648199623597,-1.1146386509359862,1.5637077393870733,-0.9874605801450268,0.0,0.0,0.0,0.0,0.0,0.0,-0.8175299952403209,-0.3304940077224276,0.3524909990028553,-0.00035742014567838803,0.9998434802739621,0.012506985014234358,0.012508498324908216
1752572463.8249624,-1.651210859744534,-1.9812014288744555,-2.5576648199623597,-1.1146386509359862,1.5637077393870733,-0.9874605801450268,0.0,0.0,0.0,0.0,0.0,0.0,-0.8175299952403209,-0.3304940077224276,0.3524909990028553,-0.00035742014567838803,0.9998434802739621,0.012506985014234358,0.012508498324908216
1752572463.8276658,-1.651210859744534,-1.9812014288744555,-2.5576648199623597,-1.1146386509359862,1.5637077393870733,-0.9874605801450268,0.0,0.0,0.0,0.0,0.0,0.0,-0.8175299952403209,-0.3304940077224276,0.3524909990028553,-0.00035742014567838803,0.9998434802739621,0.012506985014234358,0.012508498324908216
1752572463.8289523,-1.651210859744534,-1.9812014288744555,-2.5576648199623597,-1.1146386509359862,1.5637077393870733,-0.9874605801450268,0.0,0.0,0.0,0.0,0.0,0.0,-0.8175299952403209,-0.3304940077224276,0.3524909990028553,-0.00035742014567838803,0.9998434802739621,0.012506985014234358,0.012508498324908216
1752572463.831334,-1.651210859744534,-1.9812014288744555,-2.5576648199623597,-1.1146386509359862,1.5637077393870733,-0.9874605801450268,0.0,0.0,0.0,0.0,0.0,0.0,-0.8175299952403209,-0.3304940077224276,0.3524909990028553,-0.00035742014567838803,0.9998434802739621,0.012506985014234358,0.012508498324908216
1752572463.8344924,-1.651210859744534,-1.9812014288744555,-2.5576648199623597,-1.1146386509359862,1.5637077393870733,-0.9874605801450268,0.0,0.0,0.0,0.0,0.0,0.0,-0.8175299952403209,-0.3304940077224276,0.3524909990028553,-0.00035742014567838803,0.9998434802739621,0.012506985014234358,0.012508498324908216
1752572463.834897,-1.651210859744534,-1.9812014288744555,-2.5576648199623597,-1.1146386509359862,1.5637077393870733,-0.9874605801450268,0.0,0.0,0.0,0.0,0.0,0.0,-0.8175299952403209,-0.3304940077224276,0.3524909990028553,-0.00035742014567838803,0.9998434802739621,0.012506985014234358,0.012508498324908216
1752572463.8373318,-1.651210859744534,-1.9812014288744555,-2.5576648199623597,-1.1146386509359862,1.5637077393870733,-0.9874605801450268,0.0,0.0,0.0,0.0,0.0,0.0,-0.8175299952403209,-0.3304940077224276,0.3524909990028553,-0.00035742014567838803,0.9998434802739621,0.012506985014234358,0.012508498324908216
1752572463.8393583,-1.651210859744534,-1.9812014288744555,-2.5576648199623597,-1.1146386509359862,1.5637077393870733,-0.9874605801450268,0.0,0.0,0.0,0.0,0.0,0.0,-0.8175299952403209,-0.3304940077224276,0.3524909990028553,-0.00035742014567838803,0.9998434802739621,0.012506985014234358,0.012508498324908216
1752572463.8421674,-1.651210859744534,-1.9812014288744555,-2.5576648199623597,-1.1146386509359862,1.5637077393870733,-0.9874605801450268,0.0,0.0,0.0,0.0,0.0,0.0,-0.8175299952403209,-0.3304940077224276,0.3524909990028553,-0.00035742014567838803,0.9998434802739621,0.012506985014234358,0.012508498324908216
1752572463.8437147,-1.651210859744534,-1.9812014288744555,-2.5576648199623597,-1.1146386509359862,1.5637077393870733,-0.9874605801450268,0.0,0.0,0.0,0.0,0.0,0.0,-0.8175299952403209,-0.3304940077224276,0.3524909990028553,-0.00035742014567838803,0.9998434802739621,0.012506985014234358,0.012508498324908216
1752572463.8460133,-1.651210859744534,-1.9812014288744555,-2.5576648199623597,-1.1146386509359862,1.5637077393870733,-0.9874605801450268,0.0,0.0,0.0,0.0,0.0,0.0,-0.8175299952403209,-0.3304940077224276,0.3524909990028553,-0.00035742014567838803,0.9998434802739621,0.012506985014234358,0.012508498324908216
1752572463.8477,-1.651210859744534,-1.9812014288744555,-2.5576648199623597,-1.1146386509359862,1.5637077393870733,-0.9874605801450268,0.0,0.0,0.0,0.0,0.0,0.0,-0.8175299952403209,-0.3304940077224276,0.3524909990028553,-0.00035742014567838803,0.9998434802739621,0.012506985014234358,0.012508498324908216
1752572463.8497498,-1.651210859744534,-1.9812014288744555,-2.5576648199623597,-1.1146386509359862,1.5637077393870733,-0.9874605801450268,0.0,0.0,0.0,0.0,0.0,0.0,-0.8175299952403209,-0.3304940077224276,0.3524909990028553,-0.00035742014567838803,0.9998434802739621,0.012506985014234358,0.012508498324908216
1752572463.851316,-1.651210859744534,-1.9812014288744555,-2.5576648199623597,-1.1146386509359862,1.5637077393870733,-0.9874605801450268,0.0,0.0,0.0,0.0,0.0,0.0,-0.8175299952403209,-0.3304940077224276,0.3524909990028553,-0.00035742014567838803,0.9998434802739621,0.012506985014234358,0.012508498324908216
1752572463.8541734,-1.651210859744534,-1.9812014288744555,-2.5576648199623597,-1.1146386509359862,1.5637077393870733,-0.9874605801450268,0.0,0.0,0.0,0.0,0.0,0.0,-0.8175299952403209,-0.3304940077224276,0.3524909990028553,-0.00035742014567838803,0.9998434802739621,0.012506985014234358,0.012508498324908216
1752572463.8568273,-1.651210859744534,-1.9812014288744555,-2.5576648199623597,-1.1146386509359862,1.5637077393870733,-0.9874605801450268,0.0,0.0,0.0,0.0,0.0,0.0,-0.8175299952403209,-0.3304940077224276,0.3524909990028553,-0.00035742014567838803,0.9998434802739621,0.012506985014234358,0.012508498324908216
1752572463.8578925,-1.651210859744534,-1.9812014288744555,-2.5576648199623597,-1.1146386509359862,1.5637077393870733,-0.9874605801450268,0.0,0.0,0.0,0.0,0.0,0.0,-0.8175299952403209,-0.3304940077224276,0.3524909990028553,-0.00035742014567838803,0.9998434802739621,0.012506985014234358,0.012508498324908216
1752572463.8591528,-1.651210859744534,-1.9812014288744555,-2.5576648199623597,-1.1146386509359862,1.5637077393870733,-0.9874605801450268,0.0,0.0,0.0,0.0,0.0,0.0,-0.8175299952403209,-0.3304940077224276,0.3524909990028553,-0.00035742014567838803,0.9998434802739621,0.012506985014234358,0.012508498324908216
1752572463.8611872,-1.651210859744534,-1.9812014288744555,-2.5576648199623597,-1.1146386509359862,1.5637077393870733,-0.9874605801450268,0.0,0.0,0.0,0.0,0.0,0.0,-0.8175299952403209,-0.3304940077224276,0.3524909990028553,-0.00035742014567838803,0.9998434802739621,0.012506985014234358,0.012508498324908216
1752572463.8630822,-1.651210859744534,-1.9812014288744555,-2.5576648199623597,-1.1146386509359862,1.5637077393870733,-0.9874605801450268,0.0,0.0,0.0,0.0,0.0,0.0,-0.8175299952403209,-0.3304940077224276,0.3524909990028553,-0.00035742014567838803,0.9998434802739621,0.012506985014234358,0.012508498324908216
1752572463.8651426,-1.651210859744534,-1.9812014288744555,-2.5576648199623597,-1.1146386509359862,1.5637077393870733,-0.9874605801450268,0.0,0.0,0.0,0.0,0.0,0.0,-0.8175299952403209,-0.3304940077224276,0.3524909990028553,-0.00035742014567838803,0.9998434802739621,0.012506985014234358,0.012508498324908216
1752572463.8673034,-1.651210859744534,-1.9812014288744555,-2.5576648199623597,-1.1146386509359862,1.5637077393870733,-0.9874605801450268,0.0,0.0,0.0,0.0,0.0,0.0,-0.8175299952403209,-0.3304940077224276,0.3524909990028553,-0.00035742014567838803,0.9998434802739621,0.012506985014234358,0.012508498324908216
1752572463.8693144,-1.651210859744534,-1.9812014288744555,-2.5576648199623597,-1.1146386509359862,1.5637077393870733,-0.9874605801450268,0.0,0.0,0.0,0.0,0.0,0.0,-0.8175299952403209,-0.3304940077224276,0.3524909990028553,-0.00035742014567838803,0.9998434802739621,0.012506985014234358,0.012508498324908216
1752572463.871533,-1.651210859744534,-1.9812014288744555,-2.5576648199623597,-1.1146386509359862,1.5637077393870733,-0.9874605801450268,0.0,0.0,0.0,0.0,0.0,0.0,-0.8175299952403209,-0.3304940077224276,0.3524909990028553,-0.00035742014567838803,0.9998434802739621,0.012506985014234358,0.012508498324908216
1752572463.873233,-1.651210859744534,-1.9812014288744555,-2.5576648199623597,-1.1146386509359862,1.5637077393870733,-0.9874605801450268,0.0,0.0,0.0,0.0,0.0,0.0,-0.8175299952403209,-0.3304940077224276,0.3524909990028553,-0.00035742014567838803,0.9998434802739621,0.012506985014234358,0.012508498324908216
1752572463.874901,-1.651210859744534,-1.9812014288744555,-2.5576648199623597,-1.1146386509359862,1.5637077393870733,-0.9874605801450268,0.0,0.0,0.0,0.0,0.0,0.0,-0.8175299952403209,-0.3304940077224276,0.3524909990028553,-0.00035742014567838803,0.9998434802739621,0.012506985014234358,0.012508498324908216
1752572463.8768082,-1.651210859744534,-1.9812014288744555,-2.5576648199623597,-1.1146386509359862,1.5637077393870733,-0.9874605801450268,0.0,0.0,0.0,0.0,0.0,0.0,-0.8175299952403209,-0.3304940077224276,0.3524909990028553,-0.00035742014567838803,0.9998434802739621,0.012506985014234358,0.012508498324908216
1752572463.8787918,-1.651210859744534,-1.9812014288744555,-2.5576648199623597,-1.1146386509359862,1.5637077393870733,-0.9874605801450268,0.0,0.0,0.0,0.0,0.0,0.0,-0.8175299952403209,-0.3304940077224276,0.3524909990028553,-0.00035742014567838803,0.9998434802739621,0.012506985014234358,0.012508498324908216
1752572463.8808155,-1.6512112137284287,-1.9812011496606117,-2.557663818178176,-1.1146385613007803,1.563707770038994,-0.9874595785393944,-0.000353982959061,0.0002792132400794,0.0010017842870728,8.963488664250451e-05,3.065190574535205e-05,0.0010016057359771,-0.8175295160010911,-0.33049473309210536,0.3524910312635379,-0.00035741994305611024,0.9998434804571346,0.012506980662682686,0.012508488040174947
1752572463.882879,-1.651212275668886,-1.981200312026326,-2.5576608128243827,-1.1146382923989933,1.5637078619945777,-0.9874565737212508,-0.0007079546922641,0.0005584192348293,0.0020035698162542,0.0001792659436165,6.130363326036647e-05,0.0020032127193618,-0.817528078283402,-0.3304969092011392,0.3524911280455857,-0.00035741933519031874,0.999843481006651,0.012506967608028037,0.012508457185975241
1752572463.884795,-1.65121404553223,-1.9811989159933328,-2.5576558038972546,-1.1146378442421128,1.5637080152532894,-0.987451565686854,-0.0010619039737509,0.0008376107388863,0.0030053578295413,0.0002688893412746,9.195500431259284e-05,0.0030048221973943,-0.8175256820872537,-0.33050053604952767,0.3524912893489994,-0.0003574183220802242,0.9998434819225093,0.012506945850270039,0.012508405762308524
1752572463.8868616,-1.6512165232623293,-1.9811969615978609,-2.5576487913905805,-1.114637216849287,1.5637082298142382,-0.9874445544299668,-0.0014158195776797,0.0011167805067956,0.0040071495687104,0.0003585012501005,0.0001226058406149,0.0040064354172034,-0.8175223274126466,-0.33050561363727216,0.3524915151737785,-0.00035741690372608035,0.9998434832047055,0.012506915389408596,0.012508333769174871
1752572463.8887396,-1.651219708780605,-1.9811944488906272,-2.557639775295668,-1.114636410247324,1.5637085056761764,-0.9874355399418596,-0.0017696902782156,0.0013959212930005,0.0050089462751858,0.0004480978406492,0.0001532559639414,0.0050080536254889,-0.8175180142595796,-0.3305121419643717,0.3524918055199222,-0.0003574150801277394,0.9998434848532345,0.012506876225444127,0.012508241206574924
1752572463.8922184,-1.6512236019860236,-1.98119137793684,-2.5576287556013413,-1.1146354244706895,1.5637088428374997,-0.9874245222113088,-0.0021235048495171,0.001675025851776,0.0060107491899496,0.0005376752836541,0.0001839051959857,0.0060096780684892,-0.8175127426280534,-0.3305201210308263,0.3524921603874324,-0.0003574128512854021,0.9998434868680895,0.012506828358375974,0.012508128074507789
1752572463.9003625,-1.6512282027550995,-1.9811877488162024,-2.5576157322939426,-1.114634259561507,1.5637092412962472,-0.9874115012245984,-0.0024772520657985,0.0019540869371976,0.0070125595534179,0.0006272297500963,0.00021455335842,0.0070113099919351,-0.8175065125180684,-0.3305295508366373,0.3524925797763071,-0.00035741021719875687,0.9998434892492625,0.012506771788204323,0.012507994372973697
1752572463.901235,-1.6512282027550995,-1.9811877488162024,-2.5576157322939426,-1.114634259561507,1.5637092412962472,-0.9874115012245984,-0.0024772520657985,0.0019540869371976,0.0070125595534179,0.0006272297500963,0.00021455335842,0.0070113099919351,-0.8175065125180684,-0.3305295508366373,0.3524925797763071,-0.00035741021719875687,0.9998434892492625,0.012506771788204323,0.012507994372973697
1752572463.9016123,-1.6512282027550995,-1.9811877488162024,-2.5576157322939426,-1.114634259561507,1.5637092412962472,-0.9874115012245984,-0.0024772520657985,0.0019540869371976,0.0070125595534179,0.0006272297500963,0.00021455335842,0.0070113099919351,-0.8175065125180684,-0.3305295508366373,0.3524925797763071,-0.00035741021719875687,0.9998434892492625,0.012506771788204323,0.012507994372973697
1752572463.9019067,-1.6512462488726651,-1.9811735134675672,-2.557564640519553,-1.1146296905747812,1.5637108044320758,-0.9873604185530108,-0.0035379773267234,0.0027909368904186,0.010018047729313,0.0008957170032619,0.0003064896443818,0.0100162630910934,-0.8174820713173568,-0.3305665446902018,0.352494225071125,-0.0003573998834750177,0.9998434985905835,0.012506549859066955,0.012507469851568446
1752572463.9029877,-1.6512536782125018,-1.981167652766378,-2.557543602573717,-1.1146278097097992,1.5637114480537766,-0.9873393843547208,-0.0038913428652809,0.0030697516179481,0.0110199002764648,0.0009851412783603,0.0003371317444181,0.0110179373781199,-0.8174720072935343,-0.3305817774534348,0.35249490254546234,-0.0003573956284124143,0.9998435024369154,0.01250645847647967,0.012507253872164833
1752572463.9049537,-1.6512618141618036,-1.981161234514234,-2.557520560909355,-1.114625750037746,1.5637121529577456,-0.9873163467943672,-0.0042445849201624,0.0033484866382076,0.0120217664619484,0.0010745234361503,0.0003677718826204,0.0120196253616508,-0.817460984791253,-0.3305984609560223,0.35249564454116367,-0.00035739096810520285,0.9998435066495016,0.012506358390788359,0.012507017323294078
1752572463.9068513,-1.6512706564623765,-1.981154258877796,-2.5574955154979544,-1.114623511646684,1.5637129191398802,-0.9872913058433168,-0.0045976922657198,0.0036271347032757,0.0130236475204151,0.0011638596496432,0.000398409880357,0.0130213282816682,-0.8174490038105119,-0.3306165951979659,0.3524964510582313,-0.0003573859025543714,0.9998435112283247,0.01250624960199229,0.012506760204954911
1752572463.9089077,-1.6512802048335766,-1.9811467260382225,-2.557468466308536,-1.1146210946323285,1.563713746595721,-0.9872642614704574,-0.0049506536763748,0.0039056885647455,0.0140255446851498,0.001253146092413,0.000429045558943,0.0140230473767703,-0.8174360643513113,-0.33063618017926477,0.3524973220966647,-0.0003573804317592713,0.9998435161733661,0.01250613211009138,0.01250648251714746
1752572463.9106493,-1.6512904589723083,-1.9811386361911716,-2.557439413307655,-1.1146184990980457,1.5637146353204507,-0.9872352136422008,-0.0053034579265766,0.0041841409737133,0.0150274591879758,0.0013423789385216,0.0004596787396015,0.0150247838840695,-0.8174221664136521,-0.3306572158999194,0.3524982576564629,-0.00035737455571968607,0.9998435214846055,0.012506005915085463,0.012506184259871555
1752572463.9127269,-1.6513014185530253,-1.981129989546796,-2.557408356459405,-1.114615725154855,1.5637155853088949,-0.987204162322489,-0.0056560937908272,0.004462484680727,0.0160293922591247,0.0014315543626144,0.0004903092435137,0.0160265390390998,-0.8174073099975334,-0.33067970235992955,0.35249925773762675,-0.00035736827443673283,0.9998435271620214,0.012505871016974123,0.01250586543312667
1752572463.9149923,-1.6513130832277303,-1.9811207863297493,-2.55737529572542,-1.1146127729214257,1.563716596555521,-0.9871711074727908,-0.0060085500436793,0.004740712435728,0.0170313451271367,0.0015206685399632,0.0005209368917295,0.017028314075688,-0.8173914951029553,-0.3307036395592951,0.35250032234015666,-0.00035736158790935113,0.9998435332055904,0.012505727415757025,0.012505526036912604
1752572463.916748,-1.6513254526259755,-1.981111026779188,-2.5573402310648805,-1.1146096425240763,1.5637176690544388,-0.9871360490521104,-0.0063608154597392,0.0050188169880423,0.0180333190187374,0.001609717646493,0.0005515615052282,0.0180301102259023,-0.817374721729918,-0.3307290274980156,0.3525014514640505,-0.00035735449613746726,0.9998435396152877,0.012505575111434802,0.01250516607123029
1752572463.918598,-1.651338526354862,-1.981100711148767,-2.557303162434513,-1.11460633409677,1.5637188027993996,-0.9870989870169904,-0.0067128788136741,0.0052967910863292,0.0190353151587337,0.001698697858847,0.0005821829048909,0.0190319287198431,-0.8173569898784212,-0.33075586617609204,0.3525026451093101,-0.00035734699912141145,0.9998435463910872,0.01250541410400598,0.01250478553607781
1752572463.9206038,-1.6513523039990394,-1.9810898397066463,-2.557264089788598,-1.1146028477811187,1.5637199977837963,-0.9870599213215164,-0.0070647288801997,0.005574627478528,0.0200373347698872,0.0017876053543362,0.0006128009114885,0.0200337707855581,-0.817338299548465,-0.3307841555935238,0.3525039032759357,-0.000357339096861696,0.9998435535329614,0.012505244393470463,0.012504384431454983
1752572463.9226084,-1.6513667851207074,-1.981078412735492,-2.557223013078972,-1.1145991837263782,1.5637212540006638,-0.9870188519173172,-0.0074163544341237,0.0058523189118407,0.0210393790728168,0.0018764363111726,0.000643415345661,0.0210356376490285,-0.8173186507400501,-0.33081389575031117,0.35250522596392664,-0.0003573307893577241,0.9998435610408809,0.012505065979827954,0.012503962757361682
1752572463.9264553,-1.6513819692596172,-1.9810664305324737,-2.5571799322550333,-1.114595342089447,1.5637225714426777,-0.9869757787535728,-0.0077677442502838,0.0061298581326848,0.0220414492858728,0.0019651869082469,0.0006740260279732,0.0220375305338764,-0.8172980434531756,-0.33084508664645396,0.3525066131732829,-0.0003573220766092889,0.999843568914815,0.01250487886307813,0.012503520513797687
1752572463.9268403,-1.6513819692596172,-1.9810664305324737,-2.5571799322550333,-1.114595342089447,1.5637225714426777,-0.9869757787535728,-0.0077677442502838,0.0061298581326848,0.0220414492858728,0.0019651869082469,0.0006740260279732,0.0220375305338764,-0.8172980434531756,-0.33084508664645396,0.3525066131732829,-0.0003573220766092889,0.999843568914815,0.01250487886307813,0.012503520513797687
1752572463.9289615,-1.6513978559330669,-1.981053893409273,-2.5571348472637445,-1.1145913230348654,1.5637239501021547,-0.9869307017770196,-0.0081188871036269,0.0064072378866474,0.0230435466250265,0.0020538533254578,0.0007046327788486,0.0230394506614264,-0.817276477687842,-0.33087772828195233,0.35250806490400366,-0.00035731295861678197,0.9998435771547316,0.012504683043220992,0.012503057700763157
1752572463.930691,-1.6514144446359067,-1.9810408016920755,-2.55708775804964,-1.1145871267348113,1.5637253899710524,-0.9868836209319528,-0.0084697717691436,0.0066844509184607,0.0240456723037611,0.0021424317434973,0.000735235418574,0.0240413992504832,-0.8172539534440488,-0.3309118206568059,0.3525095811560911,-0.0003573034353800828,0.9998435857605968,0.012504478520255142,0.012502574318256248
1752572463.9327111,-1.6514317348405347,-1.981027155721584,-2.5570386645548293,-1.1145827533691026,1.5637268910409683,-0.9868345361602326,-0.0088203870219135,0.0069614899719339,0.0250478275329553,0.0022309183440449,0.0007658337672937,0.0250433775172405,-0.8172304707217969,-0.33094736377101514,0.3525111619295439,-0.0003572935068991138,0.9998435947323757,0.012504265294180753,0.012502070366277214
1752572463.9347637,-1.651449725996902,-1.981012955853012,-2.5569875667190027,-1.1145782031251912,1.5637284533031408,-0.9867834474012892,-0.009170721637102,0.0072383477899613,0.0260500135207651,0.0023193093097407,0.0007964276450532,0.026045386675171,-0.8172060295210855,-0.3309843576245798,0.3525128072243609,-0.00035728317317353504,0.9998436040700316,0.01250404336499758,0.012501545844826182
1752572463.9371653,-1.6514684175325085,-1.980998202456087,-2.556934464479437,-1.1145734761981645,1.5637300767484477,-0.9867303545921304,-0.0095207643899462,0.0075150171144348,0.0270522314725155,0.0024076008242919,0.0008270168717023,0.0270474279349571,-0.8171806298419146,-0.33102280221749986,0.35251451704054404,-0.00035727243420425735,0.9998436137735262,0.01250381273270501,0.012501000753902262
1752572463.938575,-1.651487808852404,-1.980982895915056,-2.556879357771002,-1.1145685727907386,1.5637317613674069,-0.9866752576673434,-0.0098705040557732,0.0077914906862363,0.0280544825905822,0.0024957890724237,0.0008576012669848,0.0280495025043095,-0.8171542716842848,-0.3310626975497753,0.3525162913780927,-0.00035726128999052735,0.9998436238428198,0.012503573397301994,0.012500435093504585
1752572463.9407148,-1.6515078993391905,-1.980967036628684,-2.5568222465261647,-1.1145634931132615,1.5637335071501743,-0.9866181565591036,-0.0102199294100024,0.0080677612451823,0.0290567680742873,0.0025838702399705,0.0008881806504519,0.0290516115878837,-0.8171269550481954,-0.3311040436214062,0.3525181302370066,-0.00035724974053228704,0.9998436342778712,0.012503325358788725,0.012499848863632835
1752572463.942776,-1.6515286883530198,-1.9809506250102575,-2.556763130674997,-1.114558237383708,1.5637353140865466,-0.9865590511971812,-0.0105690292281639,0.0083438215299985,0.0300590891197737,0.0026718405140036,0.0009187548414983,0.030053756387155,-0.8170986799336468,-0.331146840432393,0.3525200336172865,-0.0003572377858300629,0.9998436450786379,0.01250306861716427,0.012499242064286594
1752572463.9447663,-1.6515501752315966,-1.9809336614875883,-2.5567020101451825,-1.1145528058276764,1.5637371821659585,-0.9864979415089454,-0.0109177922858381,0.0086196642782675,0.0310614469198919,0.0027596960826105,0.0009493236593902,0.0310559381003053,-0.8170694463406387,-0.33119108798273494,0.35252200151893043,-0.0003572254258833417,0.9998436562450757,0.012502803172428445,0.012498614695465994
1752572463.9466531,-1.6515723592901734,-1.9809161465030112,-2.5566388848620214,-1.1145471986783884,1.5637391113774817,-0.986434827419374,-0.0112662073587358,0.0088952822264,0.0320638426640957,0.0028474331352288,0.0009798869231694,0.0320581579221913,-0.8170392542691717,-0.33123678627243264,0.3525240339419415,-0.0003572126606925833,0.9998436677771387,0.012502529024579946,0.01249796675716868
1752572463.9487147,-1.6515952398215583,-1.980898080513392,-2.5565737547484395,-1.1145414161766851,1.5637411017098275,-0.9863697088510568,-0.0116142632226808,0.0091706681095817,0.0330662775383247,0.0029350478625551,0.0010104444516913,0.033060417044094,-0.8170081037192453,-0.33128393530148575,0.35252613088631735,-0.0003571994902571942,0.99984367967478,0.012502246173618677,0.01249729824939527
1752572463.9508147,-1.651618816096109,-1.980879463990127,-2.5565066197249933,-1.1145354585710263,1.5637431531513442,-0.9863025857242054,-0.0119619486535681,0.0094458146617625,0.0340687527248778,0.003022536456542,0.0010409960636899,0.034062716653627,-0.8169759946908597,-0.33133253506989424,0.35252829235205785,-0.00035718591457744247,0.9998436919379509,0.012501954619544384,0.012496609172145562
1752572463.952756,-1.6516430873617347,-1.9808602974191445,-2.5564374797098792,-1.114529326117486,1.563745265690017,-0.9862334579566604,-0.0123092524274225,0.0097207146155877,0.0350712694023169,0.0031098951105203,0.0010715415776408,0.0350650579347821,-0.8169429271840145,-0.3313825855776582,0.35253051833916405,-0.00035717193365332055,0.9998437045666011,0.012501654362356092,0.012495899525418498
1752572463.9546564,-1.651668052843898,-1.9808405813009091,-2.5563663346189403,-1.1145230190797475,1.5637474393134685,-0.9861623254638988,-0.0126561633203718,0.0099953607023687,0.0360738287453398,0.0031971200192032,0.0011020808118503,0.0360674420675873,-0.8169089011987102,-0.33143408682477765,0.35253280884763616,-0.0003571575474852664,0.999843717560679,0.012501345402052584,0.012495169309212576
1752572463.957613,-1.6516937117456134,-1.9808203161504263,-2.556293184365673,-1.1145165377291084,1.5637496740089567,-0.9860891881590385,-0.0130026701086613,0.0102697456520553,0.0370764319246736,0.003284207378729,0.0011326135844103,0.0370698702281535,-0.8168739167349465,-0.3314870388112532,0.35253516387747286,-0.00035714275607253896,0.9998437309201317,0.012501027738634544,0.012494418523528802
1752572463.963214,-1.6516937117456134,-1.9808203161504263,-2.556293184365673,-1.1145165377291084,1.5637496740089567,-0.9860891881590385,-0.0130026701086613,0.0102697456520553,0.0370764319246736,0.003284207378729,0.0011326135844103,0.0370698702281535,-0.8168739167349465,-0.3314870388112532,0.35253516387747286,-0.00035714275607253896,0.9998437309201317,0.012501027738634544,0.012494418523528802
1752572463.9637048,-1.6516937117456134,-1.9808203161504263,-2.556293184365673,-1.1145165377291084,1.5637496740089567,-0.9860891881590385,-0.0130026701086613,0.0102697456520553,0.0370764319246736,0.003284207378729,0.0011326135844103,0.0370698702281535,-0.8168739167349465,-0.3314870388112532,0.35253516387747286,-0.00035714275607253896,0.9998437309201317,0.012501027738634544,0.012494418523528802
1752572463.9661725,-1.6516937117456134,-1.9808203161504263,-2.556293184365673,-1.1145165377291084,1.5637496740089567,-0.9860891881590385,-0.0130026701086613,0.0102697456520553,0.0370764319246736,0.003284207378729,0.0011326135844103,0.0370698702281535,-0.8168739167349465,-0.3314870388112532,0.35253516387747286,-0.00035714275607253896,0.9998437309201317,0.012501027738634544,0.012494418523528802
1752572463.9673111,-1.6517748406615045,-1.9807562318736665,-2.556061701731872,-1.1144960506268005,1.5637567443947684,-0.9858577464679,-0.0140396536097325,0.0110912609566394,0.0400845161257386,0.0035446061458916,0.0012241713100955,0.0400774305754111,-0.8167632124729002,-0.3316545992068107,0.35254261609517645,-0.00035709595036766443,0.9998437731901829,0.012500022529680497,0.012492042749596895
1752572463.9689844,-1.6518032648226262,-1.9807337760351016,-2.5559805299176475,-1.1144888748895792,1.5637592232437052,-0.9857765889990108,-0.0143844317441505,0.0113645286286507,0.0410873062740453,0.0036311053000396,0.0012546764128113,0.0410800465246314,-0.8167243940952996,-0.33171335415070763,0.3525452292104768,-0.0003570795379766956,0.9998437880105724,0.012499670053793039,0.012491209685989565
1752572463.9709048,-1.6518323780816662,-1.9807107739574903,-2.5558973524736914,-1.114481526309964,1.5637617630955034,-0.985693426248571,-0.0147287496569213,0.0116374987913876,0.042090146048653,0.003717447908485,0.0012851741411323,0.0420827123184925,-0.8166846172392398,-0.33177355983395995,0.3525479068471407,-0.00035706272034150823,0.9998438031960483,0.012499308874787604,0.012490356052901185
1752572463.9727824,-1.6518621795069572,-1.9806872262431288,-2.555812169299606,-1.1144740052048387,1.5637643639352312,-0.9856082581157404,-0.0150725961250079,0.0119101641657747,0.0430930365940294,0.0038036301767365,0.001315664311806,0.0430854291069408,-0.8166438819047208,-0.3318352162565678,0.3525506490051704,-0.00035704549746180055,0.9998438187465485,0.012498938992662046,0.012489481850329108
1752572463.974862,-1.651892668144388,-1.980663133508873,-2.5557249802927084,-1.1144663118986795,1.56376702574759,-0.9855210844973836,-0.0154159599255232,0.0121825174710815,0.0440959790498613,0.0038896483120301,0.0013461467413534,0.0440881980350705,-0.816602188091742,-0.33189832341853076,0.35255345568456553,-0.00035702786933753604,0.9998438346620091,0.012498560407416336,0.012488587078273685
1752572463.9767666,-1.651923843017399,-1.9806384963861452,-2.5556357853480427,-1.1144584467235408,1.5637697485169135,-0.9854319052880802,-0.0157588298357082,0.0124545514248993,0.0450989745509459,0.0039754985233298,0.0013766212460162,0.0450910202430483,-0.8165595358003045,-0.33196288131984997,0.3525563268853259,-0.00035700983596879016,0.9998438509423654,0.012498173119049005,0.012487671736733017
1752572463.9787807,-1.6519557031269887,-1.9806133155209311,-2.555544584358388,-1.114450410019061,1.5637725322271685,-0.985340720380135,-0.0161011946329581,0.0127262587431191,0.0461020242270688,0.0040611770213818,0.0014070876418247,0.0460938968661421,-0.8165159250304076,-0.3320288899605238,0.3525592626074513,-0.00035699139735533497,0.9998438675875504,0.012497777127559555,0.012486735825707071
1752572463.9807458,-1.6519882474517074,-1.9805875915737872,-2.555451377214268,-1.1144422021324552,1.5637753768619522,-0.9852475296635852,-0.0164430430947753,0.0129976321398522,0.0471051292028917,0.0041466800187574,0.0014375457445145,0.047096829034408,-0.8164713557820512,-0.33209634934055393,0.3525622628509428,-0.0003569725534969991,0.9998438845974963,0.012497372432947107,0.012485779345194228
1752572463.9833777,-1.652021474947663,-1.9805613252198448,-2.5553561638039635,-1.1144338234185105,1.5637782824044946,-0.9851523330262166,-0.0167843639988251,0.0132686643274317,0.0481082905978355,0.0042320037298467,0.0014679953695743,0.0480998178727144,-0.8164258280552354,-0.332165259459939,0.3525653276157986,-0.000356953304394307,0.9998439019721331,0.012496959035211277,0.012484802295194901
1752572463.9848323,-1.6520553845485164,-1.9805345171488096,-2.555258944013521,-1.1144252742395828,1.5637812488376557,-0.985055130353568,-0.0171251461229166,0.0135393480163604,0.0491115095259687,0.0043171443710143,0.0014984363321757,0.0491028645005837,-0.8163793418499604,-0.33223562031867987,0.3525684569020213,-0.0003569336500469375,0.9998439197113901,0.012496536934349997,0.01248380467570659
1752572463.986838,-1.6520899751654865,-1.9805071680649728,-2.555159717726765,-1.1144165549655938,1.563784276143925,-0.984955921528945,-0.0174653782450168,0.0138096759152664,0.0501147870958797,0.0044020981605249,0.0015288684472899,0.0501059700320023,-0.8163318971662267,-0.33230743191677625,0.35257165070960794,-0.0003569135904546957,0.9998439378151944,0.012496106130363543,0.012482786486729552
1752572463.9888203,-1.6521252456873468,-1.9804792786872047,-2.5550584848253077,-1.114407665974028,1.5637873643054223,-0.984854706433432,-0.0178050491432003,0.0140796407308719,0.0511181244105789,0.004486861318551,0.001559291529515,0.0511091355754712,-0.8162834940040333,-0.33238069425422767,0.35257490903856126,-0.0003568931256178744,0.999843956283472,0.012495666623250292,0.012481747728262068
1752572463.9927542,-1.652161194980429,-1.9804508497489677,-2.5549552451885607,-1.1143986076499264,1.5637905133038972,-0.9847514849458996,-0.0181441475957293,0.0143492351679464,0.052121522567366,0.0045714300673612,0.0015897053932383,0.052112362233766,-0.8162341323633802,-0.3324554073310351,0.35257823188887966,-0.00035687225553623984,0.9998439751161472,0.012495218413009553,0.012480688400304168
1752572463.9950993,-1.6521978218886186,-1.9804218819983168,-2.5548499986937485,-1.114389380385882,1.5637937231207255,-0.984646256943022,-0.018482662381012,0.014618451929285,0.0531249826577255,0.0046558006312715,0.0016201098524868,0.0531156511038132,-0.8161838122442685,-0.33253157114719784,0.35258161926056286,-0.0003568509802099347,0.9998439943131431,0.01249476149964041,0.01247960850285408
1752572463.9969285,-1.6522351252333607,-1.9803923761979003,-2.554742745215917,-1.1143799845820404,1.5637969937369132,-0.9845390222992833,-0.0188205822775994,0.0148872837156627,0.0541285057672014,0.0047399692366368,0.0016505047210312,0.0541190032766185,-0.816132533646697,-0.33260918570271564,0.35258507115361226,-0.00035682929963897815,0.9998440138743808,0.012494295883141583,0.01247850803591118
1752572463.9987984,-1.6522731038136556,-1.980362333124972,-2.5546334846279475,-1.1143704206460887,1.5638003251330916,-0.9844297808869902,-0.0191578960642122,0.0151557232257792,0.0551320929752925,0.0048239321119737,0.0016808898123091,0.0551224198372178,-0.8160802965706669,-0.3326882509975895,0.35258858756802613,-0.0003568072138225024,0.9998440337997805,0.012493821563512328,0.012477386999474356
1752572464.0008392,-1.6523117564060632,-1.9803317535713845,-2.554522216800568,-1.1143606889932585,1.5638037172895196,-0.9843185325762898,-0.0194945925197216,0.0154237631562548,0.0561357453553155,0.0049076854879308,0.0017112649394701,0.0561259018643853,-0.8160271010161771,-0.3327687670318182,0.35259216850380587,-0.00035678472276165366,0.9998440540892604,0.012493338540751684,0.012476245393542668
1752572464.0031035,-1.6523510817646994,-1.9803006383436037,-2.5544089416023668,-1.1143507900463143,1.5638071701860818,-0.9842052772351736,-0.0198306604231664,0.0156913962015658,0.0571394639743146,0.0049912255974117,0.0017416299153063,0.0571294504306209,-0.8159729469832282,-0.33285073380540314,0.3525958139609515,-0.00035676182645587247,0.9998440747427375,0.012492846814858162,0.012475083218114557
1752572464.004747,-1.6523910786212408,-1.980268988262706,-2.554293658899804,-1.1143407242355563,1.5638106838022885,-0.9840900147294968,-0.020166088553755,0.0159586150540138,0.0581432498929251,0.0050745486755455,0.0017719845523118,0.0581330666021142,-0.8159178344718193,-0.33293415131834325,0.35259952393946237,-0.000356738524905114,0.9998440957601271,0.01249234638583121,0.012473900473189956
1752572464.0069497,-1.6524317456849191,-1.980236804164389,-2.5541763685572256,-1.1143304919988086,1.5638142581172734,-0.9839727449229878,-0.0205008656908172,0.0162254124036868,0.0591471041652618,0.0051576509596497,0.0018023286626605,0.059136751438467,-0.8158617634819519,-0.33301901957063873,0.35260329843933824,-0.0003567148181091269,0.9998441171413432,0.012491837253669778,0.012472697158767112
1752572464.0088935,-1.652473081642528,-1.9802040868989683,-2.5540570704368752,-1.114320093781421,1.5638178931097957,-0.983853467677264,-0.0208349806139234,0.0164917809384461,0.0601510278388073,0.0052405286895196,0.0018326620581592,0.0601405059927363,-0.815804734013625,-0.33310533856228963,0.3526071374605795,-0.0003566907060685358,0.9998441388862982,0.012491319418372686,0.01247147327484548
1752572464.0107658,-1.6525150851584185,-1.9801708373313875,-2.5539357643989087,-1.1143095300362589,1.5638215887582372,-0.983732182851841,-0.0211684221027422,0.0167577133438409,0.0611550219542904,0.0053231781071411,0.0018629845502787,0.0611443313110875,-0.8157467460668386,-0.33319310829329646,0.3526110410031872,-0.00035666618878286977,0.999844160994903,0.012490792879938093,0.012470228821422714
1752572464.0128975,-1.6525577548745023,-1.9801370563412235,-2.5538124503014075,-1.114298801223704,1.563825345040602,-0.9836088903041508,-0.0215011789371674,0.0170232023031093,0.062159087545564,0.0054055954570347,0.0018932959501669,0.0621482284329709,-0.8156877996415934,-0.3332823287636583,0.35261500906715915,-0.0003566412662520345,0.9998441834670672,0.012490257638366007,0.01246896379849926
1752572464.0148606,-1.6526010894102503,-1.9801027448226856,-2.553687128000391,-1.1142879078116454,1.5638291619345168,-0.983483589889552,-0.0218332398972166,0.0172882404971344,0.0631632256395,0.0054877769860081,0.0019235960686019,0.0631521983907542,-0.8156278947378888,-0.33337299997337594,0.3526190416524971,-0.00035661593847617276,0.9998442063026983,0.01248971369365469,0.01246767820607301
1752572464.0168302,-1.6526450873626954,-1.9800679036846256,-2.553559797349834,-1.1142768502754743,1.563833039417229,-0.9833562814613463,-0.0221645937631047,0.0175528206043912,0.0641674372558544,0.0055697189434096,0.0019538847160058,0.0641562422098131,-0.8155670313557245,-0.33346512192244876,0.35262313875920004,-0.0003565902054549848,0.9998442295017032,0.012489161045802968,0.012466372044142963
1752572464.0188856,-1.652689747306427,-1.980032533850542,-2.5534304582016776,-1.1142656290980844,1.563836977465607,-0.9832269648707932,-0.0224952293152243,0.0178169353009235,0.0651717234071676,0.005651417581089,0.0019841617024249,0.0651603609081904,-0.8155052094951014,-0.3335586946108774,0.3526273003872682,-0.00035656406718904645,0.9998442530639864,0.012488599694809803,0.012465045312708223
1752572464.0207896,-1.6527350677936008,-1.97999663625858,-2.5532991104058453,-1.1142542447698602,1.563840976056138,-0.9830956399671198,-0.0228251353341466,0.0180805772603089,0.0661760850986367,0.0057328691534417,0.0020144268375447,0.0661645554966934,-0.8154424291560187,-0.33365371803866084,0.3526315265367025,-0.0003565375236770892,0.9998442769894517,0.012488029640673845,0.012463698011767254
1752572464.022861,-1.6527810473539288,-1.9799602118615445,-2.5531657538102577,-1.1142426977886766,1.5638450351649291,-0.9829623065975436,-0.0231543006005962,0.0183437391536051,0.0671805233279986,0.0058140699173719,0.0020446799306805,0.0671688269785747,-0.815378690338477,-0.3337501922058003,0.3526358172075017,-0.000356510574920677,0.9998443012780007,0.012487450883394145,0.012462330141319134
1752572464.030956,-1.6528749777007177,-1.9798857865367685,-2.5528930136015755,-1.1142191178963383,1.5638533348398092,-0.9826896138395602,-0.0238103639999622,0.0188685934134409,0.0691896333533347,0.0059757040608546,0.0021051492262992,0.0691776045979122,-0.8152483372680154,-0.3339474927581455,0.35264459211319577,-0.0003564554616715503,0.9998443509439509,0.012486267259397983,0.012459532691896156
1752572464.0313892,-1.6529715261357465,-1.9798092657919364,-2.5526122363195154,-1.1141948935536377,1.563861876291452,-0.9824088853348591,-0.024463329762851,0.019391439397365,0.0711990613113823,0.0061362901199298,0.0021655680560097,0.0711867016391528,-0.815114150283717,-0.33415059626791227,0.35265362510435266,-0.00035639872744098095,0.9998444020610222,0.012485048822810398,0.012456652964428046
1752572464.032967,-1.6530207782222366,-1.9797702221748663,-2.552468833374925,-1.114182541037504,1.5638662376197563,-0.9822655072745636,-0.0247886229843873,0.0196520909358121,0.0722038969268835,0.0062161807885327,0.0021957580652489,0.0721913723687625,-0.8150456190738788,-0.33425432413182915,0.35265823838197874,-0.00035636975245777083,0.9998444281634672,0.012484426549791797,0.012455182246424204
1752572464.0350296,-1.653070680088975,-1.9797306577775895,-2.5523234206769003,-1.114170029012624,1.5638706593149168,-0.982120119790217,-0.0251131081417048,0.0199122183798146,0.0732088149034139,0.0062957982464321,0.0022259348801255,0.0731961258485635,-0.8149761293855814,-0.3343595027351013,0.3526629161809703,-0.000356340372228764,0.9998444546283762,0.01248379557362185,0.012453690958905654
1752572464.0369377,-1.6531212301086151,-1.9796905736556416,-2.552175998059776,-1.114157358029142,1.5638751413503515,-0.98197272271537,-0.0254367740168095,0.0201718143818398,0.0742138161831771,0.0063751387695667,0.0022560983071566,0.0742009630264038,-0.8149056812188246,-0.3344661320777288,0.35266765850132753,-0.0003563105867542854,0.9998444814556409,0.012483155894298527,0.01245217910187038
1752572464.0387497,-1.6531724266313752,-1.9796499708792568,-2.5520265653560097,-1.1141445286446494,1.563879683699091,-0.9818233158816864,-0.0257596093919244,0.0204308715915617,0.0752189016999628,0.0064541986368012,0.0022862481524321,0.0752058848417492,-0.8148342745736087,-0.33457421215971195,0.3526724653430502,-0.0003562803960346753,0.9998445086451508,0.012482507511820807,0.012450646675317287
1752572464.0408204,-1.6532242679850384,-1.9796088505333724,-2.551875122396201,-1.114131541424177,1.5638842863337772,-0.9816718991189576,-0.0260816030494296,0.0206893826558129,0.0762240723790349,0.0065329741297983,0.0023163842216201,0.0762108922254696,-0.8147619094499332,-0.33468374298105047,0.35267733670613755,-0.00035624980006920647,0.9998445361967947,0.012481850426187612,0.012449093679245538
1752572464.042858,-1.65327675247495,-1.979567213717635,-2.551721669009108,-1.1141183969401904,1.5638889492266634,-0.9815184722551232,-0.0264027437718933,0.0209473402185457,0.0772293291370086,0.0066114615331903,0.0023465063199359,0.0772159860998935,-0.8146885858477989,-0.33479472454174447,0.3526822725905906,-0.0003562187988577499,0.9998445641104595,0.012481184637397284,0.01244752011365328
1752572464.0447152,-1.65327675247495,-1.979567213717635,-2.551721669009108,-1.1141183969401904,1.5638889492266634,-0.9815184722551232,-0.0264027437718933,0.0209473402185457,0.0772293291370086,0.0066114615331903,0.0023465063199359,0.0772159860998935,-0.8146885858477989,-0.33479472454174447,0.3526822725905906,-0.0003562187988577499,0.9998445641104595,0.012481184637397284,0.01244752011365328
1752572464.0472698,-1.6533298783840245,-1.979525061546405,-2.5515662050216616,-1.1141050957725795,1.5638936723496129,-0.9813630351162884,-0.0267230203420965,0.0212047369208154,0.0782346728817299,0.0066896571345569,0.0023766142522017,0.0782211673785403,-0.8146143037672049,-0.33490715684179423,0.35268727299640956,-0.000356187392401469,0.9998445923860305,0.012480510145447989,0.012445925978538585
1752572464.0488305,-1.653383643972739,-1.979482395148766,-2.5514087302589896,-1.1140916385086594,1.5638984556740978,-0.9812055875267368,-0.0270424215429955,0.0214615654007178,0.0792401045121557,0.0067675572245226,0.0024067078227476,0.0792264369659958,-0.8145390632081516,-0.3350210398811996,0.3526923379235941,-0.0003561555806991965,0.9998446210233919,0.012479826950338507,0.012444311273900433
1752572464.0507958,-1.6534380474791384,-1.979439215668528,-2.551249244544429,-1.1140780257431595,1.5639032991711987,-0.9810461293089549,-0.0273609361577404,0.0217178182933736,0.0802456249182378,0.0068451580967052,0.0024367868354705,0.080231795758003,-0.8144628641706398,-0.3351363736599602,0.3526974673721427,-0.00035612336375130747,0.9998446500224261,0.012479135052067864,0.012442675999737984
1752572464.052576,-1.653493087118834,-1.9793955242642296,-2.5510877476995457,-1.11406425807822,1.5639082028116036,-0.9808846602836444,-0.0276785529696703,0.0219734882308874,0.0812512349807987,0.0069224560477899,0.0024668510938073,0.0812372446410644,-0.8143857066546679,-0.3352531581780762,0.35270266134205847,-0.00035609074155737317,0.9998446793830139,0.012478434450633768,0.012441020156048612
1752572464.056174,-1.6535487610850046,-1.9793513221091548,-2.5509242395441536,-1.1140503361233831,1.5639131665656063,-0.9807211802697448,-0.0279952607623085,0.0222285678422975,0.0822569355714069,0.0069994473775379,0.0024969004007735,0.0822427844923989,-0.8143075906602368,-0.33537139343554767,0.352707919833338,-0.0003560577141176047,0.9998447091050349,0.012477725146035887,0.01243934374283222
1752572464.056813,-1.653605067548393,-1.979306610391327,-2.550758719896333,-1.1140362604955891,1.5639181904031074,-0.9805556890844498,-0.0283110483193788,0.0224830497535714,0.0832627275522666,0.0070761283888954,0.0025269345588483,0.0832484161800227,-0.8142285161873467,-0.3354910794323749,0.35271324284598443,-0.000356024281432048,0.9998447391883671,0.012477007138271162,0.012437646760085694
1752572464.0589745,-1.6536620046573145,-1.9792613903135248,-2.550591188572449,-1.114022031819169,1.5639232742936109,-0.9803881865432276,-0.0286259044247968,0.0227369265875314,0.0842686117760914,0.0071524953879196,0.0025569533700814,0.0842541405623763,-0.8141484832359971,-0.3356122161685572,0.3527186303799952,-0.0003559904435005147,0.9998447696328869,0.012476280427339215,0.012435929207808831
1752572464.0608745,-1.653719570537648,-1.9792156630932816,-2.550421645387171,-1.1140076507258394,1.5639284182062243,-0.9802186724598378,-0.0289398178626756,0.022990190963864,0.0852745890859825,0.0072285446839199,0.002586956636043,0.0852599584883084,-0.8140674918061881,-0.3357348036440952,0.352724082435372,-0.00035595620032330346,0.9998448004384696,0.01247554501323815,0.012434191085999299
1752572464.0627117,-1.653777763292842,-1.979169429962897,-2.550250090153492,-1.1139931178546938,1.5639336221096587,-0.9800471466463528,-0.0292527774172903,0.0232428354990343,0.0862806603153058,0.0073042725893425,0.0026169441578065,0.0862658707969379,-0.8139855418979206,-0.3358588418589887,0.352729599012114,-0.00035592155189997855,0.9998448316049882,0.012474800895966268,0.012432432394655663
1752572464.064794,-1.653836581003917,-1.9791226921694376,-2.5500765226827475,-1.113978433852198,1.5639388859722263,-0.9798736089131754,-0.0295647718731769,0.0234948528063094,0.0872868262875807,0.0073796754200717,0.0026469157359503,0.0872718783175636,-0.8139026335111933,-0.3359843308132378,0.35273518011022165,-0.0003558864982305497,0.9998448631323149,0.012474048075522035,0.01243065313377644
1752572464.0667684,-1.6538960217294596,-1.97907545097475,-2.549900942784637,-1.113963599372184,1.56394420976184,-0.9796980590690616,-0.0298757900149699,0.023746235495651,0.0882930878163376,0.0074547494950747,0.0026768711706006,0.0882779818694582,-0.8138187666460063,-0.3361112705068418,0.35274082572969384,-0.00035585103931511195,0.9998448950203204,0.012473286551904347,0.012428853303360564
1752572464.068794,-1.6539560835056246,-1.9790277076554623,-2.549723350267242,-1.1139486150758406,1.5639495934460128,-0.9795204969211372,-0.0301858206275595,0.0239969761737532,0.0892994457050253,0.0075294911367792,0.0027068102613283,0.0892841822619703,-0.8137339413023603,-0.3362396609398019,0.3527465358705322,-0.00035581517515349744,0.9998449272688734,0.012472516325110667,0.012427032903405726
1752572464.070796,-1.6540167643461403,-1.9789794635029927,-2.549543744937048,-1.113933481631709,1.5639550369918556,-0.97934092227492,-0.0304948524960325,0.0242470674439661,0.0903059007468633,0.0076038966709829,0.0027367328072239,0.0902904802940111,-0.8136481574802552,-0.3363695021121172,0.3527523105327362,-0.00035577890574545635,0.9998449598778415,0.012471737395139765,0.012425191933910128
1752572464.0729363,-1.654078062242303,-1.978930719823559,-2.549362126598964,-1.113918199715675,1.5639605403660777,-0.9791593349343416,-0.0308028744056312,0.02449650190626,0.0913124537247341,0.0076779624268174,0.0027666386068676,0.0912968767543733,-0.8135614151796912,-0.3365007940237879,0.352758149716304,-0.000355742231091199,0.9998449928470906,0.012470949761990282,0.012423330394873061
1752572464.0747192,-1.6541399751629804,-1.978881477938176,-2.549178495056343,-1.1139027700109656,1.563966103534984,-0.9789757347017644,-0.0311098751418226,0.0247452721572272,0.0923191054110551,0.0077516847368516,0.0027965274583196,0.0923033724212237,-0.8134737144006672,-0.33663353667481455,0.35276405342123884,-0.0003557051511910193,0.9998450261764855,0.01247015342566018,0.012421448286291707
1752572464.0767796,-1.6542025010546118,-1.9788317391826755,-2.5489928501110057,-1.113887193208135,1.5639717264644768,-0.9787901213780072,-0.0314158434902355,0.0249933707899796,0.0933258565676576,0.0078250599371254,0.0028263991591165,0.0933099680622989,-0.8133850551431843,-0.3367677300651962,0.35277002164753807,-0.0003556676660446582,0.9998450598658889,0.012469348386147907,0.01241954560816527
1752572464.0787692,-1.6542656378412062,-1.978781504907702,-2.548805191563258,-1.1138714700050638,1.5639774091200511,-0.9786024947623612,-0.0317207682367272,0.0252407903942109,0.0943327079456702,0.007898084367194,0.0028562535062529,0.094316664434549,-0.8132954374072421,-0.3369033741949337,0.352776054395204,-0.00035562977565149707,0.9998450939151624,0.012468534643451254,0.012417622360490922
1752572464.0807605,-1.654329383424348,-1.9787307764787263,-2.548615519211915,-1.113855601106951,1.563983151466797,-0.9784128546526168,-0.0320246381673125,0.0254875235560557,0.0953396602853783,0.0079707543700784,0.0028860902962165,0.0953234622841372,-0.8132048611928404,-0.33704046906402624,0.35278215166423427,-0.0003555914800119593,0.999845128324166,0.012467712197569127,0.012415678543268418
1752572464.0827944,-1.654329383424348,-1.9787307764787263,-2.548615519211915,-1.113855601106951,1.563983151466797,-0.9784128546526168,-0.0320246381673125,0.0254875235560557,0.0953396602853783,0.0079707543700784,0.0028860902962165,0.0953234622841372,-0.8132048611928404,-0.33704046906402624,0.35278215166423427,-0.0003555914800119593,0.999845128324166,0.012467712197569127,0.012415678543268418
1752572464.0848083,-1.6543937356831897,-1.9786795552760503,-2.5484238328543225,-1.1138395872263036,1.5639889534693954,-0.9782212008450824,-0.0323274420682028,0.0257335628581407,0.0963467143161261,0.0080430662923474,0.0029159093249367,0.0963303623462822,-0.8131133264999799,-0.3371790146724743,0.3527883134546306,-0.0003555527791258175,0.9998451630927585,0.012466881048499237,0.012413714156494756
1752572464.0899303,-1.6545242516324548,-1.978575640145003,-2.5480344173025533,-1.1138071274039518,1.5640007362988324,-0.977831851314602,-0.0329298069267847,0.0262235301956168,0.0983611303125742,0.0081866012994943,0.002975493279629,0.0983444719936653,-0.8129273816788806,-0.33746045810743736,0.35280083059951833,-0.0003554741616145543,0.9998452337081356,0.012465192640790598,0.012409723674289299
1752572464.0912514,-1.6545904109690523,-1.9785229490514544,-2.547836687695919,-1.1137906829237494,1.5640067170529868,-0.9776341551770652,-0.033229345457843,0.0264674433782271,0.0993684936810667,0.008257817095547,0.0030052577947383,0.0993516829934907,-0.8128329715506417,-0.3376033559339521,0.3528071859540104,-0.00035543424498917924,0.9998452695546299,0.01246433538214754,0.012407697578853114
1752572464.0938432,-1.6546571682736977,-1.9784697708538663,-2.5476369432581647,-1.1137740963840077,1.5640127573176228,-0.9774344445126006,-0.033527773105994,0.0267106329954799,0.1003759615459384,0.0083286602334982,0.0030350037268234,0.1003589990348254,-0.8127376029439439,-0.33774770449982217,0.3528136058298685,-0.0003553939231167627,0.999845305760132,0.012463469420309726,0.012405650913859097
1752572464.0948963,-1.654724521313412,-1.9784161070068065,-2.5474351837796223,-1.113757368533678,1.5640188570553677,-0.9772327191104448,-0.033825078658405,0.0269530916117819,0.1013835345799035,0.0083991270781789,0.0030647308690311,0.1013664207963495,-0.8126412758587869,-0.3378935038050481,0.35282009022709104,-0.0003553531959975142,0.9998453423244928,0.01246259475527566,0.012403583679305897
1752572464.096866,-1.6547924678327923,-1.978361958979713,-2.547231409049292,-1.1137405001289782,1.564025016228434,-0.97702897875849,-0.0341212509024139,0.0271948117878101,0.1023912134439774,0.0084692139980601,0.003094439013968,0.1023739489449762,-0.8125439902951704,-0.3380407538496287,0.35282663914567947,-0.00035531206363165874,0.999845379247562,0.01246171138704312,0.012401495875190759
1752572464.0987704,-1.6548610055540085,-1.9783073282569104,-2.54702561885486,-1.1137234919333876,1.5640312347986198,-0.9768232232433034,-0.0344162786255574,0.0274357860804557,0.1033989987873594,0.0085389173654716,0.0031241279536124,0.1033815841359994,-0.8124457462530943,-0.3381894546335655,0.35283325258563314,-0.0003552705260192288,0.9998454165291875,0.012460819315610352,0.012399387501512735
1752572464.1007175,-1.6549301321768055,-1.9782522163376115,-2.5468178129827304,-1.1137063447176343,1.5640375127273058,-0.9766154523501552,-0.0347101506155698,0.0276760070428156,0.1044068912472975,0.0086082335565065,0.0031537974793841,0.1043893270125017,-0.8123465437325598,-0.3383396061568579,0.35283993054695256,-0.0003552285831595774,0.9998454541692158,0.012459918540975083,0.012397258558268861
1752572464.1026692,-1.6549998453785069,-1.9781966247359264,-2.5466079912180426,-1.113689059259693,1.5640438499754554,-0.9764056658630418,-0.0350028556603444,0.0279154672241386,0.105414891448972,0.0086771589510151,0.0031834473821278,0.1053971782057217,-0.8122463827335652,-0.33849120841950536,0.352846673029637,-0.0003551862350531699,0.999845492167492,0.012459009063135842,0.012395109045458328
1752572464.1048312,-1.6550701428140089,-1.978140554980872,-2.546396153344698,-1.1136716363447725,1.5640502465036126,-0.976193863564708,-0.0352943825479707,0.0281541591698098,0.1064230000053707,0.008745689932775,0.0032130774520601,0.1064051383346412,-0.8121452632561119,-0.3386442614215082,0.3528534800336871,-0.0003551434816994596,0.9998455305238597,0.012458090882090357,0.012392938963078285
1752572464.1070597,-1.655141022115786,-1.978084008616377,-2.546182299145384,-1.1136540767653118,1.5640567022719016,-0.9759800452366748,-0.0355847200667207,0.0283920754213021,0.1074312175171583,0.0088138228894027,0.0032426874788139,0.107413208005925,-0.812043185300199,-0.33879876516286683,0.3528603515591023,-0.000355100323099067,0.9998455692381608,0.012457163997836841,0.012390748311127348
1752572464.1087153,-1.6552124808938888,-1.9780269872012912,-2.5459664284016,-1.1136363813209709,1.5640632172400253,-0.9757642106592596,-0.0358738570050328,0.028629208516159,0.1084395445725457,0.0088815542123956,0.0032722772514386,0.1084213878138266,-0.811940148865827,-0.3389547196435808,0.352867287605883,-0.00035505675925112895,0.9998456083102361,0.012456228410373296,0.01238853708960345
1752572464.1107116,-1.655284516735945,-1.977969492309394,-2.5457485408936806,-1.1136185508186216,1.5640697913672637,-0.9755463596116069,-0.0361617821515406,0.0288655509879525,0.1094479817471877,0.0089488802972107,0.0033018465583307,0.1094296783400588,-0.8118361539529955,-0.33911212486365033,0.35287428817402944,-0.00035501279015656044,0.9998456477399242,0.012455284119697685,0.012386305298504374
1752572464.1127732,-1.65535712720716,-1.977911525529402,-2.5455286364008227,-1.1136005860723408,1.5640764246124732,-0.9753264918717076,-0.0364484842950522,0.0291010953662546,0.1104565296040288,0.0090157975432872,0.0033313951872916,0.1104380801535891,-0.8117312005617048,-0.33927098082307533,0.35288135326354025,-0.00035496841581437576,0.9998456875270632,0.012454331125808134,0.01238405293782845
1752572464.1166644,-1.655430309850316,-1.9778530884649743,-2.545306714701109,-1.1135824879034055,1.5640831169340856,-0.97510460721643,-0.0367339522245305,0.0293358341766101,0.1114651886931927,0.009082302353967,0.0033609229255314,0.1114465938106075,-0.8116252886919546,-0.33943128752185603,0.3528884828744177,-0.0003549236362252983,0.9998457276714887,0.012453369428702349,0.012381780007573416
1752572464.1175842,-1.6555040621857753,-1.9777941827347263,-2.5450827755715366,-1.1135642571402773,1.564089868290106,-0.9748807054215404,-0.0370181747291421,0.0295697599404949,0.1124739595518635,0.0091483911366746,0.0033904295595366,0.1124552198544401,-0.8115184183437454,-0.3395930449599915,0.3528956770066595,-0.00035487845138829007,0.9998457681730356,0.012452399028378415,0.012379486507737491
1752572464.119397,-1.655578381711476,-1.9777348099722316,-2.54485681878804,-1.1135458946186034,1.5640966786381116,-0.974654786261734,-0.037301140598204,0.0298028651752979,0.113482842704128,0.0092140603028348,0.0034199148753061,0.1134639588151948,-0.8114105895170772,-0.33975625313748237,0.35290293566026765,-0.000354832861303952,0.9998458090315366,0.012451419924834334,0.012377172438318226
1752572464.121005,-1.655653265902937,-1.9776749718260351,-2.544628844125517,-1.1135274011811995,1.564103547935252,-0.9744268495106568,-0.0375828386212223,0.0300351423942744,0.1144918386608934,0.009279306267982,0.0034493786580587,0.1144728112099489,-0.8113018022119494,-0.3399209120543298,0.35291025883524124,-0.00035478686597267844,0.9998458502468237,0.012450432118067314,0.01237483779931332
1752572464.1229322,-1.6557287122132562,-1.9776146699596595,-2.544398851357861,-1.113508777678052,1.5641104761382452,-0.9741968949409356,-0.037863257587854,0.0302665841065343,0.1155009479197169,0.0093441254516786,0.003478820692478,0.1154817775423222,-0.8111920564283625,-0.3400870217105322,0.3529176465315793,-0.0003547404653936156,0.9998458918187266,0.012449435608076723,0.012372482590722005
1752572464.124949,-1.655804718073111,-1.977553906051611,-2.54416684025798,-1.113490024966299,1.564117463203379,-0.9739649223242016,-0.0381423862879396,0.0304971828170002,0.1165101709647196,0.0094085142776712,0.0035082407624928,0.116490858302666,-0.8110813521663157,-0.3402545821060903,0.35292509874928296,-0.00035469365956695243,0.9998459337470741,0.012448430394859452,0.012370106812541309
1752572464.126876,-1.6558812808907568,-1.9774926817953915,-2.5439328105978305,-1.1134711439102285,1.564124509086508,-0.9737309314311212,-0.0384202135114598,0.0307269310263622,0.1175195082664136,0.0094724691737614,0.0035376386515232,0.1175000539675633,-0.8109696894258104,-0.3404235932410032,0.3529326154883533,-0.0003546464484923654,0.9998459760316932,0.012447416478412862,0.012367710464768202
1752572464.1288989,-1.6559583980520325,-1.977430998899508,-2.5436967621484388,-1.1134521353812694,1.5641316137430528,-0.9734949220314196,-0.0386967280485927,0.0309558212310738,0.1185289602816228,0.0095359865720091,0.0035670141421769,0.118509365000015,-0.8108570682068453,-0.3405940551152719,0.3529401967487877,-0.0003545988321703516,0.9998460186724093,0.012446393858735987,0.012365293547402305
1752572464.1311312,-1.6559583980520325,-1.977430998899508,-2.5436967621484388,-1.1134521353812694,1.5641316137430528,-0.9734949220314196,-0.0386967280485927,0.0309558212310738,0.1185289602816228,0.0095359865720091,0.0035670141421769,0.118509365000015,-0.8108570682068453,-0.3405940551152719,0.3529401967487877,-0.0003545988321703516,0.9998460186724093,0.012446393858735987,0.012365293547402305
1752572464.132882,-1.656036066920354,-1.9773688590874752,-2.543458694679933,-1.1134330002579809,1.564138777127999,-0.97325689389391,-0.0389719186896521,0.0311838459233234,0.1195385274533167,0.0095990629086264,0.0035963670164882,0.119518791849197,-0.8107434885094215,-0.3407659677288961,0.35294784253058853,-0.0003545508106005622,0.9998460616690469,0.012445362535825361,0.01236285606043966
1752572464.1348453,-1.65611428483672,-1.9773062640978312,-2.543218607961568,-1.1134137394260488,1.5641459991958957,-0.9730168467865212,-0.0392457742251299,0.0314109975909731,0.120548210210507,0.0096616946240392,0.0036256970557879,0.1205283349503039,-0.8106289503335381,-0.34093933108187613,0.35295555283375385,-0.00035450238378288636,0.9998461050214281,0.012444322509680066,0.012360398003879973
1752572464.137007,-1.656193049119711,-1.9772432156841384,-2.542976501761757,-1.1133943537782691,1.5641532799008528,-0.9727747804763264,-0.0395182834456482,0.0316372687175592,0.1215580089680977,0.0097238781628855,0.0036550040407754,0.121537994724435,-0.8105134536791955,-0.3411141451742112,0.35296332765828553,-0.000354453551717353,0.9998461487293742,0.012443273780296867,0.012357919377719255
1752572464.13899,-1.656272357065487,-1.9771797156150013,-2.542732375848095,-1.1133748442145492,1.5641606191965425,-0.9725306947295698,-0.0397894351420064,0.0318626517822377,0.1225679241267842,0.0097856099741314,0.0036842877513965,0.12254777157858,-0.810396998546393,-0.3412904100059018,0.3529711670041818,-0.00035440431440379825,0.9998461927927049,0.012442216347674468,0.012355420181957052
1752572464.14097,-1.6563522059477904,-1.977115765674068,-2.542486229987391,-1.1133552116418892,1.5641680170361951,-0.9722845893116964,-0.0400592181051521,0.0320871392597896,0.123577956072898,0.0098468865109999,0.0037135479669707,0.1235576659052199,-0.8102795849351321,-0.34146812557694806,0.35297907087144303,-0.00035435467184214277,0.9998462372112382,0.01244115021180995,0.01235290041658995
1752572464.1428576,-1.6564325930179464,-1.9770513676600403,-2.542238063945697,-1.113335456974383,1.5641754733725994,-0.972036463987382,-0.0403276211261756,0.032310723620554,0.1245881051782953,0.0099077042309994,0.0037427844660982,0.1245676780824966,-0.8101612128454119,-0.3416472918873495,0.35298703926007036,-0.00035430462403280834,0.9998462819847906,0.012440075372701153,0.01235036008161596
1752572464.1449387,-1.6565135155048614,-1.976986523386686,-2.5419878774883333,-1.113315581133202,1.5641829881581006,-0.9717863185205572,-0.0405946329963251,0.0325333973304303,0.12559837180022,0.0099680595960258,0.0037719970267006,0.1255778084739569,-0.8100418822772318,-0.34182790893710674,0.3529950721700632,-0.0003542541709750243,0.9998463271131772,0.01243899183034564,0.01234779917703262
1752572464.147062,-1.656594970615025,-1.9769212346828449,-2.5417356703799228,-1.1132955850465915,1.5641905613445988,-0.971534152674444,-0.0408602425069938,0.0327551528508213,0.1266087562811761,0.0100279490723092,0.0038011854259824,0.1265880574283346,-0.8099215932305928,-0.34200997672621963,0.35300316960142125,-0.00035420331266927094,0.9998463725962118,0.012437899584741442,0.012345217702838038
1752572464.1489456,-1.656676955532511,-1.976855503392437,-2.541481442384417,-1.1132754696498584,1.564198192883548,-0.9712799662115792,-0.0411244384497085,0.0329759826386291,0.1276192589488016,0.0100873691304504,0.0038303494404442,0.1275984252795959,-0.8098003457054942,-0.3421934952546874,0.3530113315541449,-0.00035415204911498817,0.9998464184337063,0.012436798635885935,0.012342615659029605
1752572464.1508222,-1.656759467418973,-1.976789331374477,-2.541225193265128,-1.1132552358853651,1.5642058827259546,-0.971023758893848,-0.041387209616132,0.0331958791462143,0.1286298801157364,0.0101463162454507,0.003859488845878,0.1286089123466945,-0.8096781397019371,-0.34237846452251086,0.3530195580282335,-0.000354100380312076,0.9998464646254713,0.012435688983777045,0.012339993045605391
1752572464.1542258,-1.6568425034136522,-1.9767227205030744,-2.540966922784756,-1.1132348847025195,1.5642136308223755,-0.9707655304825122,-0.0416485447980889,0.0334148348213756,0.1296406200794875,0.010204786896766,0.0038886034173619,0.1296195189334545,-0.80955497521992,-0.34256488452968986,0.3530278490236876,-0.0003540483062611433,0.9998465111713161,0.012434570628412432,0.012337349862562859
1752572464.1575909,-1.656926060633371,-1.976655672667452,-2.540706630705423,-1.1132144170577645,1.5642214371229175,-0.9705052807382416,-0.0419084327875101,0.0336328421073039,0.130651479122309,0.010262777568266,0.0039176929292396,0.1306302453284975,-0.8094308522594438,-0.3427527552762249,0.3530362045405062,-0.00035399582696194,0.9998465580710479,0.012433443569789588,0.012334686109899767
1752572464.162061,-1.6570947271031375,-1.9765202737360248,-2.540179980795647,-1.1131731362434376,1.5642372241345297,-0.9699787162907948,-0.0424238223572044,0.0340659812611385,0.1326735554970966,0.0103773049297656,0.0039757958679587,0.1326520586207139,-0.8091797309031136,-0.3431328489873604,0.35305310913824295,-0.00035388965261703265,0.9998466529313969,0.01243116334275849,0.01232929689570089
1752572464.163268,-1.6571798304747531,-1.9764519264942928,-2.539913622486825,-1.113152325021856,1.5642452047435464,-0.969712401106273,-0.042679301522003,0.0342810979922278,0.1336847733161009,0.0104338346099147,0.0040048088398554,0.1336631460177233,-0.8090527325072596,-0.3433250719519612,0.3530616582191586,-0.0003538359575716956,0.9998467008916213,0.012430010174346215,0.01232657143416103
1752572464.165275,-1.657265443314543,-1.976383149996498,-2.539645241622347,-1.1131314012343303,1.5642532433525758,-0.9694440636261854,-0.0429332886633374,0.0344952360603996,0.134696111187997,0.0104898702906823,0.0040337958422086,0.1346743542223508,-0.8089247756329465,-0.3435187456559178,0.3530702718214402,-0.0003537818572775306,0.9998467492049486,0.012428848302665616,0.012323825402990474
1752572464.1670382,-1.6573515626272526,-1.9763139462075463,-2.539374837961901,-1.1131103658723551,1.5642613399094494,-0.9691737036087044,-0.043185772573788,0.0347083878854748,0.1357075693167817,0.0105454084784938,0.0040627566457053,0.1356856834450396,-0.8087958602801736,-0.3437138700992299,0.3530789499450867,-0.00035372735173461336,0.9998467978711787,0.012427677727714838,0.012321058802187769
1752572464.1688905,-1.657438185395213,-1.976244317107508,-2.539102411264783,-1.1130892199344045,1.5642694943615394,-0.9689013208115966,-0.0434367420460352,0.0349205458825164,0.1367191478904161,0.0106004456843291,0.0040916910202546,0.1366971338801166,-0.8086659864489418,-0.34391044528189724,0.3530876925900987,-0.0003536724409427852,0.9998468468901104,0.012426498449490984,0.0123182716317496
1752572464.1708632,-1.6575253085783397,-1.976174264691628,-2.538827961289928,-1.1130679644259285,1.5642777066557572,-0.9686269149922566,-0.0436861858728883,0.03513170246181,0.1377308470806881,0.0106549784237676,0.0041205987350077,0.1377087057058672,-0.808535154139251,-0.34410847120392024,0.3530964997564764,-0.00035361712490204094,0.9998468962615407,0.012425310467991613,0.012315463891673673
1752572464.172804,-1.6576129291141362,-1.976103790970336,-2.538551487795945,-1.1130466003593398,1.5642859767385515,-0.9683504859077372,-0.0439340928472733,0.0353418500288381,0.1387426670430785,0.0107090032170225,0.0041494795583326,0.1387203990842221,-0.8084033633511004,-0.34430794786529867,0.35310537144421866,-0.0003535614036117666,0.999846945985265,0.012424113783214504,0.012312635581957807
1752572464.1749992,-1.6577010439176894,-1.9760328979692536,-2.538272990541148,-1.1130251287540078,1.564294304555908,-0.9680720333147868,-0.0441804517622024,0.0355509809842401,0.1397546079166289,0.0107625165889029,0.0041783332578573,0.1397322141607721,-0.8082706140844907,-0.3445088752660325,0.35311430765332746,-0.0003535052770729453,0.999846996061078,0.012422908395156512,0.012309786702599095
1752572464.1767566,-1.657789649881674,-1.9759615877292087,-2.537992469283589,-1.113003550636246,1.5643026900533452,-0.9677915569698764,-0.0444252514108157,0.0357590877238038,0.1407666698238082,0.0108155150688753,0.0042071596004354,0.1407441510643969,-0.8081369063394219,-0.34471125340612174,0.3531233083838014,-0.00035344874528497953,0.9998470464887718,0.012421694303815475,0.012306917253595215
1752572464.1791494,-1.657878743876351,-1.975889862306241,-2.5377099237810925,-1.1129818670393048,1.564311133175916,-0.967509056629236,-0.0446684805863281,0.035966162638434,0.1417788528703881,0.0108679951910212,0.0042359583521212,0.1417562099074428,-0.8080022401158934,-0.3449150822855666,0.3531323736356403,-0.0003533918082474811,0.9998470972681378,0.012420471509188862,0.01230402723494394
1752572464.181311,-1.657968322749566,-1.9758177237716144,-2.537425353791288,-1.1129600790033614,1.5643196338682035,-0.9672245320488893,-0.0449101280820769,0.0361721981141252,0.1427911571452999,0.0109199534941814,0.0042647292782093,0.1427683907853504,-0.8078666154139063,-0.345120361904367,0.3531415034088447,-0.0003533344659605629,0.9998471483989657,0.012419240011273907,0.01230111664664196
1752572464.1828675,-1.6580583833267548,-1.9757451742118235,-2.537138759071644,-1.112938187575511,1.5643281920743215,-0.9669379829846854,-0.0451501826914893,0.0363771865319521,0.143803582720512,0.0109713865218425,0.004293472143182,0.1437806937766617,-0.8077300322334594,-0.34532709226252284,0.3531506977034145,-0.0003532767184246444,0.9998471998810435,0.012417999810067963,0.012298185488687155
1752572464.1848068,-1.6581489224109367,-1.975672215728608,-2.536850139379502,-1.1129161938097587,1.5643368077379114,-0.9666494091923328,-0.0453886332080629,0.0365811202680155,0.1448161296508863,0.0110222908222012,0.0043221867107488,0.1447931189427554,-0.8075924905745534,-0.3455352733600342,0.3531599565193498,-0.00035321856563899466,0.9998472517141578,0.012416750905568638,0.012295233761077062
1752572464.1877315,-1.6581489224109367,-1.975672215728608,-2.536850139379502,-1.1129161938097587,1.5643368077379114,-0.9666494091923328,-0.0453886332080629,0.0365811202680155,0.1448161296508863,0.0110222908222012,0.0043221867107488,0.1447931189427554,-0.8075924905745534,-0.3455352733600342,0.3531599565193498,-0.00035321856563899466,0.9998472517141578,0.012416750905568638,0.012295233761077062
1752572464.1891706,-1.6582399367827207,-1.975598850438958,-2.5365594944721117,-1.112894098767006,1.5643454808021415,-0.966358810427435,-0.0456254684254097,0.0367839916934504,0.1458287979740587,0.0110726629482135,0.0043508727437908,0.1458056663278887,-0.8074539904371879,-0.34574490519690054,0.3531692798566508,-0.0003531600076037444,0.9998473038980938,0.012415493297773007,0.012292261463808777
1752572464.190969,-1.658331423200302,-1.9755250804751296,-2.5362668241066637,-1.1128719035150445,1.564354211209705,-0.9660661864455236,-0.0458606771372077,0.0369857931743834,0.1468415877102884,0.0111224994575508,0.0043795300044349,0.1468183359589278,-0.8073145318213633,-0.34595598777312264,0.35317866771531675,-0.0003531010443187618,0.9998473564326354,0.012414226986678673,0.012289268596880107
1752572464.1931703,-1.658423378399462,-1.9754509079846496,-2.535972128040326,-1.1128496091285456,1.5643629989028187,-0.9657715370020944,-0.0460942481372133,0.0371865170719198,0.1478544988623385,0.0111717969126369,0.0044081582539667,0.1478311278451863,-0.8071741147270795,-0.3461685210887006,0.3531881200953481,-0.00035304167578384746,0.9998474093175644,0.012412951972282588,0.01228625516028773
1752572464.1951797,-1.6585157990935713,-1.975376335130328,-2.5356754060302795,-1.1128272166890518,1.5643718438232206,-0.965474861852644,-0.0463261702192809,0.0373861557421109,0.1488675314153395,0.0112205518807361,0.0044367572528352,0.1488440419785141,-0.8070327391543366,-0.3463825051436341,0.3531976369967446,-0.00035298190199966337,0.9998474625526617,0.012411668254582306,0.012283221154029399
1752572464.196862,-1.6586086819735897,-1.9753013640902652,-2.535376657833752,-1.1128047272849653,1.5643807459121697,-0.9651761607526996,-0.0465564321773179,0.0375847015359432,0.149880685336646,0.0112687609338278,0.0044653267607266,0.1498570783328241,-0.8068904051031343,-0.3465979399379225,0.3532072184195073,-0.0003529217229652492,0.9998475161377064,0.012410375833574506,0.012280166578101933
1752572464.1987216,-1.6587020237080612,-1.97522599705787,-2.5350758832080538,-1.1127821420115414,1.5643897051104425,-0.9648754334578608,-0.0467850228052884,0.0377821467992931,0.150893960575714,0.0113164206487147,0.0044938665364804,0.150870236864284,-0.8067471125734723,-0.3468148254715669,0.3532168643636352,-0.00035286113868125576,0.999847570072476,0.012409074709257376,0.012277091432503504
1752572464.2008393,-1.6587958209431202,-1.975150236241861,-2.534773081910616,-1.1127594619708754,1.5643987213583328,-0.9645726797238324,-0.0470119308972541,0.0379784838729415,0.1519073570639648,0.0113635276070593,0.0045223763380738,0.1518835175109947,-0.8066028615653513,-0.3470331617445661,0.3532265748291283,-0.00035280014914714197,0.9998476243567469,0.012407764881627904,0.012273995717230974
1752572464.2028604,-1.6588900703024887,-1.9750740838662808,-2.5344682536990226,-1.1127366882718936,1.56440779459565,-0.96426789930646,-0.0472371452473085,0.0381737050925223,0.1529208747146418,0.0114100783952869,0.0045508559227154,0.1528969201929099,-0.8064576520787711,-0.3472529487569214,0.353236349815987,-0.00035273875436295053,0.9998476789902937,0.012406446350682885,0.012270879432281372
1752572464.204934,-1.6589847683874774,-1.9749975421705068,-2.534161398331052,-1.1127138220303472,1.5644169247617166,-0.9639610919617692,-0.0474606546496243,0.0383678027885148,0.1539345134226829,0.0114560696047433,0.0045793050467391,0.1539104448116573,-0.8063114841137315,-0.3474741865086321,0.3532461893242105,-0.0003526769543284481,0.9998477339728893,0.012405119116420168,0.01226774257765268
1752572464.2069042,-1.6590799117769848,-1.9749206134092585,-2.533852515564709,-1.1126908643687967,1.5644261117953668,-0.9636522574459994,-0.0476824478984141,0.0385607692862145,0.1549482730645896,0.0115014978315906,0.0046077234656188,0.1549240912504402,-0.8061643576702328,-0.3476968749996978,0.35325609335380054,-0.0003526147490433885,0.999847789304306,0.012403783178835946,0.01226458515334082
1752572464.208859,-1.6591754970274977,-1.9748432998526135,-2.5335416051582653,-1.1126678164166082,1.5644353556349453,-0.9633413955156432,-0.0479025137879472,0.0387525969057135,0.1559621534982787,0.0115463596768899,0.0046361109340249,0.1559378593739806,-0.8060162727482749,-0.34792101423011956,0.35326606190475535,-0.0003525521385082076,0.9998478449843132,0.012402438537928195,0.012261407159344082
1752572464.2111287,-1.6592715206730937,-1.974765603786011,-2.533228666870295,-1.1126446793099394,1.564444656218305,-0.9630285059274826,-0.0481208411125215,0.0389432779618955,0.1569761545629566,0.0115906517465173,0.0046644672057451,0.156951749028237,-0.8058672293478573,-0.34814660419989635,0.3532760949770752,-0.00035248912272285634,0.9998479010126803,0.012401085193694057,0.012258208595659714
1752572464.2129598,-1.6593679792254346,-1.9746875275102689,-2.532913700459712,-1.112621454191732,1.5644540134828058,-0.9627135884386248,-0.0483374186665028,0.0391328047643936,0.1579902760789859,0.0116343706513553,0.0046927920337194,0.1579657600403582,-0.805717227468981,-0.348373644909029,0.3532861925707602,-0.00035242570168664847,0.999847957389174,0.012399723146130437,0.012254989462284725
1752572464.215135,-1.6594648691737754,-1.9746090733415864,-2.53259670568581,-1.1125981422117004,1.5644634273653122,-0.9623966428065432,-0.0485522352442642,0.0393211696175866,0.1590045178477404,0.011677513007062,0.0047210851700378,0.158979892218466,-0.8055662671116449,-0.3486021363575167,0.35329635468581144,-0.000352361875399982,0.9998480141135602,0.012398352395234185,0.012251749759215677
1752572464.2168643,-1.6595621869849566,-1.9745302436115644,-2.532277682308297,-1.1125747445263228,1.5644728978021922,-0.9620776687891136,-0.0487652796402344,0.0395083648205614,0.1600188796514766,0.0117200754343415,0.0047493463659059,0.159994145351662,-0.8054143482758499,-0.3488320785453607,0.3533065813222284,-0.00035229764386286705,0.9998480711856029,0.012396972941002522,0.012248489486449956
1752572464.218809,-1.6596599291034106,-1.9744510406672084,-2.5319566300873384,-1.1125512622988314,1.5644824247293156,-0.9617566661446526,-0.0489765406488749,0.0396943826671293,0.1610333612531951,0.0117620545587564,0.0047775753716662,0.1610085192098132,-0.8052614709615958,-0.34906347147255923,0.35331687248001004,-0.0003522330070745524,0.9998481286050651,0.01239558478343295,0.012245208643985359
1752572464.221044,-1.6596599291034106,-1.9744510406672084,-2.5319566300873384,-1.1125512622988314,1.5644824247293156,-0.9617566661446526,-0.0489765406488749,0.0396943826671293,0.1610333612531951,0.0117620545587564,0.0047775753716662,0.1610085192098132,-0.8052614709615958,-0.34906347147255923,0.35331687248001004,-0.0003522330070745524,0.9998481286050651,0.01239558478343295,0.012245208643985359
1752572464.2227628,-1.659758091951157,-1.9743714668709416,-2.53163354878359,-1.1125276966992033,1.564492008082052,-0.9614336346319572,-0.0491860070646352,0.0398792154457637,0.1620479623965019,0.0118034470107772,0.0048057719367985,0.1620230135433129,-0.805107635168882,-0.34929631513911347,0.35332722815915674,-0.0003521679650357866,0.9998481863717077,0.012394187922522464,0.012241907231819005
1752572464.2278645,-1.6599556654105498,-1.974211216249521,-2.530981297973054,-1.112480320097097,1.5645113438033285,-0.9607814840396792,-0.049599511295549,0.040245294926468,0.1640775221845387,0.0118844584445501,0.0048620667386018,0.1640523625406563,-0.8047970881480765,-0.3497663546902889,0.3533481330815469,-0.0003520366652054339,0.9998483029455718,0.012391368090665766,0.012235242698367255
1752572464.2323866,-1.66005506875418,-1.9741305442264,-2.5306521279903995,-1.1124565114682028,1.564521096040091,-0.9604523644804388,-0.0498035266997199,0.040426526178751,0.1650924802182901,0.0119240707120546,0.0048901644698217,0.1650672166072747,-0.804640376919985,-0.35000355057490995,0.3533586823247895,-0.00035197040741331056,0.9998483617523083,0.012389945119713974,0.01223187957707679
1752572464.2328355,-1.660255090331189,-1.973968118876349,-2.5299876976854705,-1.1124086595389846,1.5645407689326178,-0.9597880356413322,-0.0502060280581582,0.0407853330423451,0.1671227508884909,0.0120014916001104,0.0049462593224553,0.1670972822342799,-0.8043240790284242,-0.350482294562218,0.3533799743753735,-0.00035183667607627527,0.9998484804041659,0.012387073067747202,0.01222509162534988
1752572464.2353148,-1.6603557011620875,-1.973886370444248,-2.5296524368913538,-1.112384618652439,1.564550689453555,-0.9594528258857488,-0.0504044916014883,0.0409628931714925,0.1681380627939121,0.0120392935363318,0.0049742559330311,0.1681124930775036,-0.8041644923649546,-0.35072384266490525,0.35339071718271264,-0.0003517692025303768,0.9998485402487927,0.012385623986727002,0.012221666794908671
1752572464.2370942,-1.6604567070489082,-1.9738042681297951,-2.529315145356166,-1.112360502771586,1.5645606659335372,-0.9591155855902382,-0.0506010821135693,0.0411392141017154,0.1691534918917079,0.0120764853527312,0.0050022183243685,0.1691278220953251,-0.8040039472230258,-0.3509668415069479,0.3534015245114178,-0.0003517013237332255,0.9998486004388867,0.012384166202344272,0.012218221394744311
1752572464.238986,-1.6605581042343838,-1.973721814419143,-2.528975822845936,-1.1123363131199948,1.564570698303868,-0.9587763145188576,-0.0507957883889458,0.0413142880783387,0.1701690377654166,0.0121130637196901,0.0050301462387675,0.170143268878277,-0.8038424436026381,-0.35121129108834614,0.3534123963614883,-0.00035163303968494225,0.9998486609741969,0.012382699714596233,0.012214755424854151
1752572464.240835,-1.660659888938835,-1.9736390118139584,-2.5286344691275446,-1.1123120509278903,1.5645807864953352,-0.9584350124365012,-0.0509885992220883,0.0414881073412121,0.1711846999779511,0.012149025312446,0.0050580394176207,0.171158832996274,-0.803679981503791,-0.3514571914091002,0.3534233327329237,-0.00035156435038439984,0.9998487218544709,0.012381224523479981,0.012211268885235197
1752572464.2426133,-1.6607620573601736,-1.9735558628314316,-2.5282910839687696,-1.1122877174321406,1.5645909304382084,-0.9580916791089492,-0.0511795034075025,0.0416606641247127,0.1722004780714604,0.0121843668114451,0.0050858976013941,0.1721745139985255,-0.8035165609264844,-0.35170454246920924,0.3534343336257248,-0.00035149525583285973,0.9998487830794551,0.012379740628991966,0.012207761775884174
1752572464.24469,-1.660864605673897,-1.973472370004293,-2.527945667138324,-1.11226331387625,1.564601130062237,-0.9577463143028986,-0.0513684897396187,0.0418319506577048,0.1732163715671886,0.0122190849019626,0.0051137205296438,0.1731903114132965,-0.8033521818707188,-0.3519533442686734,0.3534453990398909,-0.00035142575602868377,0.999848844648894,0.012378248031129522,0.012204234096798473
1752572464.24675,-1.6609675300330924,-1.9733885358808188,-2.5275982184058985,-1.1122388415103457,1.564611385296649,-0.9573989177860156,-0.0515555470128847,0.0420019591635644,0.1742323799653409,0.0122531762744503,0.0051415079409472,0.1742062247477966,-0.8031868443364939,-0.35220359680749436,0.35345652897542346,-0.0003513558509735522,0.9998489065625312,0.012376746729888928,0.01220068584797422
1752572464.2495596,-1.6610708265684382,-1.9733043630248448,-2.5272487375422075,-1.112214301591168,1.5646216960701482,-0.9570494893269696,-0.0517406640216783,0.0421706818601203,0.175248502744931,0.0122866376242389,0.0051692595730525,0.1752222534881827,-0.8030205483238095,-0.3524553000856695,0.3534677234323207,-0.0003512855406657048,0.999848968820108,0.012375236725267387,0.012197117029408974
1752572464.2508488,-1.6611744913881994,-1.973219854015776,-2.526897224319026,-1.112189695382063,1.564632062310913,-0.9566980286954818,-0.0519238295603618,0.0423381109596796,0.1762647393636724,0.0123194656518292,0.0051969751626477,0.1762383970992365,-0.802853293832666,-0.3527084541032005,0.35347898241058373,-0.00035121482510604716,0.999849031421365,0.012373718017261448,0.012193527641099097
1752572464.2528017,-1.6612785205782288,-1.9731350114485997,-2.526543678509236,-1.1121650241529712,1.5646424839465942,-0.956344535662363,-0.052105032423257,0.0425042386689977,0.1772810892578055,0.0123516570626959,0.0052246544455579,0.177254655024316,-0.8026850808630637,-0.3529630588600869,0.3534903059102118,-0.0003511437042940152,0.9998490943660406,0.012372190605868265,0.012189917683041998
1752572464.254791,-1.6613829102019713,-1.9730498379338923,-2.5261880998868675,-1.1121402891804166,1.5646529609043138,-0.95598900999956,-0.0522842614046297,0.0426690571892686,0.1782975518419758,0.0123832085673327,0.0052522971566377,0.1782710266851951,-0.802515909415001,-0.35321911435632913,0.3535016939312057,-0.00035107217823026726,0.9998491576538723,0.012370654491084442,0.01218628715523436
1752572464.2567682,-1.6614876563004568,-1.9729643360978375,-2.5258304882271454,-1.1121154917474962,1.5646634931106622,-0.9556314514801976,-0.0524615052986771,0.0428325587160966,0.1793141265090958,0.0124141168812671,0.0052799030298061,0.1792875114819465,-0.8023457794884795,-0.35347662059192636,0.35351314647356424,-0.000351000246913742,0.9998492212845957,0.012369109672906864,0.01218263605767332
1752572464.259776,-1.661592754892304,-1.9728785085822305,-2.525470843306528,-1.1120906331438718,1.5646740804916963,-0.9552718598786224,-0.0526367528995825,0.0429947354395244,0.1803308126302026,0.0124443787251435,0.0053074717979988,0.1803041087927545,-0.802174691083499,-0.3537355775668796,0.35352466353728873,-0.0003509279103451422,0.9998492852579451,0.012367556151331968,0.01217896439035488
1752572464.2611835,-1.6616982019737223,-1.972792358044492,-2.5251091649027555,-1.1120657146657589,1.564684722972939,-0.9549102349704466,-0.0528099930014479,0.0431555795439835,0.1813476095543174,0.0124739908245688,0.0053350031932141,0.1813208179738357,-0.8020026442000591,-0.35399598528118786,0.3535362451223784,-0.00035085516852404743,0.9998493495736533,0.012365993926356534,0.01217527215327661
1752572464.2629657,-1.6618039935185065,-1.972705887157681,-2.5247454527948907,-1.1120407376159165,1.5646954204793748,-0.9545465765325902,-0.052981214398298,0.043315083208305,0.1823645166083068,0.0125029499102332,0.0053624969465026,0.1823376383592501,-0.8018296388381598,-0.3542578437348517,0.3535478912288335,-0.000350782021449789,0.9998494142314515,0.012364422997977504,0.012171559346434872
1752572464.2650695,-1.661910125478041,-1.972619098610504,-2.5243797067633658,-1.112015703303637,1.5647061729354503,-0.954180884343331,-0.0531504058841043,0.0434732386056987,0.1833815330967407,0.0125312527178358,0.0053899527879133,0.1833545692607859,-0.8016556749978017,-0.3545211529278712,0.3535596018566536,-0.00035070846912319816,0.9998494792310695,0.012362843366191536,0.012167825969826724
1752572464.2668684,-1.6620165937812983,-1.9725319951073248,-2.524011926590026,-1.1119906130447363,1.5647169802650711,-0.953813158182343,-0.0533175562527613,0.0436300379037511,0.1843986583017599,0.0125588959881671,0.0054173704465447,0.1843716099678247,-0.8014807526789838,-0.35478591286024586,0.35357137700583974,-0.0003506345115438308,0.9998495445722353,0.012361255030994858,0.012164072023448314
1752572464.269163,-1.662123394334837,-1.9724445793681795,-2.5236421120581745,-1.1119654681615447,1.5647278423916,-0.9534433978307444,-0.0534826542980754,0.0437854732644096,0.185415891482926,0.0125858764670201,0.0054447496505272,0.1853887597471777,-0.8013048718817067,-0.355052123531976,0.3535832166763917,-0.00035056014871149383,0.999849610254676,0.0123596579923843,0.012160297507296735
1752572464.2708218,-1.6622305230228038,-1.9723568541287868,-2.5232702629526185,-1.1119402699828953,1.564738759237855,-0.9530716030711428,-0.0536456888137931,0.0439395368439839,0.1864332318770899,0.0126121909052782,0.0054720901269949,0.1864060178429926,-0.8011280326059708,-0.35531978494306193,0.353595120868309,-0.0003504853806262036,0.9998496762781167,0.012358052250356646,0.012156502421368827
1752572464.272824,-1.6622305230228038,-1.9723568541287868,-2.5232702629526185,-1.1119402699828953,1.564738759237855,-0.9530716030711428,-0.0536456888137931,0.0439395368439839,0.1864332318770899,0.0126121909052782,0.0054720901269949,0.1864060178429926,-0.8011280326059708,-0.35531978494306193,0.353595120868309,-0.0003504853806262036,0.9998496762781167,0.012358052250356646,0.012156502421368827
1752572464.2747834,-1.6623379757069348,-1.972268822140557,-2.522896379059714,-1.1119150198441137,1.5647497307261071,-0.9526977736876808,-0.053806648593546,0.0440922207931286,0.1874506786982463,0.0126378360587828,0.0054993916021081,0.187423383476506,-0.8009502348517749,-0.3555888970935034,0.3536070895815909,-0.0003504102072883525,0.9998497426422811,0.012356437804908863,0.012152686765661766
1752572464.276823,-1.66244574822655,-1.972180486170605,-2.5225204601674127,-1.1118897190870092,1.5647607567780792,-0.9523219094660788,-0.0539655224308817,0.044243517256838,0.1884682311373927,0.0126628086884914,0.0055266538010535,0.1884408558460696,-0.80077147861912,-0.35585945998330043,0.3536191228162383,-0.0003503346286965018,0.9998498093468916,0.012354814656036998,0.012148850540171476
1752572464.278803,-1.6625538363985584,-1.9720918490017605,-2.5221425060653067,-1.111864369059865,1.5647718373149433,-0.9519440101936878,-0.0541222991192624,0.0443934183744396,0.1894858883623999,0.0126871055603587,0.0055538764479929,0.1894584341268285,-0.800591763908006,-0.35613147361245273,0.3536312205722517,-0.00035025864485175483,0.9998498763916689,0.012353182803737704,0.012144993744894788
1752572464.2808838,-1.6626622360174563,-1.9720029134325816,-2.521762516544676,-1.111838971117426,1.5647829722573188,-0.9515640756595296,-0.0542769674520349,0.0445419162795843,0.1905036495178547,0.0127107234453772,0.0055810592661287,0.1904761174707971,-0.8004110907184326,-0.3564049379809601,0.35364338284963015,-0.0003501822557537995,0.9998499437763322,0.012351542248007606,0.01214111637982853
1752572464.2840295,-1.6627709428553257,-1.971913682277365,-2.5213804913985336,-1.1118135266208906,1.5647941615252705,-0.9511821056543432,-0.0544295162224441,0.0446890031002511,0.1915215137249299,0.0127336591195646,0.0056082019776521,0.1914939050064275,-0.8002294590503998,-0.35667985308882383,0.35365560964837334,-0.0003501054614022281,0.9998500115005997,0.012349892988843519,0.012137218444969749
1752572464.2847617,-1.6628799526618332,-1.9718241583661555,-2.520996430421676,-1.1117880369379014,1.5648054050383058,-0.9507980999706388,-0.0545799342236272,0.0448346709587271,0.1925394800812401,0.0127559093639708,0.0056353043037561,0.1925117958387213,-0.800046868903908,-0.35695621893604257,0.35366790096848305,-0.00035002826179728725,0.9998500795641869,0.012348235026241708,0.012133299940314092
1752572464.286877,-1.6629892611642356,-1.9717343445447604,-2.520610333410726,-1.111762503442531,1.564816702715375,-0.950412058402736,-0.0547282102486002,0.0449789119716072,0.1935575476607054,0.0127774709646411,0.005662365964612,0.1935297890490337,-0.7998633202789566,-0.3572340355226167,0.3536802568099575,-0.00034995065693839097,0.9998501479668093,0.012346568360198597,0.012129360865858727
1752572464.288755,-1.663098864067372,-1.971644243674759,-2.520222200164184,-1.1117369275152775,1.5648280544748667,-0.9500239807468188,-0.0548743330902719,0.045121718249801,0.1945757155134035,0.0127983407126894,0.0056893866794013,0.1945478836948604,-0.7996788131755462,-0.3575133028485465,0.3536926771727977,-0.00034987264682603787,0.9998502167081798,0.0123448929907107,0.012125401221600076
1752572464.2908545,-1.6632087570536696,-1.9715538586335135,-2.5198320304824726,-1.1117113105430514,1.5648394602346072,-0.9496338668009772,-0.0550182915414074,0.0452630818985089,0.1955939826654338,0.01281851540415,0.0057163661662728,0.195566078809677,-0.7994933475936763,-0.35779402091383133,0.3537051620570035,-0.0003497942314594924,0.9998502857880102,0.012343208917774583,0.012121421007534843
1752572464.2927752,-1.6633189357831393,-1.971463192314184,-2.5194398241679874,-1.1116856539191655,1.564850919911858,-0.9492417163652602,-0.0551600743946535,0.045402995017227,0.1966123481187667,0.0128379918401315,0.0057433041424154,0.1965843734029708,-0.7993069235333471,-0.3580761897184721,0.35371771146257436,-0.000349715410839047,0.9998503552060111,0.012341516141386876,0.012117420223660073
1752572464.3016484,-1.6633189357831393,-1.971463192314184,-2.5194398241679874,-1.1116856539191655,1.564850919911858,-0.9492417163652602,-0.0551600743946535,0.045402995017227,0.1966123481187667,0.0128379918401315,0.0057433041424154,0.1965843734029708,-0.7993069235333471,-0.3580761897184721,0.35371771146257436,-0.000349715410839047,0.9998503552060111,0.012341516141386876,0.012117420223660073
1752572464.3022592,-1.6636511426944738,-1.9711895348564423,-2.51825098348244,-1.1116084601665062,1.5648856216127736,-0.9480530441497156,-0.055572257291511,0.0458139521028947,0.1996680239415971,0.0128921997008005,0.0058238661623785,0.1996398437833142,-0.7987419004816043,-0.3589314005685267,0.35375574680747907,-0.0003494765174527887,0.9998505654861155,0.012336385591476942,0.012105294453139789
1752572464.3026206,-1.6637624205484478,-1.9710977726726655,-2.51785062870195,-1.1115826589968147,1.564897296121315,-0.947652745795822,-0.0557052256769469,0.0459479839825342,0.2006867721325616,0.0129088512254185,0.0058506352464506,0.2006585258976514,-0.7985516425074383,-0.3592193723305898,0.35376855429851084,-0.00034939607581622653,0.9998506362538703,0.012334658001246323,0.012101211389990022
1752572464.3051653,-1.6639857629029198,-1.970913451568391,-2.5170438061876794,-1.1115309603207455,1.564920805538056,-0.9468460365251232,-0.0559644563293555,0.0462115694527227,0.2027245462020447,0.0129400085795154,0.0059040443043578,0.2026961714654621,-0.7981682511237286,-0.35979966807278113,0.35379436284467225,-0.00034923397677800273,0.999850778799179,0.012331176710371579,0.012092983554203919
1752572464.3068736,-1.6640978184320383,-1.9708208986401097,-2.5166373380867197,-1.1115050656837422,1.5649326402733368,-0.946439625236251,-0.0560906961797302,0.046341107168039,0.2037435697640126,0.0129545080757599,0.0059306836990983,0.2037151326175134,-0.7979751177141848,-0.3600919920529096,0.35380736389980083,-0.0003491523193763737,0.999850850576134,0.012329423009720612,0.01208883878156107
1752572464.3086162,-1.6642101241774645,-1.970728088149012,-2.516228831849002,-1.1114791427708877,1.5649445282436452,-0.9460311759342064,-0.0562146707682066,0.0464691309438198,0.2047626827577719,0.0129682839042058,0.0059572792832122,0.2047341844386957,-0.7977810258261813,-0.3603857667723942,0.35382042947629466,-0.00034907025672105256,0.9998509226888878,0.012327660605588809,0.012084673439080158
1752572464.3108158,-1.6643226755974645,-1.970635023130928,-2.515818287296881,-1.1114531930326734,1.5649564693610678,-0.9456206884388596,-0.0563363688860844,0.0465956328281736,0.2057818839618437,0.0129813329105687,0.0059838307645304,0.2057533257152268,-0.7975859754597185,-0.3606809922312342,0.3538335595741546,-0.0003489877888107471,0.9998509951371369,0.012325889497972373,0.012080487526757258
1752572464.312901,-1.6644354681278897,-1.970541706637598,-2.5154057042551785,-1.1114272179258933,1.564968463537106,-0.945208162572534,-0.0564557793244799,0.0467206048634969,0.206801172129208,0.0129936519454479,0.006010337849865,0.2067725552076627,-0.7973899666147968,-0.36097766842942935,0.3538467541933789,-0.000348904915644777,0.9998510679205768,0.01232410968686809,0.012076281044589517
1752572464.3147497,-1.66454849718217,-1.970448141736682,-2.5149910825512363,-1.1114012189136364,1.5649805106826735,-0.9447935981600608,-0.0565728908743245,0.0468440390864807,0.2078205459871772,0.0130052378643385,0.0060368002449085,0.2077918716509664,-0.7971929992914155,-0.3612757953669806,0.35386001333396977,-0.0003488216372244203,0.9998511410389015,0.012322321172271658,0.012072053992572536
1752572464.316752,-1.664661758151322,-1.970354331511773,-2.5145744220149675,-1.1113751974652732,1.5649926107080954,-0.944376995028823,-0.0566876923263683,0.046965927528107,0.2088400042372268,0.013016087527568,0.0060632176543781,0.2088112737542715,-0.7969950734895749,-0.361575373043887,0.35387333699592466,-0.0003487379535484301,0.999851214491803,0.012320523954179596,0.012067806370703482
1752572464.3188937,-1.6647752464039378,-1.9702602790624064,-2.5141557224789084,-1.1113491550564527,1.5650047635231037,-0.9439583530088144,-0.0568001724711941,0.0470862622136722,0.209859545554886,0.0130261978004147,0.0060895897818675,0.2098307602008121,-0.7967961892092755,-0.3618764014601489,0.3538867251792466,-0.0003486538646173511,0.9998512882789724,0.012318718032587635,0.012063538178977658
1752572464.320852,-1.664888957286195,-1.9701659875040765,-2.513734983778269,-1.1113230931690854,1.5650169690368367,-0.9435376719326856,-0.0569103200991883,0.0472050351627623,0.2108791685895749,0.0130355655529578,0.0061159163299171,0.2108503296476614,-0.7965963464505166,-0.3621788806157669,0.3539001778839321,-0.00034856937043082763,0.9998513624000986,0.012316903407493144,0.012059249417392654
1752572464.3226943,-1.66500288612185,-1.9700714599682376,-2.513312205750989,-1.1112970132913382,1.565029227157838,-0.9431149516358026,-0.0570181240005327,0.0473222383892937,0.2118988719644607,0.0130441876600956,0.006142197000028,0.2118699807257375,-0.7963955452132984,-0.3624828105107394,0.35391369510998427,-0.00034848447098893457,0.9998514368548701,0.012315080078891174,0.012054940085943827
1752572464.3245802,-1.6651170282122392,-1.969976699602328,-2.512887388237786,-1.111270916917622,1.565041537794052,-0.9426901919562916,-0.057123572965211,0.0474378639014711,0.2129186542763284,0.0130520610015522,0.0061684314926185,0.2128897120395379,-0.796193785497621,-0.36278819114506783,0.35392727685740183,-0.0003483991662909438,0.9998515116429727,0.012313248046778127,0.012050610184627438
