mathias31415/evaluate_motion_primitives_from_trajectory_controller/data/trajectory_20250721_152220_executed.csv
timestamp,elbow_joint_pos,shoulder_lift_joint_pos,shoulder_pan_joint_pos,wrist_1_joint_pos,wrist_2_joint_pos,wrist_3_joint_pos,elbow_joint_vel,shoulder_lift_joint_vel,shoulder_pan_joint_vel,wrist_1_joint_vel,wrist_2_joint_vel,wrist_3_joint_vel,pose_x,pose_y,pose_z,pose_qx,pose_qy,pose_qz,pose_qw
1753104158.879411,1.6192500000000003,-1.2231120000000004,2.521988,-1.7611480000000004,-1.7344119999999998,-2.231006,0.0,0.0,0.0,0.0,0.0,0.0,0.7657122434805776,-0.3555962171551066,0.39914436541263104,0.991009754000284,0.028517733143473813,-0.13065140990106727,0.00407620700130423
1753104158.8798811,1.6192500000000003,-1.2231120000000004,2.521988,-1.7611480000000004,-1.7344119999999998,-2.231006,0.0,0.0,0.0,0.0,0.0,0.0,0.7657122434805776,-0.3555962171551066,0.39914436541263104,0.991009754000284,0.028517733143473813,-0.13065140990106727,0.00407620700130423
1753104158.8812,1.6192500000000003,-1.2231120000000004,2.521988,-1.7611480000000004,-1.7344119999999998,-2.231006,0.0,0.0,0.0,0.0,0.0,0.0,0.7657122434805776,-0.3555962171551066,0.39914436541263104,0.991009754000284,0.028517733143473813,-0.13065140990106727,0.00407620700130423
1753104158.883257,1.6192500000000003,-1.2231120000000004,2.521988,-1.7611480000000004,-1.7344119999999998,-2.231006,0.0,0.0,0.0,0.0,0.0,0.0,0.7657122434805776,-0.3555962171551066,0.39914436541263104,0.991009754000284,0.028517733143473813,-0.13065140990106727,0.00407620700130423
1753104158.88527,1.6192500000000003,-1.2231120000000004,2.521988,-1.7611480000000004,-1.7344119999999998,-2.231006,0.0,0.0,0.0,0.0,0.0,0.0,0.7657122434805776,-0.3555962171551066,0.39914436541263104,0.991009754000284,0.028517733143473813,-0.13065140990106727,0.00407620700130423
1753104158.8873396,1.6192500000000003,-1.2231120000000004,2.521988,-1.7611480000000004,-1.7344119999999998,-2.231006,0.0,0.0,0.0,0.0,0.0,0.0,0.7657122434805776,-0.3555962171551066,0.39914436541263104,0.991009754000284,0.028517733143473813,-0.13065140990106727,0.00407620700130423
1753104158.8890483,1.6192500000000003,-1.2231120000000004,2.521988,-1.7611480000000004,-1.7344119999999998,-2.231006,0.0,0.0,0.0,0.0,0.0,0.0,0.7657122434805776,-0.3555962171551066,0.39914436541263104,0.991009754000284,0.028517733143473813,-0.13065140990106727,0.00407620700130423
1753104158.8910122,1.6192500000000003,-1.2231120000000004,2.521988,-1.7611480000000004,-1.7344119999999998,-2.231006,0.0,0.0,0.0,0.0,0.0,0.0,0.7657122434805776,-0.3555962171551066,0.39914436541263104,0.991009754000284,0.028517733143473813,-0.13065140990106727,0.00407620700130423
1753104158.8930664,1.6192500000000003,-1.2231120000000004,2.521988,-1.7611480000000004,-1.7344119999999998,-2.231006,0.0,0.0,0.0,0.0,0.0,0.0,0.7657122434805776,-0.3555962171551066,0.39914436541263104,0.991009754000284,0.028517733143473813,-0.13065140990106727,0.00407620700130423
1753104158.8954782,1.6192500000000003,-1.2231120000000004,2.521988,-1.7611480000000004,-1.7344119999999998,-2.231006,0.0,0.0,0.0,0.0,0.0,0.0,0.7657122434805776,-0.3555962171551066,0.39914436541263104,0.991009754000284,0.028517733143473813,-0.13065140990106727,0.00407620700130423
1753104158.8973489,1.6192500000000003,-1.2231120000000004,2.521988,-1.7611480000000004,-1.7344119999999998,-2.231006,0.0,0.0,0.0,0.0,0.0,0.0,0.7657122434805776,-0.3555962171551066,0.39914436541263104,0.991009754000284,0.028517733143473813,-0.13065140990106727,0.00407620700130423
1753104158.899617,1.6192500000000003,-1.2231120000000004,2.521988,-1.7611480000000004,-1.7344119999999998,-2.231006,0.0,0.0,0.0,0.0,0.0,0.0,0.7657122434805776,-0.3555962171551066,0.39914436541263104,0.991009754000284,0.028517733143473813,-0.13065140990106727,0.00407620700130423
1753104158.9238086,1.6192500000000003,-1.2231120000000004,2.521988,-1.7611480000000004,-1.7344119999999998,-2.231006,0.0,0.0,0.0,0.0,0.0,0.0,0.7657122434805776,-0.3555962171551066,0.39914436541263104,0.991009754000284,0.028517733143473813,-0.13065140990106727,0.00407620700130423
1753104158.924363,1.6192500000000003,-1.2231120000000004,2.521988,-1.7611480000000004,-1.7344119999999998,-2.231006,0.0,0.0,0.0,0.0,0.0,0.0,0.7657122434805776,-0.3555962171551066,0.39914436541263104,0.991009754000284,0.028517733143473813,-0.13065140990106727,0.00407620700130423
1753104158.9248128,1.6192500000000003,-1.2231120000000004,2.521988,-1.7611480000000004,-1.7344119999999998,-2.231006,0.0,0.0,0.0,0.0,0.0,0.0,0.7657122434805776,-0.3555962171551066,0.39914436541263104,0.991009754000284,0.028517733143473813,-0.13065140990106727,0.00407620700130423
1753104158.9251325,1.6192500000000003,-1.2231120000000004,2.521988,-1.7611480000000004,-1.7344119999999998,-2.231006,0.0,0.0,0.0,0.0,0.0,0.0,0.7657122434805776,-0.3555962171551066,0.39914436541263104,0.991009754000284,0.028517733143473813,-0.13065140990106727,0.00407620700130423
1753104158.9253798,1.6192500000000003,-1.2231120000000004,2.521988,-1.7611480000000004,-1.7344119999999998,-2.231006,0.0,0.0,0.0,0.0,0.0,0.0,0.7657122434805776,-0.3555962171551066,0.39914436541263104,0.991009754000284,0.028517733143473813,-0.13065140990106727,0.00407620700130423
1753104158.925862,1.6192500000000003,-1.2231120000000004,2.521988,-1.7611480000000004,-1.7344119999999998,-2.231006,0.0,0.0,0.0,0.0,0.0,0.0,0.7657122434805776,-0.3555962171551066,0.39914436541263104,0.991009754000284,0.028517733143473813,-0.13065140990106727,0.00407620700130423
1753104158.926263,1.6192500000000003,-1.2231120000000004,2.521988,-1.7611480000000004,-1.7344119999999998,-2.231006,0.0,0.0,0.0,0.0,0.0,0.0,0.7657122434805776,-0.3555962171551066,0.39914436541263104,0.991009754000284,0.028517733143473813,-0.13065140990106727,0.00407620700130423
1753104158.9265895,1.6192500560421654,-1.2231120008801517,2.521987013771433,-1.7611482717041635,-1.7344121352631134,-2.231007,5.604216511344367e-05,-8.801512686639591e-07,-0.0009862285664829,-0.0002717041635555,-0.0001352631138871,-0.001,0.7657118980205602,-0.35559699516567295,0.3991443593406315,0.9910097594269957,0.028517738203637875,-0.13065136797132662,0.004076196194735583
1753104158.9269776,1.6192502241686608,-1.2231120035206056,2.521984055085734,-1.7611490868166548,-1.7344125410524551,-2.2310099999999995,0.0001120843302268,-1.760302537327918e-06,-0.0019724571329659,-0.0005434083271111,-0.0002705262277743,-0.002,0.7657108616357385,-0.355599329195333,0.39914434112468933,0.9910097757070346,0.02851775338404077,-0.13065124218274693,0.00407616377555712
1753104158.9294205,1.6192505043794865,-1.2231120079213618,2.5219791239429017,-1.7611504453374724,-1.734413217368025,-2.2310149999999997,0.0001681264953403,-2.6404538059918773e-06,-0.0029586856994488,-0.0008151124906667,-0.0004057893416615,-0.003,0.7657091343118013,-0.35560321923797295,0.39914431076497314,0.9910098028401128,0.0285177786844145,-0.13065103253725704,0.0040761097453471526
1753104158.931399,1.6192508966746422,-1.223112014082421,2.521972220342936,-1.7611523472666173,-1.734414164209822,-2.2310219999999994,0.0002241686604537,-3.520605074655836e-06,-0.0039449142659318,-0.0010868166542223,-0.0005410524555486,-0.004,0.7657067160248971,-0.3556086652834017,0.39914426826176536,0.9910098408257502,0.02851781410431118,-0.13065073903806956,0.0040760341067377845
1753104158.9334726,1.619251401054128,-1.2231120220037823,2.521963344285838,-1.7611547926040894,-1.734415381577847,-2.231031,0.0002802108255672,-4.400756343319796e-06,-0.0049311428324147,-0.0013585208177778,-0.0006763155694358,-0.005,0.7657036067416347,-0.35561566731735184,0.39914421361545926,0.991009889663275,0.028517859643105714,-0.13065036168968377,0.004075936863413084
1753104158.935191,1.6192520175179443,-1.2231120316854458,2.521952495771606,-1.7611577813498889,-1.7344168694721,-2.2310420000000004,0.0003362529906806,-5.2809076119837545e-06,-0.0059173713988977,-0.0016302249813334,-0.000811578683323,-0.006,0.765699806419082,-0.355624225321479,0.3991441468265609,0.9910099493518226,0.028517915299991838,-0.13064990049788472,0.004075818020110116
1753104158.9385471,1.6192520175179443,-1.2231120316854458,2.521952495771606,-1.7611577813498889,-1.7344168694721,-2.2310420000000004,0.0003362529906806,-5.2809076119837545e-06,-0.0059173713988977,-0.0016302249813334,-0.000811578683323,-0.006,0.765699806419082,-0.355624225321479,0.3991441468265609,0.9910099493518226,0.028517915299991838,-0.13064990049788472,0.004075818020110116
1753104158.9413624,1.6192535866985676,-1.2231120563296818,2.521924881371745,-1.761165389066468,-1.7344206568392888,-2.23107,0.0004483373209075,-7.041210149311672e-06,-0.0078898285318636,-0.0021736333084446,-0.0010821049110973,-0.008,0.765690132436677,-0.355646009146495,0.3991439768235816,0.9910101012775715,0.02851805696392684,-0.13064872661361043,0.004075515557778656
1753104158.9430766,1.6192545394153746,-1.2231120712922534,2.5219081154861147,-1.761170008037248,-1.7344229563122244,-2.2310870000000005,0.0005043794860209,-7.921361417975633e-06,-0.0088760570983466,-0.0024453374720001,-0.0012173680249845,-0.009,0.7656842586432615,-0.3556592349103062,0.3991438736110763,0.9910101935120843,0.02851814296847134,-0.13064801393913283,0.00407533195348482
1753104158.945111,1.6192556042165116,-1.2231120880151272,2.5218893771433515,-1.7611751704163563,-1.734425526311389,-2.2311060000000005,0.0005604216511344,-8.801512686639593e-06,-0.0098622856648295,-0.0027170416355557,-0.0013526311388717,-0.01,0.76567769354343,-0.3556740165301347,0.39914375825913234,0.9910102965922439,0.028518239086099056,-0.13064721745723606,0.004075126778683129
1753104158.9468985,1.6192567811019791,-1.223112106498304,2.5218686663434555,-1.7611808762037908,-1.73442836683678,-2.231127,0.0006164638162478,-9.681663955303553e-06,-0.0108485142313125,-0.0029887457991113,-0.0014878942527589,-0.011,0.7656704370465522,-0.35569035396724175,0.39914363076881987,0.9910104105162265,0.028518345315110594,-0.13064633718013327,0.004074900043369234
1753104158.9490144,1.6192580700717767,-1.2231121267417828,2.5218459830864264,-1.7611871253995526,-1.7344314778883998,-2.2311499999999995,0.0006725059813613,-1.0561815223967512e-05,-0.0118347427977955,-0.0032604499626669,-0.001623157366646,-0.012,0.76566248905246,-0.35570824717880845,0.39914349114132114,0.9910105352820153,0.028518461653627897,-0.1306453731213247,0.00407465175859264
1753104158.951376,1.6192594711259043,-1.2231121487455647,2.521821327372264,-1.7611939180036416,-1.7344348594662469,-2.2311750000000004,0.0007285481464747,-1.1441966492631472e-05,-0.0128209713642784,-0.0035321541262224,-0.0017584204805332,-0.013,0.7656538494514475,-0.35572769611793265,0.39914333937793156,0.9910106708874027,0.028518588099594303,-0.1306443252955955,0.004074381936452318
1753104158.9531784,1.6192609842643626,-1.2231121725096488,2.521794699200969,-1.7612012540160578,-1.734438511570322,-2.231202,0.0007845903115882,-1.2322117761295432e-05,-0.0138071999307614,-0.003803858289778,-0.0018936835944204,-0.014,0.7656445181242705,-0.355748700733629,0.39914317548005795,0.9910108173299885,0.02851872465077278,-0.1306431937190189,0.004074090590098578
1753104158.9555688,1.6192609842643626,-1.2231121725096488,2.521794699200969,-1.7612012540160578,-1.734438511570322,-2.231202,0.0007845903115882,-1.2322117761295432e-05,-0.0138071999307614,-0.003803858289778,-0.0018936835944204,-0.014,0.7656445181242705,-0.355748700733629,0.39914317548005795,0.9910108173299885,0.02851872465077278,-0.1306431937190189,0.004074090590098578
1753104158.9587247,1.6192626094871507,-1.2231121980340358,2.521766098572541,-1.7612091334368003,-1.7344424342006244,-2.2312309999999997,0.0008406324767016,-1.3202269029959392e-05,-0.0147934284972443,-0.0040755624533336,-0.0020289467083076,-0.015,0.7656344949421474,-0.3557712609708279,0.3991429994492212,0.9910109746071805,0.028518871304748672,-0.13064197840895356,0.0040737777337319795
1753104158.9594967,1.6192643467942691,-1.223112225318725,2.52173552548698,-1.761217556265871,-1.7344466273571548,-2.231261999999999,0.000896674641815,-1.4082420298623352e-05,-0.0157796570637273,-0.0043472666168892,-0.0021642098221947,-0.016,0.7656237797667615,-0.3557953767703742,0.3991428112870532,0.9910111427161945,0.028519028058928114,-0.13064067938404578,0.004073443382603707
1753104158.9615915,1.619266196185718,-1.2231122543637172,2.5217029799442865,-1.761226522503268,-1.7344510910399134,-2.231295,0.0009527168069285,-1.4962571567287311e-05,-0.0167658856302103,-0.0046189707804447,-0.0022994729360819,-0.017,0.7656123724502579,-0.35582104806902437,0.39914261099530035,0.9910113216540543,0.02851919491053917,-0.13063929666422935,0.004073087553013777
1753104158.9636395,1.6192681576614971,-1.2231122851690115,2.52166846194446,-1.7612360321489922,-1.734455825248899,-2.23133,0.0010087589720419,-1.584272283595127e-05,-0.0177521141966932,-0.0048906749440003,-0.0024347360499691,-0.018,0.7656002728352483,-0.35584827479944686,0.39914239857581935,0.9910115114175919,0.02851937185662936,-0.13063783027072465,0.004072710262311628
1753104158.9654484,1.6192702312216063,-1.2231123177346088,2.5216319714874995,-1.7612460852030445,-1.7344608299841129,-2.231367,0.0010648011371554,-1.672287410461523e-05,-0.0187383427631762,-0.0051623791075559,-0.0025699991638563,-0.019,0.765587480754808,-0.35587705689022076,0.3991421740305823,0.9910117120034471,0.028519558894067758,-0.13063628022603974,0.00407231152889654
1753104158.9675386,1.6192724168660455,-1.2231123520605074,2.5215935085734067,-1.7612566816654225,-1.7344661052455548,-2.231406,0.0011208433022688,-1.760302537327919e-05,-0.0197245713296591,-0.0054340832711115,-0.0027052622777434,-0.02,0.7655739960324798,-0.35590739426583035,0.39914193736167064,0.9910119234080673,0.028519756019545754,-0.13063464655397267,0.004071891372214209
1753104158.9690864,1.6192747145948154,-1.22311238814671,2.5215530732021807,-1.7612678215361282,-1.734471651033224,-2.2314469999999997,0.0011768854673823,-1.848317664194315e-05,-0.0207107998961421,-0.005705787434667,-0.0028405253916306,-0.021,0.7655598184822714,-0.3559392868466675,0.39914168857128185,0.9910121456277088,0.028519963229574584,-0.13063292927960646,0.004071449812760029
1753104158.971535,1.6192771244079152,-1.2231124259932145,2.521510665373822,-1.7612795048151613,-1.734477467347121,-2.23149,0.0012329276324957,-1.936332791060711e-05,-0.0216970284626251,-0.0059774915982226,-0.0029757885055178,-0.022,0.7655449479086605,-0.35597273454902834,0.39914142766172284,0.9910123786584352,0.028520180520487628,-0.13063112842931512,0.004070986872075476
1753104158.973215,1.6192796463053454,-1.2231124656000212,2.5214662850883305,-1.7612917315025216,-1.7344835541872463,-2.231534999999999,0.0012889697976092,-2.024347917927107e-05,-0.022683257029108,-0.0062491957617782,-0.003111051619405,-0.023,0.7655293841065911,-0.35600773728511037,0.3991411546354148,0.9910126224961184,0.028520407888437956,-0.13062924403076132,0.004070502572749323
1753104158.9758046,1.6192822802871056,-1.223112506967131,2.521419932345706,-1.7613045015982085,-1.7344899115535988,-2.2315819999999995,0.0013450119627226,-2.112363044793503e-05,-0.023669485595591,-0.0065208999253338,-0.0032463147332921,-0.024,0.7655131268614767,-0.35604429496301193,0.3991408694948917,0.991012877136438,0.028520645329401483,-0.130627276112896,0.004069996938415887
1753104158.9773571,1.6192850263531962,-1.2231125500945428,2.521371607145948,-1.7613178151022222,-1.734496539446179,-2.231631,0.001401054127836,-2.200378171659899e-05,-0.0246557141620739,-0.0067926040888893,-0.0033815778471793,-0.025,0.7654961759492014,-0.3560824074867286,0.39914057224279914,0.991013142574882,0.028520892839173924,-0.1306252247059609,0.004069469993755394
1753104158.9877317,1.6192971314608606,-1.2231127402072168,2.521158581775588,-1.761376503201551,-1.7345257562787788,-2.231847,0.0016252227882898,-2.552438679125483e-05,-0.0286006284280058,-0.0078794207431116,-0.003922630302728,-0.029,0.7654214308126794,-0.356250403975948,0.39913926217559836,0.9910143122129366,0.02852198347601174,-0.1306161848374997,0.004067149642007971
1753104158.9881115,1.6192971314608606,-1.2231127402072168,2.521158581775588,-1.761376503201551,-1.7345257562787788,-2.231847,0.0016252227882898,-2.552438679125483e-05,-0.0286006284280058,-0.0078794207431116,-0.003922630302728,-0.029,0.7654214308126794,-0.356250403975948,0.39913926217559836,0.9910143122129366,0.02852198347601174,-0.1306161848374997,0.004067149642007971
1753104158.989431,1.6193004379486025,-1.223112792136142,2.521100394290165,-1.7613925337472,-1.734533736802498,-2.2319060000000004,0.0016812649534033,-2.640453805991879e-05,-0.0295868569944887,-0.0081511249066672,-0.0040578934166152,-0.03,0.7654010078693816,-0.3562962891449296,0.39913890440929056,0.9910146315675987,0.02852228126050815,-0.1306137164839954,0.004066516552463709
1753104158.9924414,1.6193073871770765,-1.2231129012748996,2.520978101947921,-1.761426225063481,-1.7345505094286209,-2.23203,0.0017933492836301,-2.816484059724671e-05,-0.0315593141274547,-0.0086945332337784,-0.0043284196443895,-0.032,0.765358076056204,-0.35639272190862076,0.39913815260012186,0.9910153025721238,0.0285229069435304,-0.1306085299747102,0.004065186984373653
1753104158.9940152,1.6193073871770765,-1.2231129012748996,2.520978101947921,-1.761426225063481,-1.7345505094286209,-2.23203,0.0017933492836301,-2.816484059724671e-05,-0.0315593141274547,-0.0086945332337784,-0.0043284196443895,-0.032,0.765358076056204,-0.35639272190862076,0.39913815260012186,0.9910153025721238,0.0285229069435304,-0.1306085299747102,0.004065186984373653
1753104158.9954226,1.6193110299178088,-1.223112958484732,2.5209139970911,-1.7614438858341126,-1.7345593015310232,-2.2320949999999997,0.0018493914487436,-2.9044991865910668e-05,-0.0325455426939376,-0.0089662373973339,-0.0044636827582767,-0.033,0.7653355665952103,-0.3564432692496266,0.3991377585642416,0.9910156542100823,0.028523234830965125,-0.13060581189878184,0.004064490570825685
1753104158.9975052,1.6193147847428715,-1.2231130174548674,2.5208479197771454,-1.7614620900130706,-1.734568364159653,-2.232162,0.001905433613857,-2.992514313457463e-05,-0.0335317712604206,-0.0092379415608895,-0.0045989458721639,-0.034,0.7653123610213362,-0.35649537038739537,0.3991373524456723,0.9910160165969151,0.028523572741323097,-0.1306030106640545,0.004063773116006287
1753104158.999546,1.6193186516522642,-1.223113078185305,2.5207798700060584,-1.761480837600356,-1.7345776973145115,-2.232231,0.0019614757789705,-3.080529440323859e-05,-0.0345179998269035,-0.0095096457244451,-0.004734208986051,-0.035,0.7652884590152267,-0.35654902518475673,0.3991369342481851,0.9910163897261899,0.028523920668611404,-0.1306001263136889,0.004063034655012013
1753104159.0013764,1.6193226306459874,-1.2231131406760447,2.520709847777838,-1.7615001285959684,-1.7345873009955977,-2.232302,0.0020175179440839,-3.1685445671902546e-05,-0.0355042283933865,-0.0097813498880007,-0.0048694720999382,-0.036,0.7652638602480079,-0.3566042335004088,0.39913650397566386,0.9910167735912825,0.028524278606657977,-0.13059715889214032,0.004062275223974784
1753104159.0032296,1.6193267217240406,-1.2231132049270874,2.520637853092485,-1.761519962999908,-1.7345971752029117,-2.2323749999999998,0.0020735601091974,-3.256559694056651e-05,-0.0364904569598695,-0.0100530540515562,-0.0050047352138254,-0.037,0.7652385643812917,-0.3566609951889114,0.39913606163210646,0.9910171681853771,0.028524646549112624,-0.13059410844515898,0.004061494860063905
1753104159.0058117,1.619330924886424,-1.2231132709384325,2.5205638859499984,-1.761540340812175,-1.734607319936453,-2.23245,0.0021296022743108,-3.344574820923047e-05,-0.0374766855263524,-0.0103247582151118,-0.0051399983277126,-0.038,0.7652125710671741,-0.356719310100687,0.3991356072216216,0.991017573501465,0.028525024489445033,-0.13059097501979122,0.0040606936014824626
1753104159.0074697,1.6193352401331378,-1.22311333871008,2.520487946350379,-1.7615612620327683,-1.7346177351962222,-2.2325269999999997,0.0021856444394243,-3.432589947789443e-05,-0.0384629140928354,-0.0105964623786674,-0.0052752614415997,-0.039,0.7651858799482396,-0.35677917808201204,0.39913514074843065,0.9910179895323463,0.028525412420946892,-0.1305877586643802,0.004059871487468539
1753104159.0093863,1.6193352401331378,-1.22311333871008,2.520487946350379,-1.7615612620327683,-1.7346177351962222,-2.2325269999999997,0.0021856444394243,-3.432589947789443e-05,-0.0384629140928354,-0.0105964623786674,-0.0052752614415997,-0.039,0.7651858799482396,-0.35677917808201204,0.39913514074843065,0.9910179895323463,0.028525412420946892,-0.1305877586643802,0.004059871487468539
1753104159.0112774,1.6193396674641818,-1.22311340824203,2.520410034293627,-1.7615827266616897,-1.7346284209822196,-2.232606,0.0022416866045377,-3.5206050746558385e-05,-0.0394491426593183,-0.010868166542223,-0.0054105245554869,-0.04,0.7651584906575608,-0.3568405989750175,0.3991346622168687,0.9910184162706287,0.02852581033673117,-0.1305844594285649,0.004059028558293462
1753104159.0133886,1.619344206879556,-1.223113479534283,2.520330149779742,-1.7616047346989374,-1.7346393772944442,-2.2326870000000003,0.0022977287696511,-3.6086202015222347e-05,-0.0404353712258013,-0.0111398707057786,-0.0055457876693741,-0.041,0.7651304028187002,-0.35690357261768313,0.3991341716313821,0.9910188537087281,0.028526218229730622,-0.13058107736328264,0.004058164855259343
1753104159.017913,1.619344206879556,-1.223113479534283,2.520330149779742,-1.7616047346989374,-1.7346393772944442,-2.2326870000000003,0.0022977287696511,-3.6086202015222347e-05,-0.0404353712258013,-0.0111398707057786,-0.0055457876693741,-0.041,0.7651304028187002,-0.35690357261768313,0.3991341716313821,0.9910188537087281,0.028526218229730622,-0.13058107736328264,0.004058164855259343
1753104159.0191004,1.6193536219632951,-1.2231136273996963,2.520164463380573,-1.7616503809984143,-1.7346621014975767,-2.232855,0.002409813099878,-3.784650455255027e-05,-0.0424078283587672,-0.0116832790328897,-0.0058163138971484,-0.043,0.7650721299431467,-0.3570341774831346,0.3991331543169853,0.9910197606530815,0.02852706391821585,-0.13057406495455728,0.004056375297980001
1753104159.022153,1.61935849763166,-1.2231137039728566,2.520078661495289,-1.761674019260644,-1.7346738693884856,-2.2329419999999995,0.0024658552649915,-3.8726655821214224e-05,-0.0433940569252502,-0.0119549831964453,-0.0059515770110356,-0.044,0.7650419441060451,-0.35710180836109023,0.39913262759753143,0.9910202301432071,0.028527501698674188,-0.13057043471948201,0.004055449531491005
1753104159.023445,1.619363485384355,-1.223113782306319,2.519990887152872,-1.7616982009312006,-1.7346859078056216,-2.2330310000000004,0.0025218974301049,-3.9606807089878186e-05,-0.0443802854917331,-0.0122266873600009,-0.0060868401249228,-0.045,0.7650110581199486,-0.3571709912990366,0.39913208884306484,0.991020710300893,0.02852794942629367,-0.1305667218716765,0.004054503166652181
1753104159.02536,1.6193685852213804,-1.2231138624000852,2.519901140353322,-1.7617229260100835,-1.7346982167489848,-2.233122,0.0025779395952184,-4.048695835854215e-05,-0.0453665140582161,-0.0124983915235564,-0.00622210323881,-0.046,0.7649794715608955,-0.3572417261141385,0.39913153805859664,0.9910212011175955,0.02852840709311184,-0.130562926468575,0.004053536249910072
1753104159.027667,1.619373797142736,-1.2231139442541528,2.519809421096639,-1.7617481944972946,-1.734710796218577,-2.2332149999999995,0.0026339817603318,-4.136710962720611e-05,-0.0463527426246991,-0.012770095687112,-0.0063573663526971,-0.047,0.764947183995426,-0.3573140126193857,0.3991309752492466,0.9910217025845782,0.028528874690989917,-0.1305590485689145,0.004052548828736212
1753104159.0291076,1.6193791211484216,-1.2231140278685233,2.519715729382823,-1.761774006392832,-1.7347236462143956,-2.2333099999999995,0.0026900239254452,-4.2247260895870063e-05,-0.047338971191182,-0.0130417998506676,-0.0064926294665843,-0.048,0.7649141949805819,-0.35738785062358724,0.3991304004202505,0.9910222146929133,0.028529352211608867,-0.13055508823273249,0.0040515409516246196
1753104159.0310545,1.6193845572384378,-1.2231141132431969,2.5196200652118743,-1.7618003616966975,-1.734736766736443,-2.233407,0.0027460660905587,-4.3127412164534025e-05,-0.048325199757665,-0.0133135040142232,-0.0066278925804715,-0.049,0.7648805040639087,-0.3574632399313683,0.39912981357695476,0.9910227374334806,0.02852983964647086,-0.13055104552137065,0.004050512668094321
1753104159.0330212,1.619390105412784,-1.2231142003781716,2.5195224285837927,-1.7618272604088894,-1.7347501577847178,-2.233506,0.0028021082556721,-4.400756343319799e-05,-0.0493114283241479,-0.0135852081777787,-0.0067631556943587,-0.05,0.7648461107834592,-0.35754018034316415,0.39912921472481766,0.991023270796968,0.02853033698689884,-0.13054692049747485,0.0040494640286827185
1753104159.0354445,1.6193957656714604,-1.2231142892734503,2.519422819498578,-1.7618547025294085,-1.7347638193592203,-2.2336069999999992,0.0028581504207856,-4.488771470186195e-05,-0.0502976568906309,-0.0138569123413343,-0.0068984188082458,-0.051,0.7648110146677934,-0.35761867165521627,0.39912860386941285,0.9910238147738716,0.028530844224036386,-0.13054271322499378,0.004048395084949933
1753104159.037102,1.619401538014467,-1.2231143799290312,2.51932123795623,-1.7618826880582548,-1.7347777514599505,-2.2337100000000003,0.002914192585899,-4.57678659705259e-05,-0.0512838854571139,-0.0141286165048899,-0.007033681922133,-0.052,0.7647752152359822,-0.35769871365956757,0.39912798101642316,0.9910243693544954,0.028531361348850554,-0.13053842376918304,0.004047305889472612
1753104159.0391831,1.619407422441804,-1.223114472344914,2.5192176839567493,-1.7619112169954283,-1.7347919540869086,-2.233815,0.0029702347510125,-4.664801723918986e-05,-0.0522701140235968,-0.0144003206684455,-0.0071689450360202,-0.053,0.7647387119976089,-0.3577803061440567,0.3991273461716454,0.9910249345289518,0.028531888352126132,-0.1305340521966038,0.004046196495845804
1753104159.0410218,1.619413418953471,-1.2231145665211,2.5191121575001354,-1.7619402893409282,-1.7348064272400947,-2.233922,0.0030262769161259,-4.752816850785383e-05,-0.0532563425900798,-0.014672024832001,-0.0073042081499073,-0.054,0.7647015044527699,-0.35786344889231325,0.3991266993409892,0.9910255102871605,0.028532425224471615,-0.13052959857512414,0.004045066958680048
1753104159.0428984,1.6194195275494685,-1.2231146624575882,2.519004658586389,-1.7619699050947562,-1.734821170919508,-2.234031,0.0030823190812394,-4.840831977651779e-05,-0.0542425711565627,-0.0149437289955566,-0.0074394712637945,-0.055,0.76466359209208,-0.35794814168375344,0.39912604053047557,0.9910260966188497,0.028532971956314733,-0.13052506297391944,0.004043917333600143
1753104159.0450027,1.619425748229796,-1.2231147601543793,2.518895187215509,-1.7620000642569105,-1.7348361851251504,-2.2341420000000003,0.0031383612463528,-4.928847104518174e-05,-0.0552287997230457,-0.0152154331591122,-0.0075747343776817,-0.056,0.7646249743966711,-0.35803438429357387,0.39912536974623886,0.9910266935135554,0.02853352853790571,-0.13052044546347483,0.004042747677244343
1753104159.0470135,1.6194320809944538,-1.2231148596114725,2.518783743387497,-1.762030766827392,-1.734851469857019,-2.234254999999999,0.0031944034114662,-5.01686223138457e-05,-0.0562150282895287,-0.0154871373226678,-0.0077099974915689,-0.057,0.7645856508381979,-0.35812217649274575,0.3991246869945252,0.9910273009606224,0.028534094959314412,-0.1305157461155835,0.004041558047260996
1753104159.0488915,1.6194385258434418,-1.2231149608288678,2.518670327102351,-1.7620620128062008,-1.7348670251151166,-2.23437,0.0032504455765797,-5.104877358250967e-05,-0.0572012568560116,-0.0157588414862233,-0.007845260605456,-0.058,0.7645456208788353,-0.35821151804801266,0.39912399228169304,0.9910279189492022,0.028534671210433474,-0.13051096500335047,0.0040403485023099515
1753104159.051467,1.61944508277676,-1.223115063806567,2.5185549383600727,-1.7620938021933377,-1.7348828508994414,-2.234487,0.0033064877416931,-5.1928924851173626e-05,-0.0581874854224946,-0.0160305456497789,-0.0079805237193432,-0.059,0.7645048839712872,-0.35830240872187985,0.39912328561421573,0.9910285474682556,0.028535257280974554,-0.1305061022011894,0.004039119102059195
1753104159.0546408,1.6194517517944087,-1.2231151685445676,2.518437577160661,-1.7621261349888009,-1.7348989472099934,-2.2346059999999994,0.0033625299068066,-5.280907611983758e-05,-0.0591737139889775,-0.0163022498133345,-0.0081157868332304,-0.06,0.7644634395587832,-0.3583948482726132,0.39912256699867404,0.9910291865065506,0.028535853160471303,-0.13050115778483004,0.004037869907181404
1753104159.0583944,1.6194517517944087,-1.2231151685445676,2.518437577160661,-1.7621261349888009,-1.7348989472099934,-2.2346059999999994,0.0033625299068066,-5.280907611983758e-05,-0.0591737139889775,-0.0163022498133345,-0.0081157868332304,-0.06,0.7644634395587832,-0.3583948482726132,0.39912256699867404,0.9910291865065506,0.028535853160471303,-0.13050115778483004,0.004037869907181404
1753104159.0601697,1.6194654260826964,-1.2231153833014776,2.51819693739044,-1.762192430804708,-1.7349319514097823,-2.23485,0.0034746142370335,-5.4569378657165504e-05,-0.0611461711219435,-0.0168456581404456,-0.0083863130610047,-0.062,0.7643784259444831,-0.35858437301649676,0.39912109395029916,0.9910304960949791,0.028537074303574807,-0.13049102441899021,0.004035312381270016
1753104159.0607474,1.6194724313533355,-1.2231154933203854,2.518073658819629,-1.762226393825152,-1.734948859299018,-2.2349750000000004,0.0035306564021469,-5.544952992582946e-05,-0.0621323996884264,-0.0171173623040012,-0.0085215761748919,-0.063,0.7643348555818089,-0.3586814577049215,0.3991203395311941,0.9910311666216892,0.028537699545352967,-0.13048583562753444,0.004034004176603155
1753104159.0613286,1.6194724313533355,-1.2231154933203854,2.518073658819629,-1.762226393825152,-1.734948859299018,-2.2349750000000004,0.0035306564021469,-5.544952992582946e-05,-0.0621323996884264,-0.0171173623040012,-0.0085215761748919,-0.063,0.7643348555818089,-0.3586814577049215,0.3991203395311941,0.9910311666216892,0.028537699545352967,-0.13048583562753444,0.004034004176603155
1753104159.063702,1.619479548708305,-1.223115605099597,2.517948407791686,-1.7622609002539242,-1.7349660377144822,-2.2351019999999995,0.0035866985672603,-5.632968119449342e-05,-0.0631186282549094,-0.0173890664675568,-0.0086568392887791,-0.064,0.7642905753924283,-0.35878009026074403,0.3991195731914859,0.9910318476207947,0.028538334552432185,-0.1304805655379288,0.004032676430043916
1753104159.0649955,1.6194867781476046,-1.2231157186391108,2.517821184306609,-1.7622959500910227,-1.7349834866561729,-2.235231,0.0036427407323738,-5.7209832463157375e-05,-0.0641048568213923,-0.0176607706311124,-0.0087921024026663,-0.065,0.7642455847722478,-0.3588802704209375,0.39911879493831837,0.9910325390801041,0.02853897931345205,-0.13047521423247682,0.0040313292072736194
1753104159.0670063,1.6194941196712345,-1.2231158339389268,2.5176919883644,-1.7623315433364484,-1.7350012061240925,-2.2353620000000003,0.0036987828974872,-5.8089983731821336e-05,-0.0650910853878753,-0.0179324747946679,-0.0089273655165534,-0.066,0.7641998831077171,-0.358981997918196,0.39911800477894943,0.9910332409872338,0.028539633816871683,-0.130469781794799,0.004029962574974065
1753104159.0692444,1.6195015732791946,-1.2231159509990457,2.517560819965058,-1.7623676799902013,-1.7350191961182393,-2.235495,0.0037548250626007,-5.89701350004853e-05,-0.0660773139543583,-0.0182041789582235,-0.0090626286304406,-0.067,0.7641534697758324,-0.3590852724809297,0.3991172027207507,0.9910339533296085,0.028540298050972406,-0.1304642683098335,0.004028576600820179
1753104159.0712097,1.6195091389714849,-1.2231160698194667,2.517427679108583,-1.7624043600522814,-1.7350374566386142,-2.2356300000000005,0.0038108672277141,-5.985028626914926e-05,-0.0670635425208412,-0.0184758831217791,-0.0091978917443278,-0.068,0.7641063441441371,-0.3591900938332614,0.3991163887712037,0.9910346760944608,0.028540972003856257,-0.1304586738638399,0.004027171353480389
1753104159.0729847,1.619516816748105,-1.2231161904001908,2.5172925657949747,-1.7624415835226888,-1.7350559876852163,-2.235766999999999,0.0038669093928276,-6.0730437537813214e-05,-0.0680497710873242,-0.0187475872853347,-0.009333154858215,-0.069,0.7640585055707264,-0.35929646169501556,0.3991155629379046,0.9910354092688317,0.028541655663444954,-0.13045299854439765,0.004025746902614734
1753104159.0750508,1.6195246066090565,-1.223116312741217,2.517155480024233,-1.7624793504014225,-1.7350747892580465,-2.235906,0.003922951557941,-6.161058880647718e-05,-0.0690359996538071,-0.0190192914488902,-0.0094684179721021,-0.07,0.7640099534042488,-0.3594043757817148,0.3991147252285589,0.9910361528395696,0.028542349017484165,-0.13044724244040998,0.0040243033188716755
1753104159.0770288,1.6195325085543373,-1.2231164368425451,2.517016421796359,-1.7625176606884845,-1.7350938613571056,-2.2360469999999992,0.0039789937230545,-6.249074007514114e-05,-0.0700222282202901,-0.0192909956124458,-0.0096036810859893,-0.071,0.7639606869839111,-0.35951383580457197,0.39911387565098777,0.9910369067933315,0.02854305205353764,-0.13044140564210094,0.004022840673889949
1753104159.07957,1.6195405225839483,-1.2231165627041776,2.5168753911113524,-1.7625565143838724,-1.735113203982391,-2.23619,0.0040350358881679,-6.337089134380509e-05,-0.0710084567867731,-0.0195626997760014,-0.0097389441998765,-0.072,0.7639107056394776,-0.3596248414704827,0.39911301421312406,0.9910376711165824,0.02854376475899258,-0.13043548824101925,0.004021359040290611
1753104159.0816216,1.6195405225839483,-1.2231165627041776,2.5168753911113524,-1.7625565143838724,-1.735113203982391,-2.23619,0.0040350358881679,-6.337089134380509e-05,-0.0710084567867731,-0.0195626997760014,-0.0097389441998765,-0.072,0.7639107056394776,-0.3596248414704827,0.39911301421312406,0.9910376711165824,0.02854376475899258,-0.13043548824101925,0.004021359040290611
1753104159.083285,1.6195568868961616,-1.2231168197083475,2.516587412369939,-1.7626358519996312,-1.7351527008116463,-2.236482,0.0041471202183948,-6.513119388113301e-05,-0.072980913919739,-0.0201061081031125,-0.0100094704276508,-0.074,0.7638085954502023,-0.3598514885374309,0.39911125578880263,0.9910392308164507,0.028545219126751818,-0.130423412003365,0.00401833910264826
1753104159.084977,1.6195652371787634,-1.223116950850887,2.516440464313533,-1.7626763359200002,-1.7351728550156151,-2.236631,0.0042031623835082,-6.601134514979697e-05,-0.0739671424862219,-0.0203778122666681,-0.010144733541538,-0.075,0.7637564652177158,-0.35996712933061636,0.39911035881877205,0.9910400261650384,0.028545960762933788,-0.13041725335652116,0.004016800948761292
1753104159.0869975,1.6195736995456955,-1.2231170837537275,2.516291543799994,-1.7627173632486972,-1.735193279745812,-2.236782,0.0042592045486217,-6.689149641846094e-05,-0.0749533710527049,-0.0206495164302237,-0.0102799966554252,-0.076,0.7637036172858515,-0.3600843145511398,0.39910945002129783,0.9910408318270553,0.028546712016270043,-0.13041101448636633,0.004015244106565723
1753104159.0889628,1.619582273996958,-1.2231172184168724,2.5161406508293225,-1.7627589339857217,-1.735213975002237,-2.236935,0.0043152467137351,-6.777164768712489e-05,-0.0759395996191878,-0.0209212205937793,-0.0104152597693124,-0.077,0.7636500509372165,-0.3602030438842101,0.3991085294048753,0.9910416477880065,0.028547472873251784,-0.13040469549108627,0.004013668653583895
1753104159.090825,1.6195909605325505,-1.2231173548403191,2.5159877854015176,-1.762801048131072,-1.7352349407848893,-2.23709,0.0043712888788486,-6.865179895578886e-05,-0.0769258281856708,-0.0211929247573348,-0.0105505228831995,-0.078,0.7635957654449986,-0.3603233170106785,0.39910759697810916,0.9910424740332054,0.028548243320190608,-0.13039829647019985,0.0040120746683096915
1753104159.0928876,1.6195997591524731,-1.223117493024068,2.51583294751658,-1.7628437056847508,-1.7352561770937696,-2.237247,0.004427331043962,-6.953195022445282e-05,-0.0779120567521538,-0.0214646289208904,-0.0106857859970867,-0.079,0.7635407600729646,-0.3604451336070285,0.39910665274971713,0.9910433105477737,0.028549023343219723,-0.13039181752455625,0.004010462230210903
1753104159.094809,1.6196086698567262,-1.22311763296812,2.515676137174509,-1.7628869066467558,-1.735277683928878,-2.237406,0.0044833732090754,-7.041210149311677e-05,-0.0788982853186367,-0.021736333084446,-0.0108210491109739,-0.08,0.7634850340754654,-0.3605684933453698,0.3991056967285299,0.9910441573166405,0.028549812928292697,-0.13038525875633933,0.0040088314197233715
1753104159.0968451,1.6196176926453096,-1.223117774672474,2.515517354375305,-1.762930651017088,-1.7352994612902135,-2.2375670000000003,0.0045394153741889,-7.129225276178074e-05,-0.0798845138851197,-0.0220080372480016,-0.0109563122248611,-0.081,0.7634285866974411,-0.3606933958934304,0.3991047289234892,0.9910450143245435,0.02855061206118443,-0.13037862026906658,0.0040071823182501656
1753104159.0991054,1.619626827518223,-1.223117918137131,2.5153565991189684,-1.7629749387957483,-1.7353215091777772,-2.23773,0.0045954575393023,-7.217240403044469e-05,-0.0808707424516027,-0.0222797414115572,-0.0110915753387482,-0.082,0.7633714171744214,-0.36081984091454855,0.399103749343651,0.9910458815560282,0.028551420727490583,-0.13037190216759098,0.004005515008161005
1753104159.1010382,1.6196360744754668,-1.2231180633620902,2.515193871405499,-1.7630197699827352,-1.735343827591569,-2.237895,0.0046514997044158,-7.305255529910865e-05,-0.0818569710180856,-0.0225514455751127,-0.0112268384526354,-0.083,0.7633135247325304,-0.3609478280676649,0.3991027579981813,0.9910467589954486,0.02855223891262838,-0.13036510455810424,0.0040038295727864315
1753104159.1029112,1.6196454335170407,-1.2231182103473524,2.515029171234896,-1.7630651445780483,-1.735366416531588,-2.2380619999999998,0.0047075418695292,-7.393270656777262e-05,-0.0828431995845686,-0.0228231497386683,-0.0113621015665226,-0.084,0.7632549085884901,-0.36107735700731497,0.3991017548963597,0.9910476466269662,0.028553066601835188,-0.130358227548135,0.004002126096418252
1753104159.1048985,1.619654904642945,-1.2231183590929169,2.5148624986071604,-1.7631110625816897,-1.7353892759978349,-2.238231,0.0047635840346427,-7.481285783643657e-05,-0.0838294281510515,-0.0230948539022239,-0.0114973646804097,-0.085,0.7631955679496241,-0.36120842738362147,0.39910074004757723,0.9910485444345511,0.02855390378016963,-0.1303512712465511,0.004000404664307376
1753104159.1071026,1.6196644878531794,-1.223118509598784,2.514693853522292,-1.763157523993657,-1.735412405990309,-2.238402,0.0048196261997561,-7.569300910510054e-05,-0.0848156567175345,-0.0233665580657795,-0.0116326277942969,-0.086,0.7631355020138595,-0.3613410388422839,0.3990997134613372,0.9910494524019814,0.028554750432511586,-0.13034423576356283,0.003998665362659434
1753104159.1090708,1.619674183147744,-1.2231186618649534,2.5145232359802905,-1.7632045288139526,-1.7354358065090114,-2.238575,0.0048756683648696,-7.65731603737645e-05,-0.0858018852840175,-0.023638262229335,-0.0117678909081841,-0.087,0.7630747099697333,-0.3614751910245732,0.39909867514725555,0.991050370512843,0.028555606543561894,-0.13033712121072075,0.00399690827863547
1753104159.113699,1.619674183147744,-1.2231186618649534,2.5145232359802905,-1.7632045288139526,-1.7354358065090114,-2.238575,0.0048756683648696,-7.65731603737645e-05,-0.0858018852840175,-0.023638262229335,-0.0117678909081841,-0.087,0.7630747099697333,-0.3614751910245732,0.39909867514725555,0.991050370512843,0.028555606543561894,-0.13033712121072075,0.00399690827863547
1753104159.116837,1.6197039415374193,-1.2231191292252763,2.513999548611488,-1.763348803724801,-1.735507631222486,-2.239106,0.0050437948602099,-7.921361417975637e-05,-0.0887605709834663,-0.0244533747200018,-0.0121736802498456,-0.09,0.7628879689317385,-0.3618868882592861,0.39909548993579963,0.9910531855389981,0.028558231473280377,-0.13031530426875051,0.00399153121816067
1753104159.1175668,1.6197140851693048,-1.223119288532656,2.5138210412409543,-1.7633979821784038,-1.7355321138460995,-2.239287,0.0050998370253233,-8.009376544842033e-05,-0.0897467995499493,-0.0247250788835573,-0.0123089433637328,-0.091,0.7628242641518131,-0.362027199659899,0.3990944048087516,0.9910541440556081,0.02855912526258731,-0.13030787457889964,0.003989703895221776
1753104159.1190088,1.6197140851693048,-1.223119288532656,2.5138210412409543,-1.7633979821784038,-1.7355321138460995,-2.239287,0.0050998370253233,-8.009376544842033e-05,-0.0897467995499493,-0.0247250788835573,-0.0123089433637328,-0.091,0.7628242641518131,-0.362027199659899,0.3990944048087516,0.9910541440556081,0.02855912526258731,-0.13030787457889964,0.003989703895221776
1753104159.120948,1.6197243408855204,-1.223119449600338,2.513640561413288,-1.763447704040335,-1.7355568669959407,-2.23947,0.0051558791904368,-8.09739167170843e-05,-0.0907330281164322,-0.0249967830471129,-0.01244420647762,-0.092,0.762759829065456,-0.362169049923749,0.39909330800362264,0.9910551126307015,0.028560028431419394,-0.13030036639713097,0.003987859239928875
1753104159.122956,1.6197347086860665,-1.2231196124283228,2.513458109128489,-1.7634979693105928,-1.7355818906720095,-2.239655,0.0052119213555502,-8.185406798574825e-05,-0.0917192566829152,-0.0252684872106685,-0.0125794695915071,-0.093,0.7626946628049291,-0.3623124386653492,0.39909219953070146,0.9910560912467129,0.02856094096340304,-0.13029277984307733,0.003985997345113321
1753104159.124906,1.6197451885709426,-1.2231197770166098,2.5132736843865566,-1.7635487779891772,-1.7356071848743069,-2.2398419999999994,0.0052679635206637,-8.273421925441222e-05,-0.0927054852493982,-0.0255401913742241,-0.0127147327053943,-0.094,0.7626287644931288,-0.3624573654947231,0.3990910794003883,0.9910570798858853,0.02856186284198477,-0.1302851150377233,0.003984118304543534
1753104159.1268926,1.6197557805401492,-1.2231199433651998,2.513087287187491,-1.7636001300760895,-1.735632749602832,-2.240031,0.0053240056857771,-8.361437052307617e-05,-0.0936917138158811,-0.0258118955377796,-0.0128499958192815,-0.095,0.7625621332435901,-0.36260383001739427,0.3990899476231967,0.9910580785302697,0.028562794050433646,-0.1302773721034049,0.003982222212922111
1753104159.1288517,1.619766484593686,-1.223120111474092,2.512898917531293,-1.7636520255713286,-1.7356585848575836,-2.2402219999999997,0.0053800478508905,-8.449452179174013e-05,-0.0946779423823641,-0.0260835997013352,-0.0129852589331687,-0.096,0.7624947681604904,-0.3627518318343774,0.3990888042097503,0.9910590871617252,0.02856373457183762,-0.13026955116381395,0.003980309165881652
1753104159.1308455,1.6197773007315528,-1.223120281343287,2.5127085754179617,-1.7637044644748947,-1.735684690638564,-2.2404150000000005,0.005436090016004,-8.53746730604041e-05,-0.095664170948847,-0.0263553038648908,-0.0131205220470558,-0.097,0.7624266683386521,-0.3629013705421714,0.3990876491707872,0.9910601057619188,0.028564684389107427,-0.13026165234399786,0.003978379259986156
1753104159.1335838,1.6197882289537495,-1.2231204529727844,2.5125162608474976,-1.763757446786788,-1.7357110669457718,-2.24061,0.0054921321811174,-8.625482432906805e-05,-0.09665039951533,-0.0266270080284464,-0.013255785160943,-0.098,0.7623578328635495,-0.36305244573274664,0.39908648251715595,0.9910611343123261,0.028565643484973015,-0.1302536757703613,0.003976432592723808
1753104159.1355178,1.6197992692602772,-1.223120626362585,2.5123219738199003,-1.7638109725070086,-1.7357377137792085,-2.240807,0.0055481743462309,-8.7134975597732e-05,-0.097636628081813,-0.0268987121920019,-0.0133910482748302,-0.099,0.7622882608113095,-0.36320505699353806,0.3990853042598174,0.9910621727942304,0.028566611841986656,-0.13024562157066805,0.003974469262507265
1753104159.1367435,1.6198104216511346,-1.223120801512687,2.5121257143351703,-1.7638650416355564,-1.7357646311388717,-2.2410060000000005,0.0056042165113443,-8.801512686639597e-05,-0.0986228566482959,-0.0271704163555575,-0.0135263113887174,-0.1,0.7622179512487199,-0.3633592039074346,0.39908411440984415,0.9910632211887233,0.028567589442521014,-0.13023748987404138,0.003972489368668631
1753104159.1388085,1.6198216861263226,-1.2231209784230916,2.511927482393307,-1.7639196541724314,-1.7357918190247634,-2.2412069999999997,0.0056602586764578,-8.889527813505993e-05,-0.0996090852147789,-0.0274421205191131,-0.0136615745026045,-0.101,0.7621469032332289,-0.3635148860527704,0.3990829129784214,0.9910642794767046,0.028568576268768835,-0.1302292808109673,0.003970493011459929
1753104159.1409595,1.6198330626858406,-1.2231211570938,2.511727277994311,-1.763974810117633,-1.7358192774368817,-2.24141,0.0057163008415712,-8.97754294037239e-05,-0.1005953137812619,-0.0277138246826687,-0.0137968376164917,-0.102,0.7620751158129528,-0.36367210300331354,0.3990816999768477,0.9910653476388823,0.028569572302745556,-0.1302209945132935,0.003968480292047122
1753104159.142877,1.6198445513296889,-1.2231213375248098,2.511525101138182,-1.7640305094711612,-1.735847006375229,-2.2416149999999995,0.0057723430066847,-9.065558067238784e-05,-0.1015815423477448,-0.0279855288462242,-0.0139321007303789,-0.103,0.7620025880266791,-0.3638308543282593,0.39908047541652986,0.9910664256557721,0.028570577526285435,-0.13021263111423528,0.0039664513125095046
1753104159.1448183,1.6198561520578674,-1.2231215197161225,2.51132095182492,-1.764086752233018,-1.7358750058398034,-2.241822,0.0058283851717981,-9.15357319410518e-05,-0.1025677709142278,-0.0282572330097798,-0.0140673638442661,-0.104,0.7619293189038708,-0.3639911395922163,0.3990792393089903,0.9910675135076985,0.028571591921045657,-0.13020419074837059,0.003964406175835942
1753104159.1467588,1.619867864870376,-1.223121703667737,2.511114830054525,-1.764143538403201,-1.735903275830606,-2.242031,0.0058844273369115,-9.241588320971576e-05,-0.1035539994807107,-0.0285289371733354,-0.0142026269581532,-0.105,0.761855307464671,-0.36415295835519995,0.39907799166586144,0.9910686111747935,0.028572615468502417,-0.13019567355164863,0.003962344985921761
1753104159.148852,1.619879689767215,-1.2231218893796552,2.5109067358269974,-1.7642008679817112,-1.7359318163476356,-2.242241999999999,0.005940469502025,-9.329603447837971e-05,-0.1045402280471937,-0.028800641336891,-0.0143378900720404,-0.106,0.7617805527199071,-0.3643163101726196,0.39907673249888903,0.991069718636998,0.028573648149953557,-0.13018707966138504,0.003960267847566556
1753104159.1509032,1.619891626748384,-1.2231220768518751,2.5106966691423365,-1.7642587409685486,-1.7359606273908943,-2.242455,0.0059965116671384,-9.41761857470437e-05,-0.1055264566136767,-0.0290723455004465,-0.0144731531859276,-0.107,0.7617050536710952,-0.3644811945952719,0.39907546181992914,0.9910708358740602,0.028574689946518933,-0.13017840921626925,0.003958174866471465
1753104159.152791,1.6199036758138836,-1.223122266084398,2.510484630000543,-1.7643171573637124,-1.7359897089603802,-2.2426700000000004,0.0060525538322519,-9.505633701570764e-05,-0.1065126851801596,-0.0293440496640021,-0.0146084162998147,-0.108,0.7616288093104451,-0.3646476111693265,0.39907417964095127,0.991071962865537,0.02857574083913713,-0.13016966235636107,0.003956066149234595
1753104159.1548283,1.6199158369637132,-1.2231224570772232,2.510270618401616,-1.7643761171672043,-1.7360190610560933,-2.242887,0.0061085959973653,-9.59364882843716e-05,-0.1074989137466426,-0.0296157538275577,-0.0147436794137019,-0.109,0.7615518186208651,-0.3648155594363188,0.39907288597403584,0.9910730995907934,0.02857680080856848,-0.13016083922309465,0.00395394180335059
1753104159.156875,1.6199281101978729,-1.2231226498303511,2.510054634345556,-1.7644356203790226,-1.7360486836780344,-2.243106,0.0061646381624788,-9.681663955303556e-05,-0.1084851423131255,-0.0298874579911133,-0.0148789425275891,-0.11,0.7614740805759651,-0.36498503893313805,0.39907158083137606,0.9910742460290025,0.028577869835394697,-0.1301519399592812,0.0039518019372055055
1753104159.1592376,1.619940495516363,-1.2231228443437816,2.5098366778323635,-1.764495666999169,-1.7360785768262037,-2.243327,0.0062206803275922,-9.769679082169952e-05,-0.1094713708796085,-0.0301591621546688,-0.0150142056414763,-0.111,0.7613955941400633,-0.36515604919201655,0.39907026422527614,0.9910754021591457,0.02857894790001812,-0.13014296470910802,0.003949646660075303
1753104159.1641898,1.6199529929191834,-1.2231230406175149,2.5096167488620376,-1.7645562570276416,-1.736108740500601,-2.24355,0.0062767224927056,-9.857694209036348e-05,-0.1104575994460914,-0.0304308663182244,-0.0151494687553634,-0.112,0.7613163582681893,-0.36532858974052107,0.3990689361681529,0.9910765679600122,0.028580034982661526,-0.1301339136181424,0.003947476082121113
1753104159.1676073,1.6199656024063338,-1.2231232386515505,2.509394847434579,-1.7646173904644415,-1.7361391747012256,-2.2437749999999994,0.0063327646578191,-9.945709335902744e-05,-0.1114438280125744,-0.03070257048178,-0.0152847318692506,-0.113,0.7612363719060902,-0.3655026601015392,0.3990675966725343,0.9910777434101998,0.028581131063368518,-0.130124786833331,0.003945290314387588
1753104159.167976,1.6199783239778147,-1.2231234384458878,2.5091709735499874,-1.7646790673095687,-1.736169879428077,-2.244002,0.0063888068229325,-0.0001003372446276,-0.1124300565790574,-0.0309742746453356,-0.0154199949831378,-0.114,0.7611556339902342,-0.36567825979327045,0.3990662457510598,0.9910789284881141,0.0285822361220048,-0.13011558450300403,0.003943089468798895
1753104159.1688726,1.6200041033737669,-1.223123843315472,2.508717308409405,-1.7648040512248038,-1.736232100460466,-2.2444620000000004,0.0065008911531594,-0.000102097547165,-0.1144025137120233,-0.0315176829724467,-0.0156905212109121,-0.116,0.7609918991967622,-0.3660340452181639,0.39906350968166776,0.9910813274397876,0.02858447309162531,-0.13009695380604222,0.003938642996139386
1753104159.170932,1.620017161198238,-1.2231240483907175,2.5084875171534144,-1.7648673582949126,-1.736263616766001,-2.244695,0.0065569333182729,-0.0001029776984336,-0.1153887422785062,-0.0317893871360023,-0.0158257843247993,-0.117,0.7609089001457361,-0.3662142299641839,0.3990621245595888,0.9910825412693992,0.02858560496144307,-0.1300875257429927,0.003936397597288458
1753104159.1730683,1.620017161198238,-1.2231240483907175,2.5084875171534144,-1.7648673582949126,-1.736263616766001,-2.244695,0.0065569333182729,-0.0001029776984336,-0.1153887422785062,-0.0317893871360023,-0.0158257843247993,-0.117,0.7609089001457361,-0.3662142299641839,0.3990621245595888,0.9910825412693992,0.02858560496144307,-0.1300875257429927,0.003936397597288458
1753104159.174895,1.62003033110704,-1.2231242552262651,2.508255753440291,-1.7649312087733475,-1.7362954035977651,-2.24493,0.0066129754833863,-0.0001038578497023,-0.1163749708449892,-0.0320610912995579,-0.0159610474386865,-0.118,0.7608251451941412,-0.3663959420666105,0.3990607280633329,0.9910837646384427,0.02858674572685688,-0.13007802274160327,0.003934137577018158
1753104159.177402,1.620043613100172,-1.223124463822116,2.5080220172700347,-1.764995602660111,-1.7363274609557564,-2.2451670000000004,0.0066690176484998,-0.000104738000971,-0.1173611994114722,-0.0323327954631134,-0.0160963105525737,-0.119,0.7607406332321286,-0.3665791810200359,0.3990593202061014,0.9910849975243649,0.02858789536683471,-0.13006844495713782,0.003931863051606193
1753104159.1791437,1.620057007177634,-1.223124674178269,2.507786308642645,-1.7650605399552006,-1.7363597888399749,-2.245406,0.0067250598136132,-0.0001056181522396,-0.1183474279779551,-0.032604499626669,-0.0162315736664608,-0.12,0.7606553631406006,-0.36676394631429554,0.39905790100120464,0.9910862399044206,0.028589053860166184,-0.13005879254625632,0.003929574138189299
1753104159.1809232,1.6200705133394262,-1.223124886294725,2.5075486275581227,-1.7651260206586177,-1.7363923872504223,-2.245647,0.0067811019787266,-0.0001064983035083,-0.1193336565444381,-0.0328762037902246,-0.016366836780348,-0.1210000000000001,0.7605693337912164,-0.36695023743445854,0.39905647046206527,0.9910874917556731,0.028590221185462204,-0.13004906566701172,0.003927270954763641
1753104159.1830027,1.6200841315855488,-1.2231251001714831,2.507308974016468,-1.7651920447703615,-1.736425256187097,-2.2458899999999997,0.0068371441438401,-0.000107378454777,-0.1203198851109211,-0.0331479079537802,-0.0165020998942352,-0.1220000000000001,0.7604825440463977,-0.3671380538608153,0.39905502860221753,0.9910887530549938,0.028591397321153768,-0.13003926447885267,0.003924953620177463
1753104159.186387,1.6200978619160016,-1.2231253158085442,2.5070673480176797,-1.7652586122904328,-1.7364583956499988,-2.246135,0.0068931863089535,-0.0001082586060456,-0.121306113677404,-0.0334196121173358,-0.0166373630081224,-0.1230000000000001,0.7603949927593328,-0.36732739506886675,0.39905357543530834,0.9910900237790621,0.028592582245492906,-0.13002938914262527,0.0039226222541309435
1753104159.187028,1.6201117043307849,-1.2231255332059074,2.506823749561758,-1.7653257232188313,-1.7364918056391287,-2.246382,0.006949228474067,-0.0001091387573143,-0.122292342243887,-0.0336913162808913,-0.0167726261220095,-0.1240000000000001,0.7603066787739825,-0.3675182605293122,0.3990521109750952,0.9910913039043658,0.028593775936551342,-0.13001943982057607,0.003920276977171445
1753104159.1889737,1.6201256588298978,-1.2231257523635737,2.506578178648704,-1.765393377555556,-1.7365254861544868,-2.246631,0.0070052706391804,-0.0001100189085829,-0.1232785708103699,-0.0339630204444469,-0.0169078892358967,-0.125,0.760217600925087,-0.3677106497080347,0.3990506352354485,0.9910925934072011,0.028594978372223984,-0.13000941667635224,0.003917917910690385
1753104159.1909466,1.6201397254133414,-1.223125973281542,2.5063306352785166,-1.765461575300609,-1.7365594371960729,-2.2468819999999994,0.0070613128042939,-0.0001108990598516,-0.1242647993768529,-0.0342347246080025,-0.0170431523497839,-0.126,0.7601277580381683,-0.3679045620660951,0.3990491482303487,0.9910938922636722,0.028596189530223966,-0.12999931987500385,0.003915545176919365
1753104159.193036,1.620153904081115,-1.2231261959598123,2.506081119451196,-1.7655303164539884,-1.7365936587638862,-2.247135,0.0071173549694073,-0.0001117792111203,-0.1252510279433358,-0.0345064287715581,-0.0171784154636711,-0.127,0.7600371489295384,-0.3680999970597139,0.3990476499738891,0.9910952004496912,0.028597409388087584,-0.1299891495829868,0.003913158898925954
1753104159.1948872,1.620168194833219,-1.223126420398386,2.505829631166743,-1.765599601015695,-1.7366281508579275,-2.2473899999999998,0.0071733971345207,-0.0001126593623889,-0.1262372565098188,-0.0347781329351136,-0.0173136785775582,-0.128,0.759945772406303,-0.3682969541402625,0.39904614048027537,0.9910965179409793,0.02859863792316954,-0.12997890596816206,0.0039107592006134345
1753104159.1968384,1.6201825976696531,-1.2231266465972626,2.505576170425157,-1.7656694289857289,-1.736662913478196,-2.247647,0.0072294392996342,-0.0001135395136576,-0.1272234850763018,-0.0350498370986692,-0.0174489416914454,-0.1290000000000001,0.7598536272663685,-0.3684954327542504,0.3990446197638233,0.9910978447130653,0.028599875112647066,-0.12996858919980003,0.003908346206712926
1753104159.198873,1.6201971125904175,-1.2231268745564403,2.505320737226438,-1.7657398003640896,-1.7366979466246928,-2.2479060000000004,0.0072854814647476,-0.0001144196649263,-0.1282097136427847,-0.0353215412622248,-0.0175842048053326,-0.1300000000000001,0.7597607122984465,-0.3686954323433133,0.39904308783896,0.9910991807412859,0.02860112093351693,-0.12995819944858275,0.0039059200427827376
1753104159.200888,1.620211739595512,-1.223127104275922,2.505063331570586,-1.7658107151507778,-1.7367332502974175,-2.2481670000000005,0.0073415236298611,-0.0001152998161949,-0.1291959422092677,-0.0355932454257804,-0.0177194679192198,-0.1310000000000001,0.75966702628206,-0.3688969523441984,0.39904154472022696,0.9911005260007871,0.028602375362597524,-0.12994773688660174,0.0039034808352045917
1753104159.2029357,1.620226478684937,-1.2231273357557058,2.5048039534576008,-1.7658821733457923,-1.7367688244963695,-2.24843,0.0073975657949745,-0.0001161799674636,-0.1301821707757506,-0.0358649495893359,-0.0178547310331069,-0.1320000000000001,0.7595725679875488,-0.36909999218875506,0.39903999042227367,0.9911018804665221,0.028603638376527123,-0.12993720168736503,0.003901028711177306
1753104159.2049415,1.620241329858692,-1.2231275689957917,2.504542602887483,-1.765954174949135,-1.7368046692215504,-2.248695,0.007453607960088,-0.0001170601187323,-0.1311683993422336,-0.0361366537528915,-0.0179899941469941,-0.1330000000000001,0.7594773361760767,-0.36930455130392015,0.3990384249598637,0.9911032441132531,0.028604909951766143,-0.1299265940257955,0.0038985637987176483
1753104159.206898,1.6202562931167772,-1.2231278039961806,2.504279279860232,-1.766026719960804,-1.7368407844729576,-2.248962,0.0075096501252014,-0.0001179402700009,-0.1321546279087166,-0.0364083579164471,-0.0181252572608813,-0.1340000000000001,0.7593813295996348,-0.3695106291117054,0.3990368483478711,0.9911046169155504,0.028606190064594004,-0.12991591407823355,0.0038960862266514884
1753104159.2090602,1.6202713684591927,-1.2231280407568716,2.504013984375848,-1.766099808380801,-1.7368771702505938,-2.249231,0.0075656922903149,-0.0001188204212696,-0.1331408564751995,-0.0366800620800027,-0.0182605203747684,-0.1350000000000001,0.7592845470010496,-0.369718225029186,0.3990352606012819,0.9911059988477919,0.02860747869111213,-0.12990516202244032,0.003893596124615447
1753104159.210987,1.6202865558859385,-1.2231282792778655,2.503746716434331,-1.7661734402091245,-1.7369138265544573,-2.249502,0.0076217344554283,-0.0001197005725382,-0.1341270850416825,-0.0369517662435582,-0.0183957834886556,-0.1360000000000001,0.759186987113988,-0.369927338468486,0.39903366173519345,0.9911073898841648,0.028608775807242144,-0.12989433803759798,0.0038910936230479275
1753104159.2128508,1.6203018553970143,-1.223128519559162,2.5034774760356813,-1.7662476154457751,-1.736950753384548,-2.249775,0.0076777766205417,-0.0001205807238069,-0.1351133136081654,-0.0372234704071138,-0.0185310466025428,-0.1370000000000001,0.7590886486629632,-0.3701379688367669,0.3990320517648146,0.9911087899986637,0.028610081388726227,-0.12988344230431217,0.0038885788531892737
1753104159.2177255,1.6203172669924206,-1.2231287616007611,2.5032062631798984,-1.766322334090753,-1.7369879507408674,-2.25005,0.0077338187856552,-0.0001214608750756,-0.1360995421746484,-0.0374951745706694,-0.01866630971643,-0.1380000000000001,0.7589895303633412,-0.37035011553621344,0.3990304307054661,0.991110199165092,0.02861139541112744,-0.12987247500461457,0.003886051947076555
1753104159.220001,1.6203327906721572,-1.2231290054026625,2.5029330778669827,-1.766397596144058,-1.7370254186234142,-2.2503270000000004,0.0077898609507686,-0.0001223410263442,-0.1370857707411314,-0.037766878734225,-0.0188015728303171,-0.1390000000000001,0.7588896309213465,-0.37056377796402074,0.3990287985725791,0.9911116173570613,0.028612717849830178,-0.12986143632196395,0.003883513037538624
1753104159.2214637,1.6203484264362238,-1.223129250964866,2.502657920096934,-1.7664734016056896,-1.7370631570321882,-2.2506059999999994,0.0078459031158821,-0.0001232211776129,-0.1380719993076143,-0.0380385828977805,-0.0189368359442043,-0.1400000000000001,0.7587889490340688,-0.3707789555123815,0.399027155381697,0.9911130445479912,0.02861404868003745,-0.12985032644124844,0.003880962258193954
1753104159.22291,1.6203641742846209,-1.2231294982873724,2.5023807898697523,-1.766549750475649,-1.737101165967191,-2.250887,0.0079019452809955,-0.0001241013288816,-0.1390582278740973,-0.0383102870613361,-0.0190720990580915,-0.1410000000000001,0.7586874833894687,-0.37099564756847203,0.39902550114847546,0.9911144807111095,0.028615387876776432,-0.12983914554878753,0.003878399743447095
1753104159.2249148,1.6203800342173478,-1.223129747370182,2.5021016871854376,-1.766626642753935,-1.7371394454284204,-2.25117,0.007957987446109,-0.0001249814801502,-0.1400444564405802,-0.0385819912248917,-0.0192073621719787,-0.1420000000000001,0.758585232666384,-0.37121385351443903,0.3990238358886808,0.9911159258194533,0.028616735414891407,-0.12982789383233345,0.003875825628481538
1753104159.2268772,1.6203960062344052,-1.2231299982132935,2.5018206120439896,-1.766704078440548,-1.7371779954158786,-2.251455,0.0080140296112224,-0.0001258616314189,-0.1410306850070632,-0.0388536953884473,-0.0193426252858658,-0.1430000000000001,0.758482195534536,-0.37143357272738686,0.39902215961818904,0.9911173798458666,0.02861809126904914,-0.1298165714810758,0.003873240049259774
1753104159.2288408,1.6204120903357926,-1.2231302508167072,2.501537564445409,-1.7667820575354884,-1.737216815929564,-2.251742,0.0080700717763358,-0.0001267417826876,-0.1420169135735462,-0.0391253995520028,-0.019477888399753,-0.1440000000000001,0.7583783706545366,-0.37165480457936195,0.3990204723529901,0.9911188427630027,0.028619455413737418,-0.129805178685639,0.0038706431425165333
1753104159.2309806,1.6204282865215105,-1.223130505180424,2.501252544389696,-1.766860580038756,-1.7372559069694775,-2.252031,0.0081261139414493,-0.0001276219339562,-0.1430031421400291,-0.0393971037155584,-0.0196131515136402,-0.1450000000000001,0.7582737566778941,-0.3718775484373405,0.39901877410918485,0.9911203145433227,0.028620827823263886,-0.12979371563808795,0.0038680350457564183
1753104159.2328036,1.6204445947915584,-1.2231307613044429,2.500965551876849,-1.7669396459503508,-1.737295268535619,-2.2523219999999995,0.0081821561065627,-0.0001285020852249,-0.1439893707065121,-0.039668807879114,-0.0197484146275274,-0.1460000000000001,0.7581683522470185,-0.37210180366321677,0.3990170649029843,0.9911217951590963,0.02862220847175601,-0.12978218253192905,0.0038654158972485403
1753104159.234903,1.6204610151459369,-1.2231310191887648,2.5006765869068697,-1.7670192552702728,-1.737334900627988,-2.2526150000000005,0.0082381982716762,-0.0001293822364936,-0.144975599272995,-0.0399405120426696,-0.0198836777414145,-0.1470000000000001,0.7580621559952314,-0.37232756961378316,0.39901534475071193,0.9911232845824013,0.02862359733316489,-0.12977057956211108,0.0038627858360230295
1753104159.238081,1.6204775475846451,-1.2231312788333888,2.500385649479757,-1.767099407998522,-1.7373748032465848,-2.25291,0.0082942404367896,-0.0001302623877622,-0.145961827839478,-0.0402122162062251,-0.0200189408553017,-0.1480000000000001,0.7579551665467686,-0.372554845640723,0.39901361366880195,0.9911247827851238,0.028624994381258324,-0.12975890692502917,0.003860145001867548
1753104159.2391016,1.620494192107684,-1.2231315402383158,2.5000927395955115,-1.7671801041350976,-1.7374149763914088,-2.253207,0.0083502826019031,-0.0001311425390309,-0.1469480564059609,-0.0404839203697807,-0.0201542039691889,-0.1490000000000001,0.7578473825167894,-0.372783631090592,0.39901187167380003,0.9911262897389586,0.028626399589627725,-0.1297471648185257,0.0038574935353214348
1753104159.2411923,1.6205109487150529,-1.223131803403545,2.499797857254133,-1.767261343680001,-1.737455420062461,-2.253506,0.0084063247670165,-0.0001320226902995,-0.1479342849724439,-0.0407556245333363,-0.0202894670830761,-0.1500000000000001,0.7577388025113828,-0.3730139253048061,0.3990101187823634,0.9911278054154085,0.02862781293168386,-0.12973535344189174,0.0038548315776742916
1753104159.2430408,1.620527817406752,-1.2231320683290772,2.499501002455622,-1.7673431266332311,-1.7374961342597413,-2.253807,0.00846236693213,-0.0001329028415682,-0.1489205135389269,-0.0410273286968919,-0.0204247301969632,-0.1510000000000001,0.7576294251275734,-0.3732457276196257,0.3990083550112603,0.9911293297857843,0.02862923438065892,-0.1297234729958708,0.003852159270958823
1753104159.244876,1.6205447981827814,-1.2231323350149117,2.4992021751999776,-1.7674254529947886,-1.7375371189832496,-2.25411,0.0085184090972434,-0.0001337829928369,-0.1499067421054098,-0.0412990328604474,-0.0205599933108504,-0.1520000000000001,0.757519248953329,-0.3734790373661437,0.39900658037736975,0.9911308628212059,0.0286306639096043,-0.12971152368265965,0.0038494767579483713
1753104159.246967,1.620561891043141,-1.2231326034610488,2.4989013754872005,-1.767508322764673,-1.7375783742329851,-2.254415,0.0085744512623568,-0.0001346631441055,-0.1508929706718928,-0.041570737024003,-0.0206952564247376,-0.1530000000000001,0.7574082725675678,-0.37371385387026834,0.399004794897683,0.9911324044926011,0.028632101491393586,-0.12969950570591013,0.0038467841821518537
1753104159.2489653,1.6205790959878308,-1.2231328736674882,2.4985986033172902,-1.7675917359428848,-1.7376199000089478,-2.2547219999999992,0.0086304934274703,-0.0001355432953742,-0.1518791992383757,-0.0418424411875586,-0.0208305195386248,-0.1540000000000001,0.7572964945401638,-0.3739501764527103,0.3990029985893013,0.991133954770706,0.028633547098719712,-0.12968741927073252,0.0038440816878099536
1753104159.250955,1.6205964130168509,-1.2231331456342298,2.498293858690247,-1.7676756925294228,-1.7376616963111395,-2.255031,0.0086865355925837,-0.0001364234466429,-0.1528654278048587,-0.0421141453511142,-0.0209657826525119,-0.1550000000000001,0.7571839134319557,-0.3741880044289684,0.3990011914694378,0.9911355136260653,0.02863500070409756,-0.1296752645836976,0.003841369419891051
1753104159.2529194,1.620613842130201,-1.2231334193612744,2.4979871416060706,-1.767760192524289,-1.7377037631395584,-2.255342,0.0087425777576972,-0.0001373035979115,-0.1538516563713417,-0.0423858495146697,-0.0211010457663991,-0.1560000000000001,0.7570705277947526,-0.37442733710931253,0.39899937355541804,0.9911370810290319,0.028636462279861264,-0.12966304185283567,0.003838647524086579
1753104159.2549694,1.6206313833278816,-1.223133694848622,2.497678452064761,-1.7678452359274814,-1.7377461004942043,-2.255655,0.0087986199228106,-0.0001381837491802,-0.1548378849378246,-0.0426575536782253,-0.0212363088802863,-0.1570000000000001,0.7569563361713413,-0.3746681737987721,0.3989975448646761,0.991138656949767,0.02863793179816549,-0.12965075128764342,0.0038359161468052958
1753104159.2570128,1.6206490366098922,-1.2231339720962708,2.497367790066319,-1.767930822739002,-1.7377887083750796,-2.25597,0.0088546620879241,-0.0001390639004489,-0.1558241135043076,-0.0429292578417809,-0.0213715719941735,-0.1580000000000001,0.7568413370954948,-0.374910513797118,0.39899570541475876,0.9911402413582402,0.02863940923098747,-0.12963839309908343,0.003833175435172217
1753104159.259226,1.6206668019762334,-1.2231342511042236,2.4970551556107443,-1.768016952958849,-1.737831586782182,-2.2562870000000004,0.0089107042530375,-0.0001399440517175,-0.1568103420707906,-0.0432009620053365,-0.0215068351080606,-0.1590000000000001,0.7567255290919768,-0.37515435639885014,0.39899385522332453,0.9911418342242297,0.028640894550122906,-0.12962596749958538,0.0038304255370199642
1753104159.2610505,1.6206846794269043,-1.2231345318724784,2.4967405486980363,-1.7681036265870231,-1.737874735715511,-2.256606,0.0089667464181509,-0.0001408242029862,-0.1577965706372735,-0.043472666168892,-0.0216420982219478,-0.1600000000000001,0.7566089106765521,-0.37539970089318153,0.39899199430814164,0.9911434355173219,0.028642387727188155,-0.1296134747030499,0.0038276666008870033
1753104159.2629492,1.620702668961906,-1.2231348144010354,2.496423969328195,-1.7681908436235243,-1.7379181551750698,-2.2569269999999992,0.0090227885832644,-0.0001417043542548,-0.1587827992037565,-0.0437443703324476,-0.021777361335835,-0.1610000000000001,0.7564914803559912,-0.37564654656402235,0.3989901226870891,0.9911450452069114,0.028643888733621104,-0.12960091492485185,0.003824898776013698
1753104159.2694316,1.6207207705812374,-1.2231350986898957,2.496105417501221,-1.7682786040683531,-1.7379618451608554,-2.25725,0.0090788307483778,-0.0001425845055235,-0.1597690277702394,-0.0440160744960032,-0.0219126244497222,-0.1620000000000001,0.7563732366280796,-0.3758948926899651,0.3989882403781596,0.9911466632622015,0.0286453975406808,-0.1295882883818377,0.0038221222123353236
1753104159.2699218,1.6207389842848994,-1.2231353847390576,2.495784893217114,-1.768366907921509,-1.7380058056728682,-2.257574999999999,0.0091348729134913,-0.0001434646567922,-0.1607552563367224,-0.0442877786595588,-0.0220478875636093,-0.1630000000000001,0.7562541779816246,-0.37614473854427,0.39898634739945305,0.9911482896522038,0.028646914119444197,-0.12957559529233367,0.003819337060478504
1753104159.2713082,1.6207573100728916,-1.2231356725485227,2.495462396475874,-1.7684557551829911,-1.7380500367111091,-2.257902,0.0091909150786047,-0.0001443448080608,-0.1617414849032054,-0.0445594828231144,-0.0221831506774965,-0.1640000000000001,0.7561343028964621,-0.3763960833948478,0.3989844437691841,0.9911499243457381,0.02864843844081236,-0.12956283587614384,0.0038165434717581034
1753104159.2731044,1.6207757479452138,-1.22313596211829,2.495137927277501,-1.7685451458528014,-1.738094538275578,-2.2582310000000003,0.0092469572437182,-0.0001452249593295,-0.1627277134696883,-0.0448311869866699,-0.0223184137913837,-0.1650000000000001,0.7560136098434656,-0.376648926504247,0.3989825295056756,0.9911515673114331,0.028649970475503498,-0.12955001035455332,0.0038137415981710937
1753104159.2752748,1.6207942979018664,-1.2231362534483594,2.4948114856219954,-1.768635079930938,-1.7381393103662752,-2.2585619999999995,0.0093029994088316,-0.0001461051105982,-0.1637139420361713,-0.0451028911502255,-0.0224536769052708,-0.1660000000000001,0.7558920972845526,-0.3769032671296351,0.39898060462736246,0.9911532185177251,0.02865151019405795,-0.1295371189503321,0.0038109315923916275
1753104159.2767413,1.6208129599428491,-1.2231365465387327,2.4944830715093564,-1.768725557417402,-1.7381843529831995,-2.258895,0.0093590415739451,-0.0001469852618668,-0.1647001706026542,-0.0453745953137811,-0.022588940019158,-0.1670000000000001,0.7557697636726924,-0.3771591045227853,0.39897866915279223,0.9911548779328597,0.028653057566837163,-0.12952416188773336,0.0038081136077671813
1753104159.2786765,1.6208317340681622,-1.2231368413894073,2.4941526849395848,-1.768816578312193,-1.738229666126351,-2.2592300000000005,0.0094150837390585,-0.0001478654131355,-0.1656863991691372,-0.0456462994773367,-0.0227242031330452,-0.1680000000000001,0.7556466074519151,-0.3774164379300594,0.39897672310061927,0.9911565455248904,0.028654612564022155,-0.12951113939250056,0.003805287798313008
1753104159.280843,1.6208506202778057,-1.2231371380003848,2.49382032591268,-1.7689081426153113,-1.7382752497957314,-2.259567,0.0094711259041719,-0.0001487455644042,-0.1666726277356202,-0.0459180036408922,-0.0228594662469324,-0.1690000000000001,0.7555226270573175,-0.3776752665923927,0.39897476648961244,0.9911582212616791,0.02865617515561397,-0.1294980516918664,0.0038024543187095963
1753104159.282977,1.6208696185717788,-1.2231374363716645,2.4934859944286423,-1.7690002503267568,-1.738321103991339,-2.259906,0.0095271680692854,-0.0001496257156728,-0.1676588563021031,-0.0461897078044478,-0.0229947293608195,-0.1700000000000001,0.7553978209150728,-0.3779355897452768,0.39897279933865054,0.9911599051108964,0.028657745311435567,-0.12948489901455512,0.0037996133242944397
1753104159.284731,1.6208887289500824,-1.2231377365032472,2.4931496904874715,-1.7690929014465286,-1.7383672287131748,-2.260247,0.0095832102343988,-0.0001505058669415,-0.1686450848685861,-0.0464614119680034,-0.0231299924747067,-0.1710000000000001,0.7552721874424366,-0.3781974066187451,0.39897082166672276,0.9911615970400212,0.02865932300112952,-0.12947168159078684,0.003796764971059662
1753104159.288162,1.6209079514127165,-1.223138038395133,2.492811414089168,-1.7691860959746286,-1.7384136239612378,-2.26059,0.0096392523995123,-0.0001513860182102,-0.169631313435069,-0.046733116131559,-0.0232652555885939,-0.1720000000000001,0.7551457250477569,-0.37846071643735546,0.3989688334929299,0.991163297016341,0.02866090819415882,-0.1294583996522768,0.0037939094156468284
1753104159.2890234,1.6209272859596806,-1.2231383420473207,2.4924711652337312,-1.769279833911055,-1.7384602897355288,-2.260935,0.0096952945646257,-0.0001522661694788,-0.170617542001552,-0.0470048202951145,-0.0234005187024811,-0.1730000000000001,0.7550184321304806,-0.3787255184201745,0.39896683483648226,0.9911650050069511,0.028662500859807167,-0.12944505343224139,0.0037910468153411567
1753104159.2908616,1.620946732590975,-1.2231386474598107,2.492128943921162,-1.7693741152558091,-1.738507226036048,-2.261282,0.0097513367297392,-0.0001531463207475,-0.171603770568035,-0.0472765244586701,-0.0235357818163682,-0.1740000000000001,0.7548903070811624,-0.3789918117807614,0.3989648257167017,0.9911667209787565,0.028664100967178963,-0.1294316431653965,0.003788177328067803
1753104159.2930346,1.6209662913065994,-1.2231389546326028,2.491784750151459,-1.76946894000889,-1.738554432862795,-2.2616309999999995,0.0098073788948526,-0.0001540264720161,-0.1725899991345179,-0.0475482286222257,-0.0236710449302554,-0.1750000000000001,0.7547613482814731,-0.37925959572715057,0.3989628061530212,0.9911684448984691,0.028665708485198286,-0.12941816908796247,0.003785301112385882
1753104159.295128,1.6209859621065543,-1.2231392635656988,2.491438583924624,-1.769564308170298,-1.7386019102157686,-2.261982,0.009863421059966,-0.0001549066232848,-0.1735762277010009,-0.0478199327857813,-0.0238063080441426,-0.1760000000000001,0.7546315541042061,-0.3795288694618357,0.3989607761649853,0.9911701767326109,0.028667323382611097,-0.12940463143766395,0.003782418327483794
1753104159.2967756,1.6210057449908393,-1.223139574259097,2.4910904452406557,-1.7696602197400333,-1.738649658094971,-2.262335,0.0099194632250795,-0.0001557867745535,-0.1745624562674838,-0.0480916369493368,-0.0239415711580298,-0.1770000000000001,0.7545009229132885,-0.3797996321817539,0.3989587357722472,0.9911719164475109,0.02866894562798215,-0.12939103045373612,0.003779529133175513
1753104159.2990036,1.6210256399594547,-1.2231398867127972,2.490740334099554,-1.7697566747180955,-1.7386976765004007,-2.26269,0.0099755053901929,-0.0001566669258221,-0.1755486848339668,-0.0483633411128924,-0.0240768342719169,-0.1780000000000001,0.7543694530637873,-0.38007188307826845,0.39895668499457115,0.9911736640093075,0.028670575189697144,-0.12937736637692274,0.003776633689892513
1753104159.300937,1.6210456470124002,-1.2231402009267995,2.4903882505013195,-1.7698536731044845,-1.7387459654320585,-2.2630470000000003,0.0100315475553064,-0.0001575470770908,-0.1765349134004498,-0.048635045276448,-0.0242120973858041,-0.1790000000000001,0.7542371429019191,-0.38034562133715066,0.39895462385183345,0.9911754193839474,0.028672212035963054,-0.1293636394494808,0.0037737321586822116
1753104159.3029778,1.621065766149676,-1.223140516901105,2.490034194445952,-1.7699512148992014,-1.7387945248899443,-2.263406,0.0100875897204198,-0.0001584272283595,-0.1775211419669327,-0.0489067494400036,-0.0243473604996913,-0.1800000000000001,0.7541039907650569,-0.3806208461385652,0.39895255236402083,0.9911771825371856,0.028673856134805987,-0.1293498499151813,0.003770824701201258
1753104159.3049808,1.621085997371282,-1.223140834635713,2.4896781659334515,-1.7700493001022446,-1.7388433548740574,-2.263767,0.0101436318855333,-0.0001593073796281,-0.1785073705334157,-0.0491784536035591,-0.0244826236135785,-0.1810000000000001,0.7539699949817408,-0.3808975566570514,0.39895047055123,0.9911789534345856,0.028675507454074056,-0.12933599801931364,0.003767911479709017
1753104159.3069203,1.621106340677218,-1.223141154130624,2.4893201649638184,-1.770147928713615,-1.7388924553843983,-2.26413,0.0101996740506467,-0.0001601875308968,-0.1794935990998986,-0.0494501577671147,-0.0246178867274656,-0.1820000000000001,0.7538351538716853,-0.3811757520615074,0.3989483784336686,0.9911807320415197,0.028677165961434364,-0.1293220840086859,0.0037649926570652594
1753104159.3090384,1.6211267960674844,-1.2231414753858365,2.488960191537052,-1.7702471007333127,-1.7389418264209675,-2.264495,0.0102557162157602,-0.0001610676821655,-0.1804798276663816,-0.0497218619306703,-0.0247531498413528,-0.1830000000000001,0.7536994657457874,-0.38145543151517286,0.39894627603165356,0.9911825183231684,0.028678831624374807,-0.12930810813162918,0.003762068396722636
1753104159.3110113,1.621147363542081,-1.2231417984013522,2.488598245653153,-1.7703468161613376,-1.738991467983764,-2.264862,0.0103117583808736,-0.0001619478334341,-0.1814660562328645,-0.0499935660942259,-0.02488841295524,-0.1840000000000001,0.753562928906137,-0.38173659417561084,0.3989441633656153,0.9911843122445209,0.028680504410203828,-0.12929407063799658,0.003759138862722819
1753104159.3130374,1.6211680431010078,-1.2231421231771709,2.488234327312121,-1.7704470749976895,-1.7390413800727886,-2.265231,0.010367800545987,-0.0001628279847028,-0.1824522847993475,-0.0502652702577814,-0.0250236760691272,-0.1850000000000001,0.753425541646024,-0.38201923919469166,0.39894204045609294,0.9911861137703746,0.028682184286050228,-0.12927997177916956,0.0037562042196909
1753104159.3176954,1.6211680431010078,-1.2231421231771709,2.488234327312121,-1.7704470749976895,-1.7390413800727886,-2.265231,0.010367800545987,-0.0001628279847028,-0.1824522847993475,-0.0502652702577814,-0.0250236760691272,-0.1850000000000001,0.753425541646024,-0.38201923919469166,0.39894204045609294,0.9911861137703746,0.028682184286050228,-0.12927997177916956,0.0037562042196909
1753104159.32084,1.6212307542837698,-1.2231431080664397,2.487130737546226,-1.7707511119567083,-1.739192739497228,-2.26635,0.0105359270413274,-0.0001654684385088,-0.1854109704987964,-0.0510803827484482,-0.0254294654107887,-0.1880000000000001,0.7530082601440128,-0.3828760598367232,0.39893561047366644,0.9911915636200489,0.028687266122287208,-0.12923730954827597,0.003747371291285523
1753104159.3211386,1.6212307542837698,-1.2231431080664397,2.487130737546226,-1.7707511119567083,-1.739192739497228,-2.26635,0.0105359270413274,-0.0001654684385088,-0.1854109704987964,-0.0510803827484482,-0.0254294654107887,-0.1880000000000001,0.7530082601440128,-0.3828760598367232,0.39893561047366644,0.9911915636200489,0.028687266122287208,-0.12923730954827597,0.003747371291285523
1753104159.322919,1.6212518821800177,-1.2231434398834686,2.486758929376662,-1.7708535444263696,-1.739243733691164,-2.2667269999999995,0.0105919692064408,-0.0001663485897774,-0.1863971990652793,-0.0513520869120037,-0.0255647285246759,-0.1890000000000001,0.7528674539592809,-0.38316462569459625,0.39893344679780895,0.9911933952080553,0.028688974025898168,-0.12922296777308961,0.0037444178698525453
1753104159.3250327,1.6212731221605956,-1.2231437734607995,2.486385148749965,-1.770956520304357,-1.739294998411327,-2.267106,0.0106480113715543,-0.0001672287410461,-0.1873834276317623,-0.0516237910755593,-0.025699991638563,-0.1900000000000001,0.752725788688862,-0.3834546695844497,0.39893127298282044,0.9911952342216794,0.028690688852476644,-0.12920856591259175,0.003741460171073709
1753104159.3270662,1.6212944742255038,-1.223144108798433,2.486009395666135,-1.7710600395906717,-1.7393465336577183,-2.267487,0.0107040535366677,-0.0001681088923148,-0.1883696561982453,-0.0518954952391149,-0.0258352547524502,-0.1910000000000001,0.7525832625734392,-0.383746190623625,0.39892908904990343,0.9911970806245701,0.02869241056807235,-0.12919410422737057,0.0037384983629624837
1753104159.3287249,1.6213159383747422,-1.2231444458963685,2.485631670125172,-1.7711641022853133,-1.7393983394303367,-2.2678700000000003,0.0107600957017811,-0.0001689890435834,-0.1893558847647282,-0.0521671994026705,-0.0259705178663374,-0.1920000000000001,0.7524398738449595,-0.3840391879236468,0.39892689502037,0.9911989343801847,0.028694139138557093,-0.12917958297955773,0.003735532614076239
1753104159.331096,1.6213375146083109,-1.2231447847546066,2.485251972127076,-1.7712687083882823,-1.7394504157291832,-2.268255,0.0108161378668946,-0.0001698691948521,-0.1903421133312112,-0.052438903566226,-0.0261057809802245,-0.1930000000000001,0.7522956207266446,-0.3843336605902045,0.39892469091564375,0.9912007954517894,0.028695874529622224,-0.1291650024328299,0.0037325630935140203
1753104159.332924,1.6213592029262098,-1.223145125373148,2.4848703016718474,-1.7713738578995777,-1.7395027625542578,-2.268642,0.010872180032008,-0.0001707493461208,-0.1913283418976941,-0.0527106077297816,-0.0262410440941117,-0.1940000000000001,0.7521505014329968,-0.38462960772313426,0.39892247675725817,0.9912026638024587,0.028697616706780015,-0.12915036285241144,0.0037295899709084046
1753104159.33514,1.621381003328439,-1.2231454677519915,2.484486658759485,-1.7714795508192012,-1.7395553799055596,-2.269031,0.0109282221971215,-0.0001716294973894,-0.1923145704641771,-0.0529823118933372,-0.0263763072079989,-0.1950000000000001,0.752004514169812,-0.3849270284164024,0.3989202525668559,0.9912045393950759,0.02869936563536231,-0.12913566450507627,0.003726613416421008
1753104159.3370278,1.6214029158149983,-1.2231458118911371,2.4841010433899906,-1.771585787147151,-1.7396082677830895,-2.2694220000000005,0.0109842643622349,-0.0001725096486581,-0.1933007990306601,-0.0532540160568928,-0.0265115703218861,-0.1960000000000001,0.7518576571341884,-0.38522592175808335,0.398918018366191,0.9912064221923328,0.028701121280522202,-0.1291209076591518,0.0037236336007370413
1753104159.3389292,1.621424940385888,-1.2231461577905858,2.483713455563363,-1.771692566883429,-1.7396614261868475,-2.2698149999999995,0.0110403065273484,-0.0001733897999268,-0.194287027597143,-0.0535257202204483,-0.0266468334357732,-0.1970000000000001,0.7517099285145333,-0.3855262868303457,0.39891577417712853,0.9912083121567297,0.028702883607231177,-0.1291060925845186,0.003720650695060315
1753104159.3419776,1.6214470770411078,-1.2231465054503374,2.483323895279602,-1.7717998900280332,-1.7397148551168329,-2.2702100000000005,0.0110963486924618,-0.0001742699511954,-0.195273256163626,-0.0537974243840039,-0.0267820965496604,-0.1980000000000001,0.7515613264905768,-0.38582812270943073,0.39891352002164215,0.9912102092505755,0.02870465258028415,-0.12909121955261568,0.0037176648711049775
1753104159.3433394,1.6214693257806578,-1.2231468548703912,2.4829323625387083,-1.7719077565809649,-1.739768554573046,-2.270607,0.0111523908575752,-0.0001751501024641,-0.1962594847301089,-0.0540691285475595,-0.0269173596635476,-0.1990000000000001,0.7514118492333794,-0.3861314284656348,0.39891125592181614,0.9912121134359879,0.02870642816429277,-0.129076288836441,0.003714676301092996
1753104159.3450637,1.621491686604538,-1.2231472060507471,2.482538857340681,-1.7720161665422234,-1.7398225245554872,-2.271006,0.0112084330226887,-0.0001760302537327,-0.1972457132965919,-0.0543408327111151,-0.0270526227774348,-0.2000000000000001,0.751261494905341,-0.38643620316329214,0.39890898189984547,0.9912140246748934,0.02870821032369121,-0.12906130071055494,0.0037116851577465187
1753104159.3469987,1.6215141595127485,-1.223147558991406,2.482143379685522,-1.772125119911809,-1.7398767650641558,-2.271407,0.0112644751878021,-0.0001769104050014,-0.1982319418630749,-0.0546125368746707,-0.0271878858913219,-0.2010000000000001,0.7511102616602129,-0.3867424458607516,0.398906697978035,0.9912159429290264,0.028709999022734297,-0.12904625545108125,0.0037086916142825993
1753104159.3489769,1.6215367445052893,-1.223147913692367,2.481745929573229,-1.7722346166897225,-1.7399312760990524,-2.2718100000000003,0.0113205173529156,-0.0001777905562701,-0.1992181704295578,-0.0548842410382262,-0.0273231490052091,-0.2020000000000001,0.7509581476431058,-0.38705015561036527,0.39890440417879997,0.9912178681599306,0.028711794225495135,-0.1290311533357112,0.003705695844407686
1753104159.3509324,1.62155944158216,-1.2231482701536311,2.481346507003804,-1.772344656875962,-1.7399860576601762,-2.272215,0.011376559518029,-0.0001786707075387,-0.2002043989960408,-0.0551559452017818,-0.0274584121190963,-0.2030000000000001,0.7508051509905008,-0.3873593314584621,0.3989021005246658,0.9912198003289582,0.028713595895868423,-0.12901599464370492,0.0037026980223109967
1753104159.3529503,1.6215822507433613,-1.2231486283751971,2.480945111977245,-1.7724552404705296,-1.740041109747528,-2.272622,0.0114326016831425,-0.0001795508588074,-0.2011906275625238,-0.0554276493653374,-0.0275936752329835,-0.2040000000000001,0.7506512698302588,-0.38766997244533485,0.3988997870382669,0.9912217393972699,0.028715403997568254,-0.12900077965589424,0.003699698322659722
1753104159.3549178,1.6216051719888929,-1.2231489883570656,2.4805417444935536,-1.7725663674734236,-1.740096432361108,-2.273031,0.0114886438482559,-0.0001804310100761,-0.2021768561290067,-0.055699353528893,-0.0277289383468706,-0.2050000000000001,0.7504965022816312,-0.3879820776052158,0.3988974637423491,0.9912236853258349,0.028717218494130232,-0.12898550865468525,0.0036966969205923773
1753104159.3569148,1.6216282053187543,-1.223149350099238,2.480136404552729,-1.7726780378846447,-1.7401520255009162,-2.2734419999999997,0.0115446860133694,-0.0001813111613447,-0.2031630846954897,-0.0559710576924485,-0.0278642014607578,-0.2060000000000001,0.75034084645527,-0.3882956459662624,0.398895130659769,0.9912256380754316,0.028719039348908886,-0.12897018192405904,0.0036936939917137875
1753104159.35901,1.6216513507329462,-1.223149713601711,2.479729092154772,-1.7727902517041931,-1.7402078891669517,-2.2738549999999997,0.0116007281784828,-0.0001821913126134,-0.2041493132619726,-0.0562427618560041,-0.027999464574645,-0.2070000000000001,0.7501843004532385,-0.38861067655053444,0.39889278781348925,0.9912275976066465,0.028720866525080227,-0.12895479974957771,0.0036906897120862147
1753104159.3615024,1.6216746082314684,-1.2231500788644878,2.479319807299681,-1.7729030089320688,-1.7402640233592148,-2.27427,0.0116567703435962,-0.0001830714638821,-0.2051355418284556,-0.0565144660195597,-0.0281347276885322,-0.2080000000000001,0.7500268623690186,-0.3889271683739782,0.39889043522658757,0.9912295638798752,0.028722699985638835,-0.12893936241838228,0.003687684258228129
1753104159.3628907,1.6216979778143206,-1.2231504458875673,2.478908549987458,-1.7730163095682716,-1.7403204280777054,-2.274687,0.0117128125087097,-0.0001839516151507,-0.2061217703949386,-0.0567861701831153,-0.0282699908024193,-0.2090000000000001,0.7498685302875269,-0.3892451204464028,0.398888072922249,0.9912315368553218,0.02872453969340074,-0.12892387021919866,0.0036846778071044513
1753104159.364912,1.6217214594815033,-1.223150814670948,2.478495320218101,-1.7731301536128008,-1.740377103322424,-2.275106,0.0117688546738231,-0.0001848317664194,-0.2071079989614215,-0.0570578743466708,-0.0284052539163065,-0.2100000000000001,0.7497093022851191,-0.3895645317714654,0.3988857009237667,0.9912335164929991,0.028726385611001545,-0.12890832344234002,0.003681670536121061
1753104159.3669722,1.621745053233016,-1.2231511852146326,2.478080117991612,-1.773244541065658,-1.7404340490933707,-2.2755270000000003,0.0118248968389366,-0.000185711917688,-0.2080942275279045,-0.0573295785102264,-0.0285405170301937,-0.2110000000000001,0.7495491764296054,-0.3898854013466466,0.3988833192545488,0.9912355027527283,0.028728237700898045,-0.12889272237970506,0.0036786626231217145
1753104159.37488,1.621768759068859,-1.2231515575186194,2.477662943307989,-1.7733594719268415,-1.7404912653905455,-2.27595,0.01188093900405,-0.0001865920689567,-0.2090804560943874,-0.057601282673782,-0.0286757801440809,-0.2120000000000001,0.749388150780257,-0.39020772816323634,0.39888092793810837,0.99123749559414,0.028730095925365344,-0.1288770673247866,0.003675654246376638
1753104159.375306,1.621768759068859,-1.2231515575186194,2.477662943307989,-1.7733594719268415,-1.7404912653905455,-2.27595,0.01188093900405,-0.0001865920689567,-0.2090804560943874,-0.057601282673782,-0.0286757801440809,-0.2120000000000001,0.749388150780257,-0.39020772816323634,0.39888092793810837,0.99123749559414,0.028730095925365344,-0.1288770673247866,0.003675654246376638
1753104159.3755798,1.621768759068859,-1.2231515575186194,2.477662943307989,-1.7733594719268415,-1.7404912653905455,-2.27595,0.01188093900405,-0.0001865920689567,-0.2090804560943874,-0.057601282673782,-0.0286757801440809,-0.2120000000000001,0.749388150780257,-0.39020772816323634,0.39888092793810837,0.99123749559414,0.028730095925365344,-0.1288770673247866,0.003675654246376638
1753104159.3778398,1.6218405490823693,-1.2231526849923942,2.476399584514325,-1.7737075249603569,-1.740664537439434,-2.2772310000000004,0.0120490654993903,-0.0001892325227627,-0.2120391417938363,-0.0584163951644487,-0.0290815694857424,-0.2150000000000001,0.7488996555341,-0.39118344188102316,0.39887369634225245,0.9912435132019018,0.02873570702626153,-0.12882978116515484,0.0036666281226949483
1753104159.3791082,1.6218647032555331,-1.2231530643375912,2.475974520002171,-1.7738246294548494,-1.7407228358415203,-2.2776619999999994,0.0121051076645038,-0.0001901126740314,-0.2130253703603193,-0.0586880993280043,-0.0292168325996295,-0.2160000000000001,0.7487350111317723,-0.3915115874515708,0.3988712666742708,0.9912455319625193,0.02873758940817932,-0.1288139131079185,0.0036636196820552577
1753104159.3810794,1.6218889695130272,-1.2231534454430903,2.475547483032884,-1.7739422773576692,-1.740781404769833,-2.2780950000000004,0.0121611498296172,-0.0001909928253,-0.2140115989268022,-0.0589598034915599,-0.0293520957135167,-0.2170000000000001,0.7485694571042928,-0.3918411851263749,0.39886882747828906,0.9912475571001008,0.028739477733352826,-0.12879799254980484,0.0036606116752510008
1753104159.3830545,1.6219133478548515,-1.2231538283088923,2.4751184736064635,-1.7740604686688153,-1.7408402442243744,-2.27853,0.0122171919947307,-0.0001918729765687,-0.2149978274932852,-0.0592315076551154,-0.0294873588274039,-0.2180000000000001,0.7484029914599367,-0.3921722338591473,0.39886637877848136,0.991249588573129,0.028741371962976832,-0.12878201979390314,0.0036576042830006573
1753104159.3850193,1.621937838281006,-1.2231542129349968,2.4746874917229107,-1.7741792033882895,-1.7408993542051423,-2.278967,0.0122732341598441,-0.0001927531278374,-0.2159840560597681,-0.059503211818671,-0.0296226219412911,-0.2190000000000001,0.7482356121985221,-0.3925047325972643,0.3988639205991313,0.9912516263398954,0.028743272058070393,-0.12876599514490855,0.0036545976864067065
1753104159.3869803,1.621962440791491,-1.223154599321404,2.4742545373822247,-1.77429848151609,-1.7409587347121391,-2.279406,0.0123292763249576,-0.000193633279106,-0.2169702846262511,-0.0597749159822266,-0.0297578850551782,-0.2200000000000001,0.748067317311414,-0.3928386802817513,0.3988614529646309,0.9912536703584999,0.028745177979469818,-0.1287499189091301,0.003651592066951491
1753104159.3888505,1.621987155386306,-1.2231549874681136,2.473819610584405,-1.7744183030522187,-1.7410183857453632,-2.279847,0.012385318490071,-0.0001945134303747,-0.2179565131927341,-0.0600466201457822,-0.0298931481690654,-0.2210000000000001,0.7478981047815403,-0.39317407584725883,0.39885897589948394,0.9912557205868514,0.02874708968783236,-0.12873379139448649,0.0036485876064901554
1753104159.3909457,1.6220119820654513,-1.2231553773751251,2.473382711329453,-1.7745386679966737,-1.7410783073048153,-2.28029,0.0124413606551845,-0.0001953935816433,-0.218942741759217,-0.0603183243093377,-0.0300284112829526,-0.2220000000000001,0.7477279725834025,-0.393510918222042,0.39885648942830143,0.9912577769826677,0.02874900714363598,-0.12871761291051462,0.003645584487243544
1753104159.3936584,1.6220369208289267,-1.2231557690424395,2.472943839617369,-1.774659576349456,-1.7411384993904946,-2.280735,0.0124974028202979,-0.000196273732912,-0.2199289703257,-0.0605900284728933,-0.0301636743968398,-0.2230000000000001,0.7475569186830858,-0.39384920632794174,0.39885399357580625,0.9912598395034753,0.02875093030717838,-0.12870138376836707,0.0036425828917930926
1753104159.3953252,1.6220619716767324,-1.2231561624700564,2.472502995448151,-1.7747810281105654,-1.7411989620024029,-2.281182,0.0125534449854113,-0.0001971538841807,-0.2209151988921829,-0.0608617326364489,-0.0302989375107269,-0.2240000000000001,0.7473849410382708,-0.3941889390803652,0.39885148836682943,0.9912619081066092,0.028752859138576316,-0.12868510428081853,0.0036395830030739634
1753104159.3968737,1.6220871346088683,-1.2231565576579762,2.4720601788218,-1.7749030232800012,-1.7412596951405384,-2.281631,0.0126094871505248,-0.0001980340354493,-0.2219014274586659,-0.0611334368000045,-0.0304342006246141,-0.2250000000000001,0.7472120375982457,-0.394530115388261,0.39884897382631174,0.9912639827492135,0.028754793597767777,-0.12866877476226543,0.0036365850043665418
1753104159.398927,1.6221124096253343,-1.2231569546061989,2.471615389738316,-1.775025561857765,-1.741320698804901,-2.282082,0.0126655293156382,-0.000198914186718,-0.2228876560251489,-0.06140514096356,-0.0305694637385013,-0.2260000000000001,0.7470382063039186,-0.3948727341541011,0.3988464499793041,0.9912660633882413,0.028756733644510476,-0.12865239552872906,0.003633589079293168
1753104159.400972,1.6221124096253343,-1.2231569546061989,2.471615389738316,-1.775025561857765,-1.741320698804901,-2.282082,0.0126655293156382,-0.000198914186718,-0.2228876560251489,-0.06140514096356,-0.0305694637385013,-0.2260000000000001,0.7470382063039186,-0.3948727341541011,0.3988464499793041,0.9912660633882413,0.028756733644510476,-0.12865239552872906,0.003633589079293168
1753104159.4027877,1.622137796726131,-1.2231573533147235,2.4711686281976992,-1.7751486438438562,-1.7413819729954918,-2.2825349999999998,0.0127215714807517,-0.0001997943379867,-0.2238738845916318,-0.0616768451271156,-0.0307047268523885,-0.2270000000000001,0.746863445087827,-0.39521679427386064,0.398843916850965,0.9912681499804542,0.02875867923838193,-0.12863596689786053,0.0036305954118085342
1753104159.4048922,1.6221632959112575,-1.2231577537835507,2.470719894199949,-1.7752722692382736,-1.7414435177123109,-2.28299,0.0127776136458651,-0.0002006744892553,-0.2248601131581148,-0.0619485492906712,-0.0308399899662756,-0.2280000000000001,0.7466877518741509,-0.3955622946369956,0.3988413744665645,0.9912702424824225,0.02876063033878014,-0.12861948918893965,0.003627604186194961
1753104159.4069128,1.6221889071807143,-1.2231581560126807,2.470269187745067,-1.7753964380410183,-1.7415053329553576,-2.283447,0.0128336558109786,-0.000201554640524,-0.2258463417245977,-0.0622202534542268,-0.0309752530801628,-0.2290000000000001,0.7465111245787265,-0.3959092341264204,0.3988388228514812,0.9912723408505255,0.028762586904923292,-0.12860296272287886,0.003624615587055043
1753104159.4090457,1.6222146305345015,-1.2231585600021129,2.4698165088330515,-1.7755211502520902,-1.7415674187246315,-2.283906,0.012889697976092,-0.0002024347917927,-0.2268325702910807,-0.0624919576177823,-0.03111051619405,-0.2300000000000001,0.7463335611090535,-0.3962576116184913,0.39883626203120237,0.9912744450409519,0.02876454889584852,-0.1285863878222261,0.0036216297993040755
1753104159.411472,1.6222404659726188,-1.223158965751848,2.4693618574639027,-1.7756464058714894,-1.741629775020133,-2.284367,0.0129457401412054,-0.0002033149430613,-0.2278187988575637,-0.0627636617813379,-0.0312457793079372,-0.2310000000000001,0.7461550593643108,-0.396607425982981,0.39883369203132624,0.9912765550096984,0.02876651627041346,-0.12856976481116664,0.0036186470081654514
1753104159.4129248,1.6222664134950664,-1.2231593732618853,2.468905233637621,-1.7757722048992155,-1.7416924018418634,-2.28483,0.0130017823063189,-0.00020419509433,-0.2288050274240466,-0.0630353659448935,-0.0313810424218243,-0.2320000000000001,0.7459756172353689,-0.39695867608305807,0.3988311128775585,0.9912786707125708,0.028768488987296538,-0.12855309401552675,0.003615667399161997
1753104159.41514,1.622292473101844,-1.223159782532225,2.4684466373542064,-1.7758985473352693,-1.7417552991898209,-2.285295,0.0130578244714323,-0.0002050752455987,-0.2297912559905296,-0.0633070701084491,-0.0315163055357115,-0.2330000000000001,0.7457952326047992,-0.3973113607752675,0.3988285245957155,0.9912807921051843,0.028770467004995068,-0.12853637576277366,0.003612691158109421
1753104159.4171338,1.622318644792952,-1.223160193562867,2.467986068613659,-1.7760254331796492,-1.7418184670640056,-2.285762,0.0131138666365458,-0.0002059553968673,-0.2307774845570125,-0.0635787742720047,-0.0316515686495987,-0.2340000000000001,0.7456139033468878,-0.39766547890950715,0.39882592721172194,0.9912829191429622,0.02877245028182709,-0.1285196103820212,0.003609718471109527
1753104159.419007,1.6223449285683902,-1.2231606063538123,2.4675235274159784,-1.7761528624323573,-1.7418819054644192,-2.286231,0.0131699088016592,-0.000206835548136,-0.2317637131234955,-0.0638504784355602,-0.0317868317634859,-0.2350000000000001,0.7454316273276483,-0.3980210293290078,0.39882332075161264,0.9912850517811372,0.028774438775930056,-0.12850279820402927,0.003606749524545665
1753104159.4211075,1.6223713244281586,-1.22316102090506,2.467059013761165,-1.7762808350933916,-1.74194561439106,-2.286702,0.0132259509667727,-0.0002077156994046,-0.2327499416899785,-0.0641221825991158,-0.031922094877373,-0.2360000000000001,0.7452484024048338,-0.3983780108703105,0.3988207052415309,0.9912871899747507,0.028776432445262005,-0.12848593956120868,0.003603784505070784
1753104159.4245596,1.6223978323722574,-1.2231614372166095,2.4665925276492184,-1.7764093511627532,-1.7420095938439282,-2.287175,0.0132819931318861,-0.0002085958506733,-0.2337361702564614,-0.0643938867626714,-0.0320573579912602,-0.2370000000000001,0.7450642264279487,-0.3987364223632455,0.3988180807077282,0.9912893336786532,0.02877843124760025,-0.1284690347876223,0.0036008235996046753
1753104159.4292498,1.6224780287105347,-1.223162696713075,2.465181234570581,-1.7767981598208014,-1.742203155359901,-2.288606,0.0134501196272264,-0.0002112363044793,-0.2366948559559103,-0.0652089992533381,-0.0324631473329217,-0.2400000000000001,0.7445059705444558,-0.3998202247490238,0.3988101532281647,0.9912957973977314,0.028784458027729228,-0.12841804704773163,0.003591967440301085
1753104159.430988,1.6225049849919542,-1.223163120065836,2.464706858630103,-1.776928849523472,-1.7422682169176813,-2.289087,0.0135061617923399,-0.000212116455748,-0.2376810845223933,-0.0654807034168937,-0.0325984104468089,-0.2410000000000002,0.7443179686818107,-0.40018434421180615,0.3988074928641912,0.9912979626874715,0.02878647693626848,-0.12840096112484217,0.003589024865140048
1753104159.4329722,1.622532053357704,-1.223163545178899,2.464230510232492,-1.777060082634469,-1.742333549001688,-2.28957,0.0135622039574533,-0.0002129966070166,-0.2386673130888762,-0.0657524075804493,-0.0327336735606961,-0.2420000000000002,0.7441290048893364,-0.40054988767394223,0.3988048236093959,0.9913001332588863,0.028788500764001294,-0.12838383076637225,0.0035860873423254
1753104159.434943,1.622559233807784,-1.223163972052264,2.463752189377748,-1.7771918591537936,-1.7423991516119235,-2.290055,0.0136182461225668,-0.0002138767582853,-0.2396535416553592,-0.0660241117440048,-0.0328689366745833,-0.2430000000000002,0.7439390769673146,-0.4009168539245371,0.39880214549068627,0.9913023090656796,0.02879052946762518,-0.1283666563163505,0.00358315506022429
1753104159.4368217,1.6225865263421944,-1.2231644006859312,2.46327189606587,-1.777324179081445,-1.7424650247483866,-2.290542,0.0136742882876802,-0.000214756909554,-0.2406397702218422,-0.0662958159075604,-0.0330041997884704,-0.2440000000000002,0.7437481827078676,-0.4012852417458304,0.39879945853507787,0.9913044900613643,0.028792563003656044,-0.1283494381204751,0.003580228207417651
1753104159.439166,1.6226139309609349,-1.2231648310799024,2.4627896302968604,-1.7774570424174243,-1.7425311684110776,-2.291031,0.0137303304527937,-0.0002156370608226,-0.2416259987883251,-0.066567520071116,-0.0331394629023576,-0.2450000000000002,0.7435563198949731,-0.4016550499131734,0.39879676276969683,0.9913066761992627,0.028794601328432336,-0.128332176526115,0.003577306972697004
1753104159.4410508,1.6226414476640054,-1.2231652632341747,2.462305392070717,-1.77759044916173,-1.7425975825999958,-2.291522,0.0137863726179071,-0.0002165172120913,-0.242612227354808,-0.0668392242346716,-0.0332747260162448,-0.2460000000000002,0.743363486304475,-0.40202627719500994,0.3987940582217743,0.9913088674325051,0.02879664439810994,-0.128314871882316,0.003574391545052707
1753104159.4429982,1.6226690764514065,-1.22316569714875,2.461819181387441,-1.777724399314362,-1.742664267315142,-2.292015,0.0138424147830205,-0.0002173973633599,-0.243598455921291,-0.0671109283982271,-0.0334099891301319,-0.2470000000000002,0.7431696797040995,-0.40239892235284974,0.39879134491865353,0.991311063714032,0.02879869216866587,-0.1282975245397994,0.0035714821136715916
