mathias31415/evaluate_motion_primitives_from_trajectory_controller/data/trajectory_20250716_101518_executed.csv
timestamp,elbow_joint_pos,shoulder_lift_joint_pos,shoulder_pan_joint_pos,wrist_1_joint_pos,wrist_2_joint_pos,wrist_3_joint_pos,elbow_joint_vel,shoulder_lift_joint_vel,shoulder_pan_joint_vel,wrist_1_joint_vel,wrist_2_joint_vel,wrist_3_joint_vel,pose_x,pose_y,pose_z,pose_qx,pose_qy,pose_qz,pose_qw
1752653763.4780805,1.2870424429522913,-1.3508457404426115,2.0207974910736084,-1.506828398709633,-1.5711563269244593,-2.748967234288351,-0.0,-0.0,-0.0,0.0,0.0,0.0,0.5151429167124345,-0.6661446082837827,0.6985112895138161,0.9995885112049525,0.02868395180553284,-0.00019792327124289058,-1.5044013170957928e-06
1752653763.4787116,1.2870782057391563,-1.350920410161354,2.020751476287842,-1.5068535146168252,-1.5711754004107874,-2.748938862477438,-0.0,-0.0,-0.0,0.0,0.0,0.0,0.515093472191652,-0.6661345172642504,0.6985511346271431,0.9995895778760937,0.02864676852216435,-0.00019353496442083484,3.160613595936614e-05
1752653763.479353,1.2870639006244105,-1.350862131719925,2.0207767486572266,-1.5068369519761582,-1.571279827748434,-2.748938862477438,-0.0,-0.0,-0.0,0.0,0.0,0.0,0.5151121321435381,-0.6661532609782512,0.6985110147148796,0.9995892022906598,0.028659409078699082,-0.0002535606802789569,2.5340945604753918e-05
1752653763.483566,1.2870648542987269,-1.3508994740298768,2.0207974910736084,-1.506852464084961,-1.5712350050555628,-2.748892132435934,-0.0,-0.0,-0.0,0.0,0.0,0.0,0.515122996050952,-0.6661244514332717,0.6985429785089358,0.9995895817341882,0.028646413305234816,-0.0002224951032728916,3.986408599347958e-05
1752653763.484767,1.287103001271383,-1.3508666467717667,2.0207767486572266,-1.5068210300854226,-1.571181599293844,-2.7488847414599817,-0.0,-0.0,-0.0,0.0,0.0,0.0,0.5151192539150172,-0.6661416833017136,0.6984858338340395,0.9995899857471396,0.028632360821107955,-0.0002190697609007195,-1.778434535181114e-05
1752653763.4886773,1.287051026021139,-1.3508904588273545,2.020751476287842,-1.506828398709633,-1.571230713521139,-2.748988215123312,-0.0,-0.0,-0.0,0.0,0.0,0.0,0.5150940864793343,-0.6661506117302877,0.6985422115942824,0.9995888641277465,0.028671438942414213,-0.00022447618882404,3.0186311679486953e-05
1752653763.4890814,1.28705341020693,-1.3508457255414503,2.020760297775269,-1.506840543156006,-1.571225945149557,-2.748917881642477,-0.0,-0.0,-0.0,0.0,0.0,0.0,0.5151110707370302,-0.6661677871063084,0.6985051659220334,0.9995897446094039,0.028640699156847305,-0.00022945067264093784,1.3262828188754648e-05
1752653763.4966478,1.287100617085592,-1.350862131719925,2.0207767486572266,-1.5068362441710017,-1.5711773077594202,-2.748958174382345,-0.0,-0.0,-0.0,0.0,0.0,0.0,0.5151215756715237,-0.6661453399704125,0.6984855824112971,0.9995889349181173,0.028669060767142072,-0.00021443576037361736,-1.2700329914221095e-05
1752653763.4970305,1.287058178578512,-1.3508591812900086,2.020751476287842,-1.506849223082401,-1.5712044874774378,-2.748892132435934,-0.0,-0.0,-0.0,0.0,0.0,0.0,0.5151046896267314,-0.666165536448028,0.698513999908799,0.9995902425182741,0.02862341833255967,-0.00021610862204666064,1.680120852624356e-05
1752653763.4972908,1.287075344716207,-1.3508576464704056,2.0208139419555664,-1.5067961525968094,-1.571181599293844,-2.748955313359396,-0.0,-0.0,-0.0,0.0,0.0,0.0,0.5151457594236735,-0.6661261047753145,0.6984945266111818,0.9995884411589823,0.02868622187514959,-0.00022034162000937287,-2.0626585515030468e-05
1752653763.4987345,1.2870553175555628,-1.3508785677007218,2.020793199539185,-1.506840580408909,-1.5711563269244593,-2.748967234288351,-0.0,-0.0,-0.0,0.0,0.0,0.0,0.5151328331217309,-0.6661318624317475,0.6985309090055483,0.9995885740276929,0.028681804064544538,-0.00019135247906332112,1.3157332808955516e-05
1752653763.5057657,1.287034336720602,-1.3508919936469574,2.0207724571228027,-1.506819636826851,-1.5711935202227991,-2.748892132435934,-0.0,-0.0,-0.0,0.0,0.0,0.0,0.5151117576374071,-0.6661374873991885,0.69855394360904,0.9995899442804231,0.028633901420121226,-0.00020556924835057042,2.691110033188547e-05
1752653763.5064232,1.2871249357806605,-1.3508995038321991,2.020781278610229,-1.5068405506065865,-1.571188751851217,-2.748913351689474,-0.0,-0.0,-0.0,0.0,0.0,0.0,0.5151143460382945,-0.6661248588485662,0.698500103748578,0.9995895120431403,0.028648921530237317,-0.00021610781240232043,-2.4340336083787345e-06
1752653763.5070455,1.2870000044452112,-1.3508994293263932,2.020735263824463,-1.5068326231888314,-1.571169678364889,-2.748934332524435,-0.0,-0.0,-0.0,0.0,0.0,0.0,0.5150896629009621,-0.6661558082873789,0.698585321821634,0.9995898763115804,0.028636398072515938,-0.00018349599450321084,4.701118726994333e-05
1752653763.5075798,1.2870824972735804,-1.3509084445289157,2.020760297775269,-1.5068492901376267,-1.5712350050555628,-2.748908821736471,-0.0,-0.0,-0.0,0.0,0.0,0.0,0.515095424331993,-0.6661378214090949,0.6985378110765615,0.9995898749865143,0.028636166801327544,-0.000224918586582407,3.445287509428378e-05
1752653763.50924,1.2870596090899866,-1.3508501958898087,2.020727634429932,-1.5068449464491387,-1.5712178389178677,-2.748962704335348,-0.0,-0.0,-0.0,0.0,0.0,0.0,0.5150891624422065,-0.6661821316167044,0.6985050976937632,0.9995895714528373,0.02864677575079118,-0.00022520555700539553,1.281694691274889e-05
1752653763.511551,1.287013355885641,-1.3508382451585312,2.0207855701446533,-1.5068239507130166,-1.571197811757223,-2.748955313359396,-0.0,-0.0,-0.0,0.0,0.0,0.0,0.5151330981536226,-0.6661579786765014,0.698524659405723,0.9995888497951073,0.028672035672506438,-0.00021334626287983376,1.4800705388157218e-05
1752653763.5142398,1.2870624701129358,-1.3508546960404892,2.0208020210266118,-1.5067546305111428,-1.5711901823626917,-2.748913351689474,-0.0,-0.0,-0.0,0.0,0.0,0.0,0.5151359256085524,-0.6661306269498758,0.6984960070831406,0.9995892108570472,0.02865929515366041,-0.00023071967938387188,-3.328528904924825e-05
1752653763.517789,1.2870424429522913,-1.3508547407439728,2.020747184753418,-1.5068004068783305,-1.5712135473834437,-2.748896662388937,-0.0,-0.0,-0.0,0.0,0.0,0.0,0.5150999534108037,-0.6661662880260011,0.6985153531436493,0.9995902365044274,0.028623541664801976,-0.00022791497623497685,1.5329410559138856e-06
1752653763.522957,1.2870739142047327,-1.3508710873178025,2.0207974910736084,-1.506840632562973,-1.571197811757223,-2.748917881642477,-0.0,-0.0,-0.0,0.0,0.0,0.0,0.5151323775268176,-0.6661339065032496,0.6985119183659613,0.9995892149832606,0.028659286615550877,-0.0002156023132573285,9.771331421353984e-06
1752653763.527354,1.287103001271383,-1.3508621466210862,2.020772218704224,-1.5067588624409218,-1.571185890828268,-2.748938862477438,-0.0,-0.0,-0.0,0.0,0.0,0.0,0.515113647148266,-0.6661398064233331,0.6984746774330695,0.9995892707956927,0.02865715276624301,-0.0002346596153148473,-4.733215005328022e-05
1752653763.527894,1.2870696226703089,-1.3508457106402894,2.0208094120025635,-1.506803722386696,-1.5712135473834437,-2.748908821736471,-0.0,-0.0,-0.0,0.0,0.0,0.0,0.5151426606738665,-0.6661368305429234,0.6984895507843892,0.9995891694661684,0.028660723085359135,-0.0002346416820155512,-1.3470012834971577e-05
1752653763.5295882,1.2870872656451624,-1.350816727881767,2.0208020210266118,-1.5068209779313584,-1.571181599293844,-2.748955313359396,-0.0,-0.0,-0.0,0.0,0.0,0.0,0.5151478772814415,-0.6661530686083467,0.6984555606052831,0.999588610423733,0.028680266513830648,-0.00022606993146122894,-3.341005995061619e-05
1752653763.5319817,1.2870519796954554,-1.350842760210373,2.020781278610229,-1.5068326082876702,-1.5712092558490198,-2.748950783406393,-0.0,-0.0,-0.0,0.0,0.0,0.0,0.515127114281058,-0.666156786399267,0.6985027584969307,0.9995889739794362,0.02866762972746104,-0.00022377217832476724,5.528043581133399e-06
1752653763.533796,1.287030045186178,-1.3508786124042054,2.020781278610229,-1.5068449538997193,-1.5712178389178677,-2.748967234288351,-0.0,-0.0,-0.0,0.0,0.0,0.0,0.5151195288070796,-0.6661433825952828,0.6985489162892174,0.9995887398644463,0.028675844813815486,-0.00021334811956446996,3.9281064449687604e-05
1752653763.5355515,1.2870624701129358,-1.350812242632248,2.020781278610229,-1.506807991569378,-1.5712512175189417,-2.748913351689474,-0.0,-0.0,-0.0,0.0,0.0,0.0,0.5151279695153747,-0.6661698010106372,0.6984674266773407,0.9995895021536609,0.028648930602969518,-0.00025633750881235595,-1.5829850728415682e-05
1752653763.5375285,1.2870424429522913,-1.3508949738791962,2.020781278610229,-1.5068491709283371,-1.571181599293844,-2.748892132435934,-0.0,-0.0,-0.0,0.0,0.0,0.0,0.5151194287128507,-0.6661334645854571,0.6985543425901821,0.9995898198684801,0.028638307702387934,-0.00019513867665007899,3.561095167272096e-05
1752653763.539774,1.2870624701129358,-1.350862131719925,2.0207529067993164,-1.5068210449865838,-1.5711563269244593,-2.748929802571432,-0.0,-0.0,-0.0,0.0,0.0,0.0,0.5151084543695588,-0.6661577151804711,0.6985100898678539,0.9995896861402985,0.028642961635421998,-0.0002001703984176991,-6.519414299697814e-06
1752653763.542645,1.2870624701129358,-1.350862131719925,2.0207529067993164,-1.5068210449865838,-1.5711563269244593,-2.748929802571432,-0.0,-0.0,-0.0,0.0,0.0,0.0,0.5151084543695588,-0.6661577151804711,0.6985100898678539,0.9995896861402985,0.028642961635421998,-0.0002001703984176991,-6.519414299697814e-06
1752653763.5429432,1.287112061177389,-1.3508756172708054,2.0207767486572266,-1.5067874801209946,-1.571230713521139,-2.7488680521594446,-0.0,-0.0,-0.0,0.0,0.0,0.0,0.5151100622082894,-0.6661358148719027,0.6984829534383291,0.9995902175097452,0.028624025641559976,-0.00024835834108100514,-2.308735790236384e-05
1752653763.5459971,1.287051026021139,-1.3508830529502411,2.0207855701446533,-1.5068524715355416,-1.571225945149557,-2.748892132435934,-0.0,-0.0,-0.0,0.0,0.0,0.0,0.5151201868373583,-0.6661387880594104,0.6985389946128453,0.9995897533730131,0.028640455342882697,-0.00021889026787631812,3.6830445095027666e-05
1752653763.5492013,1.287001911793844,-1.3508256536773224,2.0207974910736084,-1.5067707312158127,-1.5711773077594202,-2.748958174382345,-0.0,-0.0,-0.0,0.0,0.0,0.0,0.5151437275487782,-0.6661519086859274,0.6985158059213176,0.9995886373581945,0.028679428018651795,-0.0002151077587721324,-1.4197292759802848e-05
1752653763.5510924,1.2870824972735804,-1.3508785527995606,2.020772218704224,-1.5068124395659943,-1.5712335745440882,-2.748929802571432,-0.0,-0.0,-0.0,0.0,0.0,0.0,0.5151083793913468,-0.666141678262538,0.6985087682285057,0.9995894011336087,0.028652618112578326,-0.0002379136609866948,3.7064937291447973e-06
1752653763.5597026,1.2870824972735804,-1.3508803260377429,2.020781278610229,-1.506775179212429,-1.571139160786764,-2.748941723500387,-0.0,-0.0,-0.0,0.0,0.0,0.0,0.5151220344394587,-0.6661274872092664,0.6985057600988919,0.9995891079200352,0.028663103041381137,-0.000202091462397392,-3.179163363007911e-05
1752653763.5600958,1.2870467344867151,-1.3508457255414503,2.020772218704224,-1.5068449986032029,-1.571246925984518,-2.748934332524435,-0.0,-0.0,-0.0,0.0,0.0,0.0,0.5151172686973681,-0.666163659384513,0.6985103086099651,0.9995893363576513,0.02865487878968386,-0.00023674762801273252,2.263137770146824e-05
1752653763.5603726,1.2870963255511685,-1.3508337897113345,2.020781278610229,-1.506812484269478,-1.5712135473834437,-2.748950783406393,-0.0,-0.0,-0.0,0.0,0.0,0.0,0.5151261177016078,-0.6661558732058259,0.698462348422457,0.9995889694616079,0.02866763744686551,-0.00024074736659408048,-2.7103525712425088e-05
1752653763.5606256,1.287075344716207,-1.3508755725673218,2.0208182334899902,-1.506808043723442,-1.571197811757223,-2.748929802571432,-0.0,-0.0,-0.0,0.0,0.0,0.0,0.5151434820541182,-0.6661176060982172,0.6985107211969753,0.9995887454319077,0.02867561450205408,-0.00022164178379044638,-3.7032529368222167e-06
1752653763.5618577,1.2870829741107386,-1.350829319362976,2.0208020210266118,-1.5068004441312333,-1.5711844603167933,-2.74890119234194,-0.0,-0.0,-0.0,0.0,0.0,0.0,0.5151438497068791,-0.6661454976249152,0.6984664365837392,0.9995893856426894,0.028653217642514932,-0.00022812280157702777,-3.448461554160239e-05
1752653763.5653932,1.2870166937457483,-1.350929544573166,2.020781278610229,-1.506758914594986,-1.5711639563189903,-2.74894625345339,-0.0,-0.0,-0.0,0.0,0.0,0.0,0.5151098141583659,-0.6661088325579403,0.6985897798586365,0.99958904530829,0.02866535945808236,-0.00019321100026036222,1.8338752307836313e-05
1752653763.5669742,1.2870538870440882,-1.350816727881767,2.0207648277282715,-1.506812447016575,-1.5712021032916468,-2.7489715258227747,-0.0,-0.0,-0.0,0.0,0.0,0.0,0.5151216799293805,-0.6661747816152188,0.6984775776605885,0.9995889106958628,0.02866977913415329,-0.00023034396933633138,-1.788611498859675e-05
1752653763.568755,1.2871206442462366,-1.3508591812900086,2.0207767486572266,-1.5068326529911538,-1.5711935202227991,-2.748941723500387,-0.0,-0.0,-0.0,0.0,0.0,0.0,0.5151196582834708,-0.6661457148190347,0.698468898984505,0.9995891676183328,0.028660842062493395,-0.00022726602061889678,-2.1506117630588427e-05
1752653763.5707638,1.2870014349566858,-1.350833774810173,2.020751714706421,-1.5068283838084715,-1.5711773077594202,-2.7489314715014856,-0.0,-0.0,-0.0,0.0,0.0,0.0,0.5151143435630244,-0.6661777887095182,0.6985297346200287,0.9995896790076824,0.028643197056018872,-0.00020156088517285728,1.6029286282396516e-05
1752653763.5727112,1.2870710531817835,-1.3508248192122956,2.020748376846313,-1.5068239581635972,-1.571188751851217,-2.7488983313189905,-0.0,-0.0,-0.0,0.0,0.0,0.0,0.5151102849846585,-0.6661787757239388,0.6984737745729213,0.9995901962418368,0.02862497390417567,-0.00022375436497327545,-1.949809835620003e-05
1752653763.574936,1.2870467344867151,-1.35079579175029,2.0207855701446533,-1.5068326380899926,-1.5711520353900357,-2.7488892714129847,3.652916902296965e-08,-0.0,-0.0,0.0,0.0,0.0,0.5151467405731056,-0.6661739552537735,0.6984676819880943,0.9995897971988738,0.028639032578667133,-0.00020619013144879654,-2.5189326108260908e-05
1752653763.5767398,1.2870782057391563,-1.3508847069791337,2.0208048820495605,-1.5068196219256895,-1.5712135473834437,-2.748917881642477,0.0030065022874623,-0.0,-0.0,0.0,0.0,0.0,0.515131366944709,-0.6661220315384605,0.6985176602458502,0.9995891069240451,0.028662982366757996,-0.00022517096573242788,7.659561893753333e-06
1752653763.578705,1.287058178578512,-1.3508830529502411,2.0208094120025635,-1.5068449688008805,-1.571237866078512,-2.748950783406393,0.0026533352211117,-0.0,-0.0,0.0,0.0,0.0,0.5151341879768832,-0.6661258073851616,0.6985331592653197,0.9995885694167077,0.028681686711929014,-0.0002273269150725869,3.257747956365863e-05
1752653763.580705,1.2870824972735804,-1.3508875381997605,2.020735263824463,-1.5068167012980958,-1.571181599293844,-2.74892241159548,0.001943674404174,-0.0,-0.0,0.0,0.0,0.0,0.5150874091969015,-0.6661543366814056,0.6985166792485404,0.9995900422482575,0.028630450736975482,-0.00021148983214194997,-8.803203825299359e-07
1752653763.5837803,1.2870987097369593,-1.3508966875127335,2.0208005905151367,-1.5067917493036769,-1.571246925984518,-2.748908821736471,0.0013414990389719,-0.0,-0.0,-0.0015632212162017,0.0,0.0,0.5151201789072541,-0.6661159431568263,0.698510040220943,0.9995892927567217,0.02865631475405831,-0.0002478433706472583,-2.1206319950365823e-06
1752653763.5851002,1.2870209852801722,-1.3508830529502411,2.0207767486572266,-1.50680364788089,-1.5711653868304651,-2.7488847414599817,0.0012733093462884,-0.0,-0.0,-0.0025730771012604,0.0,0.0,0.5151192371947286,-0.6661373043442741,0.6985538757289976,0.9995899909795625,0.028632352632572394,-0.0001951003377858033,1.587641282677812e-05
1752653763.5888116,1.2870209852801722,-1.3508830529502411,2.0207767486572266,-1.50680364788089,-1.5711653868304651,-2.7488847414599817,0.0012733093462884,-0.0,-0.0,-0.0025730771012604,0.0,0.0,0.5151192371947286,-0.6661373043442741,0.6985538757289976,0.9995899909795625,0.028632352632572394,-0.0001951003377858033,1.587641282677812e-05
1752653763.5916135,1.2870829741107386,-1.3508666318706055,2.020748376846313,-1.506861225967743,-1.5712512175189417,-2.748925272618429,0.0019366436172276,-0.0,-0.0,-0.0028057068120688,0.0,0.0,0.5150957870331349,-0.6661654984853836,0.698504464677651,0.9995898071670434,0.02863843470842764,-0.00023852310632392737,2.391509573417301e-05
1752653763.5925968,1.2870448271380823,-1.3509131532958527,2.0207440853118896,-1.5068568226746102,-1.5712092558490198,-2.748967234288351,0.001825006911531,-0.0,-0.0,-0.0035842738579958,0.0,0.0,0.5150879604578651,-0.666146178801774,0.6985685927182077,0.9995892746485612,0.028657252368952026,-0.00020296571452424063,5.1953288484220414e-05
1752653763.5949223,1.2870824972735804,-1.35085021079097,2.0207810401916504,-1.5068394106677552,-1.571197811757223,-2.748938862477438,0.0019607827998697,-0.0,-0.0,-0.0047903531230986,0.0,0.0,0.5151257596033298,-0.6661513669463484,0.6984886478343015,0.9995891486467826,0.02866155370161023,-0.0002218763189509068,-4.231903971393373e-06
1752653763.5965695,1.2870424429522913,-1.3508830231479187,2.0208139419555664,-1.5068275791457673,-1.571181599293844,-2.748929802571432,0.0018417162355035,-0.0,-0.0,-0.0062200799584388,0.0,0.0,0.5151427837733972,-0.6661199449880082,0.698541909170387,0.9995888111080695,0.028673463203028913,-0.00020199793853005712,2.0305993329035856e-05
1752653763.6071956,1.287140194569723,-1.3508576613715668,2.020748376846313,-1.5069078293493767,-1.571185890828268,-2.748920742665426,0.0035658213309943,-0.0,-0.0,-0.0100467149168252,0.0,0.0,0.5151050310504469,-0.666167131228034,0.698463160581908,0.999589878149677,0.028636170270355286,-0.00021272126179360424,1.6203451802260491e-06
1752653763.6076078,1.287140194569723,-1.3508576613715668,2.020748376846313,-1.5069078293493767,-1.571185890828268,-2.748920742665426,0.0035658213309943,-0.0,-0.0,-0.0100467149168252,0.0,0.0,0.5151050310504469,-0.666167131228034,0.698463160581908,0.999589878149677,0.028636170270355286,-0.00021272126179360424,1.6203451802260491e-06
1752653763.6087675,1.2870696226703089,-1.3508666020682831,2.020760536193848,-1.5069359105876463,-1.571230713521139,-2.7489057222949427,0.0037991129793226,-0.0,-0.0,-0.0092935403808951,0.0,0.0,0.5151102973121018,-0.6661670120006816,0.6985226045755017,0.9995899179302714,0.028634730539830563,-0.00021117131131272382,5.988106273029722e-05
1752653763.6163526,1.28713304201235,-1.3508666467717667,2.0207886695861816,-1.507055119877197,-1.571181599293844,-2.748938862477438,0.0062268800102174,-0.0,-0.0,-0.0111282933503389,0.0,0.0,0.5151380159832332,-0.6661579443248048,0.6984931515961755,0.9995890458871466,0.028665348754398443,-0.00017734460361164392,7.531337340765235e-05
1752653763.6206577,1.2871421019183558,-1.3508785527995606,2.020772218704224,-1.5070833426764985,-1.5712092558490198,-2.748892132435934,0.0061853034421801,-0.0,-0.0,-0.0111370431259274,0.0,0.0,0.5151225879921911,-0.6661645775387278,0.6985000913231446,0.9995899482104148,0.028633768026363575,-0.00018360903905272709,9.514742914941963e-05
1752653763.6212664,1.2871487776385706,-1.3509113651565094,2.0208182334899902,-1.5070583534291764,-1.5712135473834437,-2.748917881642477,0.0072202091105282,-0.0,-0.0,-0.0111827459186315,0.0,0.0,0.5151439002814593,-0.6661226880513244,0.6985195224805789,0.9995889196822817,0.02866963513283904,-0.00018533153357877587,9.655040796196731e-05
1752653763.6224525,1.2871983687030235,-1.3508367401412509,2.0207767486572266,-1.5070941013148804,-1.571225945149557,-2.748925272618429,0.0076417997479438,-0.0,-0.0,-0.0112180085852742,0.0,0.0,0.5151318536309647,-0.6661796510534556,0.6984280940844901,0.9995894062506051,0.028652604579613765,-0.00020908104416917026,5.8715279977204794e-05
1752653763.6247404,1.2871812025653284,-1.3508457255414503,2.0207724571228027,-1.5071840819767497,-1.5712021032916468,-2.748913351689474,0.0082595450803637,-0.0,-0.0,-0.0113358879461884,0.0,0.0,0.5151346335947898,-0.6661871470832827,0.6984581291227587,0.9995896414874037,0.028644489594948648,-0.00017445498288980182,0.00010682877586352813
1752653763.6268148,1.2871983687030235,-1.3508875381997605,2.0207974910736084,-1.5071591672352334,-1.57113486925234,-2.74888784090151,0.0086182914674282,-0.0,-0.0,-0.0114458678290247,0.0,0.0,0.5151470884139357,-0.6661474947190645,0.6984777412112094,0.9995896545473113,0.028644252354541204,-0.0001438303796461049,9.296159541717331e-05
1752653763.6300156,1.2872303167926231,-1.3508456957391282,2.0207810401916504,-1.507162408237793,-1.5711935202227991,-2.748970333729879,0.0095350816845893,-0.0,-0.0,-0.0123739028349518,0.0,0.0,0.5151384470518324,-0.6661764830237801,0.6984216056784053,0.9995887028655277,0.028677265856170083,-0.00018502177465519866,7.275691785424406e-05
1752653763.630624,1.2871888319598597,-1.3508457255414503,2.020772218704224,-1.507226364021637,-1.5712178389178677,-2.74894625345339,0.0097672315314412,-0.0005689921090379,-0.0,-0.0120953330770134,0.0,0.0,0.515134700504243,-0.6661919538555677,0.6984579315352308,0.999589171422906,0.028660810642335513,-0.00017455082641978296,0.00012585468322587754
1752653763.633513,1.2872713247882288,-1.3508785527995606,2.020748376846313,-1.5072766479900856,-1.571185890828268,-2.7489057222949427,0.0102097289636731,-0.0008077509119175,-0.0,-0.0120869483798742,0.0,0.0,0.5151144494570159,-0.6661866311989944,0.6984340632567373,0.9995900966026299,0.028628638068630297,-0.00015984620854481385,0.00011960547592356899
1752653763.6366434,1.287286106740133,-1.350903959279396,2.0207724571228027,-1.5073112335852166,-1.5712135473834437,-2.748917881642477,0.0113629382103681,-0.001044247415848,-0.0,-0.0123230749741196,0.0,0.0,0.5151231048929241,-0.6661663460232617,0.6984489393777588,0.9995895738129463,0.02864674501421293,-0.00016321965800377843,0.0001458899796455622
1752653763.6387265,1.2873638311969202,-1.3508457106402894,2.020784378051758,-1.5072490212372325,-1.5711396376239222,-2.74892241159548,0.0114831356331706,-0.0010593335609883,-0.0,-0.0130215445533394,0.0,0.0,0.5151460522843644,-0.6661714664034204,0.6983398386037057,0.9995893462801313,0.028654986782280036,-0.00017002240465074415,4.035032741481622e-05
1752653763.6415353,1.2873461882220667,-1.3508576464704056,2.0207724571228027,-1.5073011380485075,-1.5711653868304651,-2.748967234288351,0.0122449938207864,-0.0009933097753673,-0.0,-0.0131144737824797,0.0,0.0,0.5151359792706603,-0.6661800942695528,0.6983680978914182,0.9995888731589567,0.028671423739846172,-0.00016506774617890528,8.288652843522993e-05
1752653763.6425018,1.287402455006735,-1.3508411806872864,2.020727634429932,-1.5073747497848051,-1.5712021032916468,-2.748996082936422,0.011761799454689,-0.0008638645522296,-0.0,-0.0132294157519936,0.0,0.0,0.5151077385787146,-0.6662163768920464,0.6983245172318095,0.9995890985748456,0.028663439659744414,-0.00018164426908075847,9.078854193357093e-05
1752653763.6495368,1.2874253431903284,-1.350890503530838,2.0207767486572266,-1.5074083146503945,-1.571188751851217,-2.7488635222064417,0.0127473631873726,-0.0006800900446251,-0.0,-0.0122773256152868,0.0,0.0,0.5151316570286109,-0.6661692776037099,0.6983533790809515,0.9995902944281932,0.02862172771879672,-0.0001632743724066475,0.00011545054473168087
1752653763.6525848,1.287466351185934,-1.3509188008359452,2.020760536193848,-1.5074690890363236,-1.5712512175189417,-2.748937193547384,0.0134181529283523,-0.0006815991946496,-0.0,-0.011820126324892,0.0,0.0,0.515109578358791,-0.6661710180174645,0.6983556747733766,0.9995894640920411,0.028650438482794395,-0.00018195323887915772,0.0001501464235572086
1752653763.6528802,1.2874820868121546,-1.3508814883283158,2.02075719833374,-1.507501633172371,-1.571197811757223,-2.74890119234194,0.013238500803709,-0.0006137258606031,-0.0,-0.0116219548508524,0.0,0.0,0.515122459916589,-0.6661896991788365,0.6983179690209883,0.9995900336362529,0.028630780928322015,-0.00016177591350402133,0.00012987325732016886
1752653763.6548183,1.287502590809957,-1.3509158802083512,2.0207440853118896,-1.50752109408889,-1.571185890828268,-2.748929802571432,0.0134943248704075,-0.0005629907245747,-0.0,-0.0112239429727196,0.0,0.0,0.5151075028195731,-0.6661803785756598,0.6983344838740732,0.9995898120084442,0.02863852342477949,-0.00014952033740936127,0.00014264866014626507
1752653763.6579778,1.2875521818744105,-1.3508695673993607,2.020784378051758,-1.507524700169899,-1.571204964314596,-2.7489433924304407,0.0134862400591373,-0.0005904544377699,-0.0,-0.0120882419869303,0.0,0.0,0.515141219128417,-0.6661789655713242,0.6982625282465772,0.9995890400527886,0.02866546243623263,-0.0001770944359981838,0.00010443764734765094
1752653763.6588995,1.2875211874591272,-1.3508859735778351,2.0207679271698,-1.507560209637024,-1.5712350050555628,-2.74890119234194,0.0145259378477931,-0.0006279787630774,-0.0,-0.0115156890824437,0.0,0.0,0.5151262970016871,-0.6661872856984177,0.6983016976830466,0.9995898755343613,0.028636139414906597,-0.00017384574966511647,0.00014841248397652043
1752653763.6608908,1.287593189870016,-1.3509068948081513,2.020792961120605,-1.5075724062374611,-1.5711725393878382,-2.748929802571432,0.0143426517024636,-0.0010762906167656,-0.0,-0.0115316035225987,0.0,0.0,0.5151429212398151,-0.6661575423982699,0.6982706931110193,0.9995891143528598,0.028662956371406385,-0.0001532960168529649,0.00011789676650526739
1752653763.6628735,1.287703816090719,-1.3509068948081513,2.0207810401916504,-1.5076125127128144,-1.571188751851217,-2.748950783406393,0.0152044389396905,-0.0011616314295679,-0.0,-0.0122233452275395,0.0,0.0,0.5151314423504683,-0.6661607038875071,0.6981991396471962,0.9995889837166724,0.02866749099754854,-0.00017511517048058456,8.903287361826282e-05
1752653763.6653144,1.28772479692568,-1.3509023946574708,2.0207855701446533,-1.5076403257301827,-1.5712178389178677,-2.7489641348468226,0.0150087242946028,-0.0011622358579188,-0.0,-0.0116703901439905,0.0,0.0,0.5151330960376593,-0.6661633407382636,0.6981842845153887,0.9995887244103713,0.028676427547465327,-0.00018791048067292698,9.604380800725448e-05
1752653763.667021,1.2877195517169395,-1.3508949738791962,2.0208048820495605,-1.507677600984909,-1.5711773077594202,-2.7489102522479456,0.0170477088540792,-0.0011128152254968,-0.0,-0.0123736169189214,0.0,0.0,0.5151539580026472,-0.6661590872453904,0.6981862567384035,0.9995892237532937,0.028659146288958614,-0.0001622361388911381,0.00010377721771448483
1752653763.669017,1.2877138296710413,-1.3508904737285157,2.0207855701446533,-1.507655830388405,-1.5711935202227991,-2.748938862477438,0.0150281591340899,-0.0009708611178211,-0.0,-0.0124014969915151,0.0,0.0,0.5151395012180515,-0.6661700844397933,0.6981838901290134,0.999589089111579,0.028663795312717812,-0.00017383782907829051,9.771265845136864e-05
1752653763.671414,1.2877219359027308,-1.3508978945067902,2.0208139419555664,-1.5077486124685784,-1.571197811757223,-2.748938862477438,0.0160747114568948,-0.0008607602794654,-0.0,-0.0130864344537258,0.0,0.0,0.5151607003677907,-0.6661613774974026,0.6981955297951606,0.999588680335339,0.028677966040774657,-0.0001569617231964663,0.0001406137867560764
1752653763.6728396,1.2878063360797327,-1.350881428723671,2.020735263824463,-1.5076792624643822,-1.5712092558490198,-2.7488892714129847,0.0170048587024211,-0.0008048055460676,-0.0,-0.0125342616811394,0.0,0.0,0.5151043213541946,-0.6661967645405417,0.6981153932750553,0.9995905177073888,0.028613874980885114,-0.00019699172530076854,6.528639004972201e-05
1752653763.6747231,1.2878020445453089,-1.3508695673993607,2.020792961120605,-1.5076990884593506,-1.5711396376239222,-2.748896662388937,0.0171362459659576,-0.0007147613214328,-0.0,-0.0126025108620524,0.0,0.0,0.5151538893807127,-0.666171432208068,0.6981109557433711,0.9995895927033598,0.028646404185509938,-0.00016271907724175872,5.664692089108142e-05
1752653763.6766176,1.287898842488424,-1.3508695673993607,2.0207855701446533,-1.5077789959362526,-1.571188751851217,-2.74890119234194,0.0180920325219631,-0.0007120642112568,-0.0,-0.0132202394306659,0.0,0.0,0.5151444704870495,-0.6661790941668664,0.6980537185600343,0.9995896289473198,0.028644976148187454,-0.00018858276637813342,5.898278996454554e-05
1752653763.6785862,1.2879074255572718,-1.350952298646309,2.020739793777466,-1.507758693104126,-1.571204964314596,-2.748929802571432,0.0179538168013095,-0.0007024583755992,-0.0,-0.013221189379692,0.0,0.0,0.5150923273007748,-0.6661621996174729,0.6981135241212482,0.9995898735665392,0.028636391251899436,-0.00018497232958660558,8.68592868810701e-05
1752653763.6807096,1.2879379431353968,-1.3509404075196765,2.0207560062408447,-1.507777878349163,-1.571181599293844,-2.748892132435934,0.0183775778859853,-0.0006568607641384,-0.0,-0.0132327293977141,0.0,0.0,0.5151081587292542,-0.666158004173609,0.6980849602597753,0.9995901829713049,0.028625669158212647,-0.00017905806658057716,7.14901856577537e-05
1752653763.6827066,1.2879741827594202,-1.3508932304433363,2.0207560062408447,-1.50778220713649,-1.571181599293844,-2.748929802571432,0.018697490915656,-0.0006232150481082,-0.0,-0.0132549572736024,0.0,0.0,0.5151177232684975,-0.666177806313491,0.6980215951213578,0.9995896423119253,0.02864450408497208,-0.00019523120637404345,3.5400838803575074e-05
1752653763.6845732,1.2879965941058558,-1.350876809363701,2.020760297775269,-1.5078584265759964,-1.5711682478534144,-2.748962704335348,0.0181344468146562,-0.0006390145281329,-0.0,-0.0143016939982771,0.0,0.0,0.5151287561011412,-0.6661889406882451,0.6980017294704143,0.9995891115328052,0.028663089362564065,-0.00018149511849319884,4.972698152009837e-05
1752653763.6886554,1.2880919615374964,-1.3509113800576706,2.0207855701446533,-1.5078941744617005,-1.571181599293844,-2.748929802571432,0.0199080593883991,-0.0010635196231305,-0.0,-0.0154208075255155,0.0,0.0,0.5151348791327202,-0.6661573214223286,0.6979686687933674,0.9995892190892062,0.02865927878781802,-0.00019270770869788103,4.103330336709615e-05
1752653763.6890314,1.2880919615374964,-1.3509113800576706,2.0207855701446533,-1.5078941744617005,-1.571181599293844,-2.748929802571432,0.0199080593883991,-0.0010635196231305,-0.0,-0.0154208075255155,0.0,0.0,0.5151348791327202,-0.6661573214223286,0.6979686687933674,0.9995892190892062,0.02865927878781802,-0.00019270770869788103,4.103330336709615e-05
1752653763.690672,1.2881477514850062,-1.350876749759056,2.020801782608032,-1.5079913970879095,-1.5712221304522913,-2.7489057222949427,0.0201835818588733,-0.001187119167298,-0.0,-0.0158164352178573,0.0,0.0,0.5151521875092702,-0.6661733032317431,0.6979132796420885,0.9995893278484348,0.028655346497285163,-0.00020980896654323645,5.242930944342678e-05
1752653763.692612,1.2881668249713345,-1.3508978945067902,2.0207767486572266,-1.5079981845668335,-1.5712092558490198,-2.7489269415484827,0.0199038907885551,-0.0011746183736249,-0.0,-0.0156288854777812,0.0,0.0,0.5151317791807247,-0.6661750248055434,0.6979183482587474,0.9995893840430893,0.028653438816681486,-0.0002021243568981186,5.383382145667547e-05
1752653763.6946616,1.2882030645953575,-1.350964830522873,2.020760536193848,-1.508033999507763,-1.571181599293844,-2.748880211506979,0.0206654425710439,-0.0011506315786391,-0.0,-0.0160863734781742,0.0,0.0,0.5151093665373896,-0.6661519237322503,0.6979527726527727,0.9995902888246976,0.02862197370055184,-0.0001759036741232203,7.852859308189012e-05
1752653763.6966896,1.2882469336139124,-1.350905106668808,2.0207767486572266,-1.50806978464637,-1.5712135473834437,-2.7489102522479456,0.0210208259522914,-0.0011017158394679,-0.0,-0.0166128724813461,0.0,0.0,0.5151305227487585,-0.666173573636534,0.6978775748547155,0.9995896226381943,0.02864509778557402,-0.00020434711556566594,5.412156266682852e-05
1752653763.6988835,1.288283650075094,-1.3509404373219986,2.020793199539185,-1.5080773171833537,-1.5712135473834437,-2.748950783406393,0.0217655934393405,-0.0009857694385573,-0.0,-0.0173559542745351,0.0,0.0,0.5151326260274632,-0.6661467661605899,0.6978822423544541,0.9995888062231136,0.028673576464082726,-0.00020309086932821747,5.692370149875111e-05
1752653763.700686,1.2883475462542933,-1.3508978945067902,2.0207886695861816,-1.5081293743899842,-1.571188751851217,-2.74894625345339,0.0219024661928415,-0.0009527575457468,-0.0,-0.0181882213801145,0.0,0.0,0.5151421736516841,-0.6661684680955346,0.6978093228159237,0.9995889372542173,0.02866905335801573,-0.00020289740424413952,2.704039746611751e-05
1752653763.7034612,1.288424317036764,-1.350952298646309,2.0207886695861816,-1.5082228866270562,-1.571181599293844,-2.748979393635885,0.0222271755337715,-0.0009406456956639,-0.0,-0.0185704585164785,0.0,0.0,0.5151327291837904,-0.6661469996043676,0.697812360105659,0.9995884644064084,0.02868560963706367,-0.00018508681099701734,5.803671952721903e-05
1752653763.7046337,1.288403336201803,-1.3509431344321747,2.020760297775269,-1.5081727144173165,-1.5711739698993128,-2.748950783406393,0.0215701684355735,-0.0009009074419736,-0.0,-0.0178248528391122,0.0,0.0,0.5151148852081165,-0.6661617564647725,0.6978132792157226,0.9995892812894378,0.02865713386640249,-0.00018944843063900213,3.8975893849315614e-05
1752653763.7064097,1.2884638945208948,-1.3509431344321747,2.0208094120025635,-1.5082402017763634,-1.5712135473834437,-2.748913351689474,0.0221067648380994,-0.0009243065724149,-0.0,-0.0182156134396791,0.0,0.0,0.5151447408967585,-0.6661411367881216,0.6977795669226045,0.9995891100841039,0.028662972719773753,-0.0002060877945828591,5.023898530369314e-05
1752653763.7086976,1.2884786764727991,-1.3509567838958283,2.0207691192626958,-1.5082561311176796,-1.5712021032916468,-2.748904291783468,0.0224859435111284,-0.00096602976555,-0.0,-0.0190021023154258,0.0,0.0,0.5151163187121179,-0.6661555528135131,0.6977825174522265,0.9995898185595926,0.028638304848125837,-0.0001978411799961032,5.464699435499279e-05
1752653763.7114942,1.2885711828814903,-1.3508795660785218,2.020760536193848,-1.5082713079503556,-1.5712555090533655,-2.7488680521594446,0.0234250333160161,-0.001428511342965,-0.0,-0.0193594302982091,0.0,0.0,0.5151198733981456,-0.6661934823284433,0.6976568639113694,0.9995904484459566,0.028615920930608264,-0.0002538118536601891,-4.9444529857140495e-06
1752653763.7126324,1.2886245886432093,-1.3509510320476077,2.0207364559173584,-1.508327679043152,-1.5712178389178677,-2.748913351689474,0.0233543626964092,-0.0015371839981526,-0.0,-0.0200337376445531,0.0,0.0,0.5150926935134068,-0.666172731181188,0.6976856338676422,0.9995901525509278,0.028626516545323936,-0.00022140410227880348,2.1305322084570955e-05
1752653763.714622,1.2887089888202112,-1.350969375377037,2.020751476287842,-1.5084121984294434,-1.571188751851217,-2.748908821736471,0.0232348348945379,-0.001825671410188,-0.0,-0.0208743251860141,0.0,0.0,0.5151029400533058,-0.6661576973534662,0.6976526142514508,0.9995900060382635,0.028631756862041544,-0.0002043569264173168,2.3783687226112943e-05
1752653763.716572,1.288710896168844,-1.3509885382703324,2.020751714706421,-1.5084276881865044,-1.5712178389178677,-2.7489102522479456,0.023660322651267,-0.0018305033445358,-0.0,-0.0214956626296043,0.0,0.0,0.5150964557164351,-0.6661516152522299,0.6976689432022846,0.9995899801391835,0.02863258837559714,-0.00021093281623626558,4.467222038817118e-05
1752653763.7186303,1.288673226033346,-1.3509885978749772,2.0207693576812744,-1.5084338162890454,-1.571225945149557,-2.748896662388937,0.0239538606256246,-0.0018202109495177,-0.0,-0.0205384958535432,0.0,0.0,0.5151089817938584,-0.6661463004019462,0.6976957301788692,0.9995899221360369,0.028634609575254984,-0.0002056623053357245,6.634425656156451e-05
1752653763.7206907,1.2887542883502403,-1.35092947006736,2.0207974910736084,-1.508506504153349,-1.5711730162249964,-2.748908821736471,0.0244248323142528,-0.0017772675491869,-0.0,-0.0212064590305089,0.0,0.0,0.5151474014696676,-0.6661583643346098,0.6975997675044605,0.999589348853398,0.028654753522285508,-0.00019531561306412548,2.4723027811369785e-05
1752653763.7226298,1.2888591925250452,-1.350962982778885,2.0207679271698,-1.508537882273533,-1.5711773077594202,-2.7489269415484827,0.0251089092344045,-0.0015668185660615,-0.0,-0.0222110319882631,0.0,0.0,0.5151176142928757,-0.6661538487929249,0.6975587256418181,0.9995895109354875,0.02864903770790996,-0.0002054563342366006,7.33881611168543e-06
1752653763.7246275,1.2888858954059046,-1.350976602440216,2.0207810401916504,-1.508638610397913,-1.5711773077594202,-2.748863760625021,0.0253399536013603,-0.0015385616570711,-0.0,-0.0221210289746522,0.0,0.0,0.5151274526945799,-0.6661493777828029,0.6975635851125581,0.9995902304872839,0.028624005749470167,-0.00018753271746812486,4.733616806299278e-05
1752653763.72655,1.2889555136310022,-1.3509748739055176,2.020792961120605,-1.5086672020009535,-1.571225945149557,-2.748899761830465,0.0256622899323701,-0.0014689924428239,-0.0,-0.0222392510622739,0.0,5.049066203355324e-06,0.5151296712880691,-0.6661444229711222,0.6975175329585231,0.9995895383131909,0.02864796222635427,-0.0002184682353860942,3.7772073714737903e-05
1752653763.7285964,1.2890685240374964,-1.3509884935668488,2.0207529067993164,-1.5086237241378804,-1.5712345282184046,-2.74892241159548,0.0258991979062557,-0.0015539105515927,-0.0,-0.0228811707347631,0.0,4.926175378727749e-08,0.5150928327311466,-0.6661463284415893,0.6974455354336697,0.9995897797229435,0.028639279187379883,-0.0002515993955975641,-2.5667270932670328e-05
1752653763.7310843,1.28906757036318,-1.3509793740561982,2.020801782608032,-1.5087328788689156,-1.571181599293844,-2.748880211506979,0.0260217785835266,-0.0015801510307937,-0.0,-0.0233718939125537,0.0,4.806275932800473e-10,0.5151385635984292,-0.6661342396933626,0.6974517574523792,0.9995896950451425,0.028642602915705685,-0.00020679857037525238,9.598094648755767e-06
1752653763.7329826,1.2890871206866663,-1.3509748888066788,2.0207767486572266,-1.5088014875403424,-1.5712555090533655,-2.74892241159548,0.0266857612878084,-0.0018086411291733,-0.0,-0.0242190361022949,0.0,-0.0002957764954771,0.5151179267748475,-0.6661587408642634,0.6974427920467847,0.9995894428756087,0.0286511799657472,-0.00023140744828625525,4.5042128148483815e-05
1752653763.7356794,1.2891843954669395,-1.3509703886559985,2.0207321643829346,-1.5088405807367344,-1.5712063948260706,-2.74894625345339,0.0264964196830987,-0.0018455135868862,-0.0,-0.0242339223623275,0.0,-0.0002295506565133,0.515092936583224,-0.6661782974700426,0.6973766186437065,0.9995897429891047,0.028640818213878757,-0.0002218156110049107,6.3913739702665966e-06
1752653763.736707,1.2892163435565394,-1.3509330761483689,2.0207855701446533,-1.5088805940798302,-1.5711730162249964,-2.748938862477438,0.0266066584736108,-0.0018613873980939,-0.0,-0.0240128468722105,0.0,-6.694986950606108e-06,0.5151413005927337,-0.6661683153166623,0.6973286164535692,0.9995890856693278,0.028663817552890068,-0.000212566184888152,-1.3772032624184068e-05
1752653763.7384655,1.289304558430807,-1.3510166269591828,2.0207440853118896,-1.5089564596167584,-1.571188751851217,-2.7489102522479456,0.0283939819782972,-0.0018709821160882,-0.0,-0.0244633983820676,0.0,-6.532035001782789e-08,0.5150939657050501,-0.666153117580944,0.6973456512294613,0.9995900912242097,0.028628778245739204,-0.0002051865759493684,2.1931746819093065e-05
1752653763.7423804,1.2892993132220667,-1.3509958249381562,2.020781278610229,-1.5089792062393208,-1.571185890828268,-2.748917881642477,0.0291258785873651,-0.0018437757389619,-0.0,-0.0248429141938686,0.0,-6.373049865615599e-10,0.5151250553193907,-0.6661462629566292,0.69733485930652,0.9995894498890978,0.02865117962147834,-0.00020241062042319425,2.4630253114306356e-05
1752653763.744601,1.289471451436178,-1.3509823095849534,2.0207560062408447,-1.5090745736709614,-1.571197811757223,-2.748938862477438,0.0277351643890142,-0.0016486251261085,-0.0,-0.0256867296993732,0.0,-6.066592947396797e-14,0.5151087476666588,-0.666163568021231,0.6972163262214871,0.9995895061776243,0.028649044011892704,-0.0002263118475386368,-1.4132422823515364e-05
1752653763.7465718,1.28947621980776,-1.351007641558983,2.0207321643829346,-1.5091265973499794,-1.5712092558490198,-2.748896662388937,0.028501758351922,-0.0016818206058815,-0.0,-0.0250939317047595,0.0,-5.918936004097409e-16,0.5150884418572522,-0.6661697578748897,0.6972401398764152,0.9995904538517469,0.02861602974816048,-0.00021669093293895397,2.132957022015212e-05
1752653763.7485905,1.289600674306051,-1.3510077011636277,2.0208256244659424,-1.5092038822225111,-1.571225945149557,-2.7489643732654017,0.0302379429340362,-0.0016324270982295,-0.0,-0.0263859163969755,0.0,-5.77487293821342e-18,0.5151484439827803,-0.6661214166909274,0.6971635397875725,0.9995881407453006,0.02869658766084741,-0.00023393890987579328,3.250062517646829e-06
1752653763.7505138,1.289600674306051,-1.3510196220925828,2.0207810401916504,-1.509197023963072,-1.571197811757223,-2.748934332524435,0.0297162719070911,-0.0017151104984804,-0.0,-0.0272207409143447,0.0,-5.634316185480513e-20,0.5151186718332573,-0.6661366935748817,0.6971725380301979,0.999589213995958,0.02865928877964151,-0.0002200671487713409,-1.9448220041851264e-07
1752653763.7525396,1.2896149794207972,-1.3509987157634278,2.020751714706421,-1.5092891503921528,-1.571225945149557,-2.748887602482931,0.0302436091005802,-0.0017032991163432,-0.0,-0.0266558304429054,0.0,-5.497180625911731e-22,0.5151050439279853,-0.6661715685106807,0.6971564797607347,0.9995903024994107,0.02862127175259765,-0.00022126525963471637,3.1529118458203075e-05
1752653763.75466,1.289673153554098,-1.3509987157634278,2.020784378051758,-1.509361771201231,-1.5712135473834437,-2.748913351689474,0.0316512361168861,-0.0018512075766921,-0.0,-0.0270788967609405,0.0,-5.3633828586330644e-24,0.5151297233633374,-0.6661574667125475,0.697125023523749,0.9995894679378461,0.02865046421153278,-0.0002126542102670741,3.5586293232341994e-05
1752653763.756482,1.2898123900042933,-1.3510321986726304,2.0207679271698,-1.5093920987895508,-1.571197811757223,-2.748934332524435,0.0298640802502632,-0.0018081935122609,-0.0,-0.0258334185928106,0.0,-5.232842254644704e-26,0.5151094934164419,-0.6661425304972101,0.6970601268420069,0.9995894016824817,0.028652735363883564,-0.00022089821538508916,-2.0503637330160127e-06
1752653763.7586465,1.2898715178119105,-1.3510106366923829,2.020792961120605,-1.5094737236252804,-1.5712302366839808,-2.7489057222949427,0.0286450535058975,-0.0017716067377477,-0.0,-0.0260626003146171,0.0,-5.105478022972748e-28,0.5151296484970487,-0.6661455257242308,0.6970113283644406,0.9995894495344612,0.02865094925586314,-0.0002355015968316397,5.0128545069014945e-06
1752653763.7605414,1.289950195943014,-1.3510412585786362,2.0207886695861816,-1.5094885614565392,-1.571197811757223,-2.748929802571432,0.0294288080185651,-0.0017708202358335,-0.0,-0.0273786038160324,0.0,-4.981214299575571e-30,0.5151212735397865,-0.6661276283901569,0.6969840212918685,0.9995891676730252,0.02866084145882185,-0.00022749974210104203,-1.677761313470526e-05
1752653763.762537,1.2899110952960413,-1.3510059726289292,2.0207767486572266,-1.5095763479224225,-1.5711730162249964,-2.748934332524435,0.031549971550703,-0.0016035384032875,-0.0,-0.0266572348773479,0.0,-4.85997471736241e-32,0.5151296986203867,-0.6661610066212128,0.696992459701103,0.9995892801907171,0.02865713770463855,-0.00019745519637620333,1.9945592878590734e-05
1752653763.7647462,1.2900484243976038,-1.3509987753680726,2.020825862884521,-1.5096152660301705,-1.5712302366839808,-2.748934332524435,0.0314300507307052,-0.0015924267936497,-0.0,-0.0271502714604139,0.0,-4.741686153472904e-34,0.5151551191800033,-0.6661359326439548,0.6968963956995315,0.9995885652821935,0.02868169766278745,-0.00024515889912044003,-1.653422368720284e-05
1752653763.7669234,1.290120903645651,-1.3509987157634278,2.0207974910736084,-1.5096098569086571,-1.5712092558490198,-2.748896662388937,0.03177285566926,-0.0015084738843142,-0.0,-0.0289233326911926,0.0,-4.626276255862416e-36,0.5151355819903385,-0.6661436066907335,0.6968456644007095,0.9995895086057753,0.028648697006809786,-0.000251526095698587,-5.638882702531172e-05
1752653763.769015,1.290163818989889,-1.3510151219419022,2.0207855701446533,-1.5097713370672246,-1.571185890828268,-2.748950783406393,0.0321200378239154,-0.0015116824069991,-0.0,-0.0295009203255176,0.0,-4.51367568006796e-38,0.5151330707714987,-0.6661547276796354,0.6968489041213783,0.999588914800337,0.028669773742042874,-0.0002132643835860457,4.091770466787858e-07
1752653763.770326,1.290187184010641,-1.351005957727768,2.020760536193848,-1.50977814689789,-1.5712006727801722,-2.748934332524435,0.032150000333786,-0.00150782847777,-0.0,-0.0283003859221935,0.0,-4.403818644879673e-40,0.5151164137651436,-0.6661716250986002,0.6968260410361088,0.9995895065074971,0.0286490430104146,-0.00022526811594668808,-8.304309437233887e-06
1752653763.772979,1.2903097311602991,-1.3509987157634278,2.0207724571228027,-1.509882190530636,-1.5711901823626917,-2.748938862477438,0.0320847295224666,-0.0014717044541612,-0.0,-0.0279399119317531,0.0,-4.2963810916198885e-42,0.5151279931469445,-0.6661702050767645,0.6967479440555074,0.9995892704455185,0.02865726707598421,-0.0002257460668909111,-2.2195606172041642e-05
1752653763.774804,1.290307346974508,-1.3509942305139084,2.020792961120605,-1.5098854352584858,-1.5712302366839808,-2.748934332524435,0.0324572511017322,-0.0015342908445745,-0.0,-0.0288869738578796,0.0,-4.203895392974451e-44,0.515138704838161,-0.6661642739366841,0.6967462851908588,0.9995890373877675,0.02866525282963752,-0.00024378820282349567,-1.3480404862926355e-05
1752653763.7767622,1.2903674284564417,-1.350994200711586,2.020760536193848,-1.5099938188544293,-1.571148697529928,-2.748917881642477,0.0326193012297153,-0.0015118521405383,-0.0,-0.0303256437182426,0.0,-0.0,0.5151290227623538,-0.6661838021755243,0.6967177683646976,0.9995897482824492,0.02864081644323283,-0.00019671297427235266,-8.130227416349829e-06
1752653763.7787435,1.2904637495623987,-1.3510441196015854,2.020784378051758,-1.5100295816412943,-1.571185890828268,-2.748908821736471,0.0325818657875061,-0.0015522625762969,-0.0,-0.0304277632385492,0.0,0.0,0.5151281783055367,-0.666146857283081,0.6966966905317531,0.9995895325657187,0.02864820694276066,-0.0002158590129394077,-5.375805293500017e-06
1752653763.780727,1.290537182484762,-1.351055846815445,2.0207855701446533,-1.5101174277118226,-1.5712178389178677,-2.748929802571432,0.0331848300993442,-0.0016216661315411,-0.0,-0.030339628458023,0.0,0.0,0.515124823078072,-0.6661462139404215,0.6966661874277852,0.9995892128276467,0.028659287528407594,-0.00022509070950316933,1.308213825349552e-05
1752653763.7827983,1.290579620991842,-1.3510151368430634,2.0207886695861816,-1.5101433557323,-1.5712135473834437,-2.748938862477438,0.0336899012327194,-0.0016702881548553,-0.0,-0.0305867604911327,0.0,0.0,0.5151362744133,-0.6661628996293679,0.6966064564941226,0.9995890361533012,0.02866537043374275,-0.00023483330407138,-1.3904308832001077e-05
1752653763.7846668,1.2907212416278284,-1.3510151368430634,2.020801782608032,-1.5102484126440068,-1.5712302366839808,-2.748941723500387,0.0337866619229316,-0.0017491347389295,-0.0,-0.0312691554427146,0.0,0.0,0.5151435282380366,-0.6661575494864245,0.696521280319566,0.9995888031018796,0.02867335893177889,-0.00024992504149772357,-2.7173419499274685e-05
1752653763.7867858,1.2906821409808558,-1.3510349553874512,2.020760536193848,-1.510259324019291,-1.5712135473834437,-2.7488635222064417,0.033692330121994,-0.0018147224327549,-0.0,-0.0311264209449291,0.0,0.0,0.5151153060473228,-0.6661727817733937,0.6965659081266491,0.9995905196397264,0.028613651405013603,-0.00022803073454213274,1.2798792063343482e-06
1752653763.7887888,1.2907746473895472,-1.3510140490582965,2.0207648277282715,-1.5103636060706158,-1.5712178389178677,-2.748917881642477,0.0342843644320964,-0.0019489901605993,-0.0,-0.0316985510289669,0.0,0.0,0.5151243877567682,-0.6661846043670947,0.6964973184528801,0.9995896791870459,0.02864296600380616,-0.00023185595866752988,-2.0143820049852426e-06
1752653763.790781,1.2908147017108362,-1.3510513466647645,2.0207560062408447,-1.510421847259142,-1.5711773077594202,-2.7489057222949427,0.0347387194633483,-0.0020426295232027,-0.0,-0.0316900424659252,0.0,0.0,0.5151159189415488,-0.6661729206666488,0.6965073743231026,0.9995899861759929,0.028632472830841468,-0.00020201694039278235,1.5014161091557347e-05
1752653763.7927444,1.2909439245807093,-1.3510140788606186,2.0207810401916504,-1.5104988378337405,-1.571185890828268,-2.748953644429342,0.0349951535463333,-0.0020386432297527,-0.0,-0.0316007919609546,0.0,0.0,0.5151393380135741,-0.6661762831496517,0.6963966866067641,0.99958893588598,0.028668944765617623,-0.00022423425304594492,-2.406989544739443e-05
1752653763.7948112,1.2909629980670374,-1.3510632824948807,2.0208094120025635,-1.5104966436377545,-1.5712092558490198,-2.7489550749408167,0.0350360050797462,-0.0019844339694827,-0.0,-0.0313382521271705,0.0,0.0,0.5151439551978484,-0.6661383604275969,0.6964237967908367,0.9995885077657858,0.02868383821847873,-0.00022918293902534937,-6.5426312535439066e-06
1752653763.7994626,1.2910683790790003,-1.351030455236771,2.0207409858703613,-1.5106384579888363,-1.5711849371539517,-2.74895960489382,0.0355383083224296,-0.0019579641520977,-0.0,-0.031627357006073,0.0,0.0,0.5151117061533982,-0.6661946973860752,0.6963409927248603,0.9995894263078745,0.028651901773576377,-0.00021734920448021288,-9.878010637531262e-06
1752653763.7999964,1.2911394278155726,-1.3510587972453614,2.020793199539185,-1.510648289029934,-1.5712178389178677,-2.748925272618429,0.0353317931294441,-0.0018639795016497,-0.0,-0.0316436514258384,0.0,0.0,0.5151346344379423,-0.6661520738539756,0.6963164751282398,0.9995891648804781,0.028660843725614702,-0.00023908449052225986,-1.8140852615247057e-05
1752653763.8007193,1.2911928335772913,-1.3511124861291428,2.0207560062408447,-1.5107408252409478,-1.571204964314596,-2.7489715258227747,0.0362167730927467,-0.0019080908969044,-0.0,-0.0317982882261276,0.0,0.0,0.5151019474985319,-0.6661514058579715,0.6963349278731559,0.9995890408938413,0.028665361762625508,-0.00021423060479702297,2.1568409958470136e-05
1752653763.8029408,1.2913091818438929,-1.3510542970946808,2.0207693576812744,-1.5107559871724623,-1.5711610952960413,-2.748892370854513,0.0360832028090953,-0.0020873537287116,-0.0,-0.0321456044912338,0.0,0.0,0.5151250930170601,-0.6661622778327307,0.6962084800485644,0.9995899787753243,0.02863248641855551,-0.000226804135622195,-6.011091450698651e-05
1752653763.807922,1.29147178331484,-1.3511080008796237,2.0207560062408447,-1.5110127453557034,-1.5712302366839808,-2.748938862477438,0.0366694778203964,-0.0024342252872884,-0.0,-0.0336376950144767,0.0,0.0,0.5151040871943927,-0.6661626081745349,0.6961712424571559,0.9995895057854312,0.028649038816396098,-0.00022811599200668847,2.1485538861683687e-05
1752653763.8088768,1.29147178331484,-1.3511080008796237,2.0207560062408447,-1.5110127453557034,-1.5712302366839808,-2.748938862477438,0.0366694778203964,-0.0024342252872884,-0.0,-0.0336376950144767,0.0,0.0,0.5151040871943927,-0.6661626081745349,0.6961712424571559,0.9995895057854312,0.028649038816396098,-0.00022811599200668847,2.1485538861683687e-05
1752653763.8107927,1.2915452162372034,-1.351045311694481,2.0207767486572266,-1.511021391754486,-1.5712221304522913,-2.748908821736471,0.0370332337915897,-0.0024426493328064,-0.0,-0.0337041728198528,0.0,0.0,0.5151306111975481,-0.6661760566952019,0.6960699330069902,0.9995896327344534,0.02864440466030594,-0.00025048407494622667,-3.8329953350408e-05
1752653763.8127332,1.2916606108294886,-1.3511080902865906,2.020736694335937,-1.51114263505254,-1.5712063948260706,-2.74892241159548,0.0374396070837974,-0.0026211612857878,-0.0,-0.03394515812397,0.0,0.0,0.5150935094529204,-0.6661709020571146,0.6960565193491364,0.9995900176771361,0.028631169908630415,-0.0002292705947398576,-1.024110695357313e-05
1752653763.8146868,1.2917454878436487,-1.35110695779834,2.0207974910736084,-1.5112012822977086,-1.5711892286883753,-2.748913351689474,0.0375515557825565,-0.0027139054145663,-0.0,-0.0343398340046405,0.0,0.0,0.5151359876232617,-0.6661390801029328,0.6960040166485447,0.999589276866718,0.028657029517520027,-0.00022703390505914944,-2.6228034591817922e-05
1752653763.816547,1.2917431036578575,-1.351089925771095,2.0207767486572266,-1.5112977784923096,-1.571221653615133,-2.74890119234194,0.0376586094498634,-0.002768974751234,-0.0,-0.0350075513124465,0.0,0.0,0.5151275630312129,-0.6661696184210516,0.696003194387139,0.9995897489852991,0.028640578599492594,-0.00022509120274878284,1.774664906286806e-05
1752653763.818598,1.2919109503375452,-1.351099045281746,2.0207114219665527,-1.5113518697074433,-1.571197811757223,-2.748917881642477,0.0378443077206611,-0.002742723096162,-0.0,-0.0351210124790668,0.0,0.0,0.515081206176441,-0.6661910044613302,0.695901311619253,0.9995904420442323,0.02861627938464488,-0.00023560840870282486,-3.4880856266126645e-05
1752653763.8205776,1.2919037977801722,-1.351116122012474,2.0207691192626958,-1.5113670130125063,-1.571204964314596,-2.74892241159548,0.0382039807736873,-0.0026795524172484,-0.0,-0.0355160906910896,0.0,0.0,0.5151160907254635,-0.6661558474740489,0.6959221338052416,0.9995895529109958,0.028647376736113665,-0.00023082182603111542,-1.5447298291419495e-05
1752653763.8225677,1.2920249144183558,-1.3511233639768143,2.0207810401916504,-1.511509438311197,-1.5712135473834437,-2.748938862477438,0.0401987507939338,-0.0026565352454781,-0.0,-0.0359326340258121,0.0,0.0,0.5151243688259328,-0.6661527042369121,0.6958615510285238,0.9995891470540732,0.02866155432086352,-0.00022889993319912382,-6.657959222758535e-07
1752653763.8246627,1.2920692602740689,-1.3510853958180924,2.0207440853118896,-1.511551359002926,-1.571255032216207,-2.748934332524435,0.0394793786108493,-0.002579215215519,-0.0,-0.0359460115432739,0.0,0.0,0.5151044311555244,-0.6661925474943373,0.6958046787318302,0.999589734513936,0.028640826813757313,-0.00025608797744593073,-1.0617498765355052e-05
1752653763.827109,1.2921317259417933,-1.3511233639768143,2.0207974910736084,-1.511578695183136,-1.5712178389178677,-2.7489102522479456,0.039349790662527,-0.0025667694862931,-0.0,-0.0365069881081581,0.0,0.0,0.5151345398850528,-0.6661437492227067,0.695796109479843,0.9995893187748708,0.028655481233674816,-0.00023853769734607106,-1.691813068964216e-05
1752653763.8284914,1.2922800222979944,-1.3511024576476591,2.0207529067993164,-1.511727263485529,-1.5711782614337366,-2.748913351689474,0.0391016341745853,-0.0026026046834886,-0.0,-0.0372016802430152,0.0,0.0,0.5151158606980905,-0.6661789270766094,0.69569430369826,0.9995899157060096,0.02863474714285376,-0.00022469841767934132,-3.443165180635057e-05
1752653763.8313248,1.2923701445208948,-1.3511516910842438,2.0207767486572266,-1.5117412370494383,-1.5712302366839808,-2.748953644429342,0.0395439751446247,-0.0025631620083004,-0.0,-0.0367864444851875,0.0,0.0,0.5151127163125769,-0.6661411817866537,0.695674324832221,0.9995889897298676,0.028666807196414578,-0.00025391681774348856,-3.6086502941616745e-05
1752653763.8331532,1.2924583593951624,-1.351105437879898,2.0208048820495605,-1.5118777689388772,-1.5712178389178677,-2.748955313359396,0.0408125221729278,-0.0026429176796227,-0.0,-0.0371188633143901,0.0,0.0,0.5151468550088486,-0.6661552434753869,0.6955916734079515,0.9995885639463966,0.028681701207077588,-0.00024783849651512053,-3.7676624422592154e-05
1752653763.8367257,1.292499844227926,-1.3511472058347245,2.0207679271698,-1.5119092625430604,-1.5711963812457483,-2.748917881642477,0.0417668856680393,-0.0027338401414453,-0.0,-0.0390137173235416,0.0,0.0,0.5151152328823271,-0.6661540296257434,0.6956012179365987,0.999589634387171,0.028644518680325397,-0.0002315500855861768,-2.756541587600028e-05
1752653763.8370442,1.2926047484027308,-1.3511143934777756,2.0207767486572266,-1.511972089563944,-1.5711935202227991,-2.748863760625021,0.040056861937046,-0.0029072773177176,-0.0,-0.0396273583173751,0.0,0.0,0.5151281505721292,-0.6661632960731392,0.6955092870860198,0.999590277812716,0.028621885324272185,-0.0002455603515088879,-6.23128801473208e-05
1752653763.8385158,1.2927144209491177,-1.351168156867363,2.0207648277282715,-1.5120645251921196,-1.5712135473834437,-2.748937193547384,0.0403195358812809,-0.0028692462947219,-0.0,-0.0362966358661651,0.0,0.0,0.5151067889769975,-0.6661470191926097,0.6954889417980367,0.9995893977762558,0.028652626491252373,-0.00024722671948763095,-4.156205184229888e-05
1752653763.8404577,1.292715851460592,-1.3511188489249726,2.0207691192626958,-1.512106430982687,-1.5712464491473597,-2.748917881642477,0.0418880619108676,-0.0030006780289113,-0.0,-0.0377871058881282,0.0,0.0,0.5151193077208304,-0.6661736242035659,0.6954523523863831,0.999589608651421,0.028645122548661712,-0.0002640455763123671,-3.886135211832777e-05
1752653763.8426049,1.2928407827960413,-1.3511874687722705,2.0207440853118896,-1.5122072485140343,-1.571185890828268,-2.748896662388937,0.0421518385410308,-0.0029735984280705,-0.0,-0.038766011595726,0.0,-3.472355456324294e-05,0.5150942133090983,-0.6661528635291266,0.6954347125593289,0.9995902803938692,0.028621997021548135,-0.00022731353000192124,-3.093806054479696e-05
1752653763.844743,1.292903725300924,-1.3511308294585724,2.0207440853118896,-1.5123393920115014,-1.571197811757223,-2.7488847414599817,0.0420149303972721,-0.0027757517527788,-0.0,-0.038583118468523,0.0,-3.4115724702132866e-05,0.515110061084158,-0.6661888698789581,0.6953604264444445,0.9995904505548309,0.02861603844794316,-0.00023018422580759452,-2.276748018631147e-05
1752653763.846594,1.2930281797992151,-1.3511382651380082,2.0207855701446533,-1.5123979833773156,-1.571181599293844,-2.748896662388937,0.0425741821527481,-0.0027938461862504,-0.0,-0.0413114018738269,0.0,-4.855265433434397e-05,0.515136193358811,-0.666160042153131,0.6952876486636415,0.9995896837447613,0.028642735013899797,-0.00023473530123516078,-5.2738125683512984e-05
1752653763.848706,1.2931330839740198,-1.3511784684709092,2.020760297775269,-1.512432650928833,-1.5712021032916468,-2.748892132435934,0.042942713946104,-0.0026981178671121,-0.0,-0.0393865294754505,0.0,-4.928907583234832e-05,0.5151061604071524,-0.6661512320613422,0.6952525006195414,0.9995901060114939,0.028627844362940275,-0.00025023161823088354,-6.225109551611793e-05
1752653763.8506038,1.2932408491717735,-1.3511665624431153,2.020760536193848,-1.5125572618893166,-1.5712302366839808,-2.748880211506979,0.0436462983489036,-0.0026597811374813,-0.0,-0.0392003580927848,0.0,-4.842094494961202e-05,0.5151084377178858,-0.6661630342187381,0.6951832214403644,0.9995902706064117,0.02862200713030963,-0.00026205832136102445,-5.424268829465478e-05
1752653763.854916,1.2933324019061487,-1.3511483532241364,2.0208005905151367,-1.512716845875122,-1.5711730162249964,-2.748913351689474,0.0458993166685104,-0.0025709352921694,-0.0,-0.0413811765611171,0.0,-4.674444062402472e-05,0.5151499661818643,-0.666157802721989,0.6951241279993512,0.9995892320998078,0.028658580466559815,-0.00022576226552656684,-4.321062161286069e-05
1752653763.8566177,1.2934654394732874,-1.3512239468148728,2.020793199539185,-1.5128090542605896,-1.5711935202227991,-2.7488847414599817,0.0451406724750995,-0.0026170061901211,-0.0,-0.0411984771490097,0.0,-4.594907659338787e-05,0.5151258164187966,-0.6661273027304819,0.6951056070848409,0.9995897480255318,0.028640585157395353,-0.0002280088153450679,-2.3153312124996154e-05
1752653763.8587174,1.29356557527651,-1.3511620622924347,2.0207440853118896,-1.5128587645343323,-1.5711892286883753,-2.748880211506979,0.0433215387165546,-0.0026006707921624,-0.0,-0.041237860918045,0.0,-4.517968409345485e-05,0.5151062714922026,-0.6661787236796244,0.6949914416715834,0.9995905079847743,0.02861378462583154,-0.00024901616514401865,-7.527998976819325e-05
1752653763.8605409,1.2936776320086878,-1.351152868275978,2.020760536193848,-1.512962845419981,-1.5711773077594202,-2.748938862477438,0.0454352162778377,-0.0026021068915724,-0.0,-0.0420409776270389,0.0,-4.4436539610615e-05,0.5151217355016837,-0.6661763817647225,0.694918970494691,0.9995894324405944,0.028651320763700354,-0.0002470861820302128,-8.555702471983876e-05
1752653763.8625524,1.2937458197223108,-1.3512357038310547,2.0207679271698,-1.5130743880620976,-1.5712092558490198,-2.748934332524435,0.0453224368393421,-0.0026773822028189,-0.0,-0.0416916608810424,0.0,-4.371710747363977e-05,0.5151079513826727,-0.666142404664517,0.6949535058781426,0.999589397883072,0.028652740702335377,-0.00023586036068117607,-2.144510831724071e-05
1752653763.864834,1.293788258229391,-1.3511857253364106,2.0207855701446533,-1.5131004613688963,-1.5712345282184046,-2.7489433924304407,0.0482591912150383,-0.0026522909756749,-0.0,-0.0417067371308803,0.0,-4.302005254430696e-05,0.5151280059588609,-0.6661572752213702,0.6948861538732656,0.9995890079033666,0.028666095185425802,-0.00026095771827799657,-4.654731826219582e-05
1752653763.8668735,1.2939484755145472,-1.3512074661305924,2.0207767486572266,-1.513192580347397,-1.5712135473834437,-2.748938862477438,0.0454087853431701,-0.0027600196190178,-0.0,-0.041443083435297,0.0,-4.234581138007343e-05,0.5151182983454905,-0.6661482659345221,0.6948044841439914,0.9995891976713664,0.02865942543454691,-0.0002608638235048421,-7.198986691784234e-05
1752653763.8702018,1.2940920034991663,-1.3512147229960938,2.0207440853118896,-1.513403871362545,-1.5712302366839808,-2.748880211506979,0.0473151095211505,-0.002465599682182,-0.0,-0.0434486493468284,0.0,-4.1057523048948497e-05,0.515098640731295,-0.6661739140694619,0.6947366835113323,0.9995905093142797,0.028613780420148366,-0.00025313901980334515,-3.4344183497686415e-05
1752653763.8724887,1.2941730658160608,-1.3512356591275712,2.0208094120025635,-1.5134308722666283,-1.5711773077594202,-2.748950783406393,0.0475214719772338,-0.0024095443077385,-0.0,-0.042676206678152,0.0,-4.044294109917246e-05,0.5151414406601362,-0.6661245947831553,0.6947011968960086,0.9995885657515847,0.028681701497101315,-0.0002357625282080103,-6.028226225092408e-05
1752653763.8745885,1.2943247000323694,-1.3512311440757294,2.0207724571228027,-1.513526239698269,-1.5711849371539517,-2.748934332524435,0.047217134386301,-0.0023106271401047,-0.0,-0.0405213199555873,0.0,-3.984611612395384e-05,0.5151163259402531,-0.6661446451169913,0.694604210121787,0.9995893252980225,0.028655015906470554,-0.000251671771006919,-8.645787321420798e-05
1752653763.8766203,1.2944100538836878,-1.3512176287225266,2.020751714706421,-1.5136259135654946,-1.5712302366839808,-2.748896662388937,0.0475161559879779,-0.0023698890581727,-0.0,-0.04288911819458,0.0,-3.926625504391268e-05,0.5151027067371649,-0.6661678796404437,0.6945460876489568,0.999590157080083,0.02862582551063262,-0.0002721769481039953,-7.682550894634522e-05
1752653763.8784995,1.2944639364825647,-1.351238564854004,2.0208182334899902,-1.5137292195907612,-1.5712021032916468,-2.748929802571432,0.0478799641132354,-0.0024960271548479,-0.0,-0.0429830327630043,0.0,-3.870372893288732e-05,0.5151485581043428,-0.6661292636092329,0.6945385099327069,0.9995887384196726,0.028675625100249888,-0.0002449537691324048,-5.047106450259198e-05
1752653763.8807745,1.2946346441852017,-1.3512549859336396,2.02080512046814,-1.513805059050657,-1.5712135473834437,-2.748958174382345,0.0481414794921875,-0.0026552476920187,-0.0,-0.0451297052204608,0.0,-3.815678792307153e-05,0.5151325460299327,-0.6661240207941996,0.6944432620289335,0.9995885116747943,0.028683260151424257,-0.00026621551404298546,-8.392946665175367e-05
1752653763.8828604,1.2946766058551231,-1.35125324249778,2.0207679271698,-1.5138885055533429,-1.5712135473834437,-2.748925272618429,0.0478148162364959,-0.0027192591223865,-0.0,-0.0443904250860214,0.0,-3.762472988455556e-05,0.5151108536790238,-0.6661495633044856,0.6944228511185823,0.9995895199435157,0.028648222980728978,-0.0002580889165076703,-6.579703021732209e-05
1752653763.884431,1.294856373463766,-1.3511966925910492,2.0207440853118896,-1.513960075830557,-1.5711773077594202,-2.748937193547384,0.0482171401381492,-0.0028914366848766,-0.0,-0.0428482368588447,0.0,-3.7107991374796256e-05,0.5151084421910412,-0.6661800233824319,0.6942607136001427,0.9995896769071503,0.028642277263767415,-0.000275238943059265,-0.00014838237292362697
1752653763.8864985,1.2948735396014612,-1.351250485782959,2.0207810401916504,-1.5140954603305836,-1.571225945149557,-2.748955313359396,0.0483204647898674,-0.0029708426445722,-0.0,-0.0454766191542148,0.0,-3.66048734576907e-05,0.5151221752969851,-0.6661514852246494,0.6943094031236242,0.9995889008472523,0.028669791224182003,-0.0002622597752150119,-5.994959804227905e-05
1752653763.8885975,1.2950027624713345,-1.351257936363556,2.0207648277282715,-1.5141507659903546,-1.5712626616107386,-2.748875681553976,0.0480965971946716,-0.0027875842060893,-0.0,-0.045831985771656,0.0,-3.611495048971847e-05,0.5151039174033673,-0.6661542352311657,0.6942329473396943,0.9995902632675399,0.028621899187902276,-0.00029260626866458943,-8.275976829174495e-05
1752653763.8904765,1.2950533072101038,-1.351262391810753,2.0207440853118896,-1.5142702993801611,-1.571169678364889,-2.748908821736471,0.0481785796582698,-0.0027931027580052,-0.0,-0.0457376055419445,0.0,-4.6336816012626514e-05,0.5151030675596915,-0.6661668510310553,0.6942160358383298,0.9995901025271642,0.02862808007235802,-0.00023516013149620994,-6.827017318493853e-05
1752653763.892906,1.2951644102679651,-1.351262406711914,2.0207724571228027,-1.5143787202290078,-1.5712302366839808,-2.748934332524435,0.0484928674995899,-0.0027247332036495,-0.0,-0.0457832179963588,0.0,-4.68875005026348e-05,0.5151170229883759,-0.6661582269149195,0.6941523287381534,0.9995893244204885,0.028655015222677802,-0.0002633369210979153,-5.710381238285261e-05
1752653763.894576,1.2953179518329063,-1.3512651336244126,2.020792961120605,-1.5144931834987183,-1.5712135473834437,-2.748988215123312,0.0470950230956077,-0.0026803812943398,-0.0,-0.0457715317606925,0.0,-4.629544491763227e-05,0.5151319798835233,-0.6661458801373369,0.6940622735976465,0.9995882565904264,0.028692195646783592,-0.0002631538969777953,-7.710710193008905e-05
1752653763.8965702,1.2953642050372522,-1.3512487572482603,2.0207855701446533,-1.5145694215646763,-1.5712135473834437,-2.7489269415484827,0.0495166629552841,-0.0025889496318995,-0.0,-0.045721385627985,0.0,-4.570813325699419e-05,0.5151328761666821,-0.6661617356083266,0.6940259788659049,0.9995892422977448,0.028657876105768847,-0.0002603732284670118,-7.089082210035607e-05
1752653763.8990486,1.2954238096820276,-1.3512743276408692,2.020751714706421,-1.5146069650403042,-1.5712345282184046,-2.748896662388937,0.0495315715670585,-0.0023972613271325,-0.0,-0.0465400665998458,0.0,-4.513506428338587e-05,0.5151021206814204,-0.6661678163073487,0.6940103903110402,0.9995901587802514,0.028625823319071205,-0.00026922852174681713,-6.499984886791307e-05
1752653763.9011254,1.2955697218524378,-1.3512696635774155,2.020760536193848,-1.5147109639695664,-1.5711935202227991,-2.748934332524435,0.0494122877717018,-0.0023186381440609,-0.0,-0.0463756471872329,0.0,-4.457586328499019e-05,0.5151132387634391,-0.6661631350603449,0.6939182576717343,0.999589493112123,0.02864906074833153,-0.00026004065637992834,-9.464113449003111e-05
1752653763.9038792,1.2957976500140589,-1.3512941610864182,2.0207679271698,-1.514938810174801,-1.5712388197528284,-2.748934332524435,0.0497868657112121,-0.0024947952479124,-0.0,-0.0460957288742065,0.0,-4.349895607447252e-05,0.5151110849512969,-0.6661568142956318,0.6938083623318562,0.9995893847097556,0.028652756311363315,-0.0002757175914068327,-7.4237077610471e-05
1752653763.9044857,1.2957976500140589,-1.3512941610864182,2.0207679271698,-1.514938810174801,-1.5712388197528284,-2.748934332524435,0.0497868657112121,-0.0024947952479124,-0.0,-0.0460957288742065,0.0,-4.349895607447252e-05,0.5151110849512969,-0.6661568142956318,0.6938083623318562,0.9995893847097556,0.028652756311363315,-0.0002757175914068327,-7.4237077610471e-05
1752653763.9081504,1.2959650198565882,-1.3512822699597855,2.020792961120605,-1.515166440313198,-1.5711892286883753,-2.74894625345339,0.0498997792601585,-0.002754486631602,-0.0,-0.0474690310657024,0.0,-4.2472605855437e-05,0.515140979585997,-0.6661579948036401,0.6937102692267961,0.9995888646217312,0.02867121720153361,-0.00024320024414364828,-6.230619390691838e-05
1752653763.910647,1.2960646788226526,-1.3512852054885407,2.0207440853118896,-1.5152122911861916,-1.571141544972555,-2.748892132435934,0.0502733625471591,-0.002768687903881,-0.0,-0.0472324676811695,0.0,-4.19773641624488e-05,0.5151114094365266,-0.66617658311164,0.6936493658875854,0.9995903398992688,0.028619740589474925,-0.00023184621753240142,-9.526797418535526e-05
1752653763.9125235,1.2962215582477017,-1.3512851905873795,2.0207440853118896,-1.5153162901154538,-1.5712507406817835,-2.7488847414599817,0.0495411045849323,-0.0027505448088049,-0.0,-0.0484724268317222,0.0,-4.149322558077984e-05,0.5150994203961663,-0.6661810230006562,0.6935534952244967,0.9995904291357229,0.02861606208127278,-0.0002924860393115512,-9.7072853227934e-05
1752653763.9147923,1.2962892691241663,-1.3513478946736832,2.020760536193848,-1.5154309061220663,-1.5712178389178677,-2.74892241159548,0.052826602011919,-0.0028261535335332,-0.0,-0.0487593524158,0.0,-4.8854526539798826e-05,0.515103150646198,-0.6661487658935175,0.6935721329085531,0.999589668339052,0.028643096913963467,-0.00025505969537790177,-5.3791755304891094e-05
1752653763.9165075,1.2964089552508753,-1.3513090026429673,2.0207855701446533,-1.5155100275627156,-1.5711773077594202,-2.748917881642477,0.0514962896704673,-0.0029326034709811,-0.0,-0.0482909604907035,0.0,-4.781761526828632e-05,0.5151323333871448,-0.6661509012338763,0.6934669250872146,0.9995893716932508,0.028653349081254907,-0.00025281519511700327,-9.83300413412145e-05
1752653763.9186766,1.2965291182147425,-1.3513971132091065,2.020789861679077,-1.5156023067286988,-1.5712464491473597,-2.748950783406393,0.0485341809689998,-0.0029384735971689,-0.0,-0.048472810536623,0.0,-4.658197576645762e-05,0.5151085090432096,-0.6661119781288931,0.6934676040189776,0.999588836847076,0.02867193793614039,-0.0002720460357920067,-5.6715519485197855e-05
1752653763.920679,1.2965934912311,-1.3513882172158738,2.020751714706421,-1.515717202132084,-1.5712092558490198,-2.748925272618429,0.0512415245175361,-0.0029090396128594,-0.0,-0.0488918833434581,0.0,-6.093114279792644e-05,0.5150924245777087,-0.6661409691471322,0.6934295893187946,0.9995897563320583,0.02864011500839631,-0.0002465635300957376,-4.532932425551462e-05
1752653763.9226406,1.2967546621905726,-1.351338909273483,2.0207974910736084,-1.5158330847373982,-1.5711610952960413,-2.7489057222949427,0.0525411255657672,-0.0029868187848478,-0.0,-0.0487069375813007,0.0,-6.636542093474418e-05,0.5151388605580689,-0.6661374891261882,0.6932915578653611,0.9995893773773697,0.028653227757732887,-0.0002439351353710914,-9.83312533222614e-05
1752653763.924657,1.2968338171588345,-1.3513791871121903,2.0207560062408447,-1.515972976838686,-1.571225945149557,-2.748955313359396,0.0531306937336921,-0.0029169213958084,-0.0,-0.0486179217696189,0.0,-6.48384666419588e-05,0.5150995930190108,-0.6661521535455285,0.6932868484586174,0.9995892632244351,0.028657274559135585,-0.0002528654843637089,-3.89912803127131e-05
1752653763.9267497,1.296920124684469,-1.3513373148492356,2.0208137035369877,-1.5160315197757264,-1.571197811757223,-2.748866860066549,0.0494777560234069,-0.0031315046362578,-0.0,-0.0488406307995319,0.0,-6.331943586701527e-05,0.5151500755180799,-0.666139834967292,0.6931997665598663,0.9995897011317465,0.02864190783378543,-0.00025427323624997104,-7.64990718425941e-05
1752653763.928593,1.2970126310931605,-1.3513825696757813,2.020760536193848,-1.5160943542471903,-1.5711892286883753,-2.74892241159548,0.0521147884428501,-0.0032906820997595,-0.0,-0.0477466583251953,0.0,-6.186858081491664e-05,0.5151052169973288,-0.6661453772134279,0.6931807021933467,0.9995896692276868,0.028643097224271663,-0.00024716642242496333,-7.115788131242997e-05
1752653763.9310274,1.297117058430807,-1.3514200758985062,2.020792961120605,-1.5161976751736184,-1.5711935202227991,-2.748896662388937,0.0528155788779258,-0.0034166288096457,-0.0,-0.0507573038339614,0.0,-7.427090167766437e-05,0.515119359608022,-0.6661143875970278,0.6931518726251874,0.9995895761398412,0.02864643052739259,-0.00024168302103362948,-5.366496984527339e-05
1752653763.933149,1.2972458044635218,-1.3513825696757813,2.0207810401916504,-1.5162973453155535,-1.571225945149557,-2.748955313359396,0.0526701286435127,-0.0033757255878299,-0.0,-0.0487663671374321,0.0,-7.881443889345974e-05,0.5151166349357932,-0.6661400153580754,0.693044013673601,0.9995888974461429,0.02866979524148675,-0.0002700904832648617,-7.742316626667861e-05
1752653763.935031,1.2973702589618128,-1.3513872486403962,2.0207886695861816,-1.5164415177753945,-1.5711730162249964,-2.748934332524435,0.052879124879837,-0.0033796217758208,-0.0,-0.0481914430856704,0.0,-7.718484994256869e-05,0.5151289015338014,-0.6661367757249009,0.6929792005021159,0.9995890964850348,0.02866311539160876,-0.00024095269948511402,-7.711080109205758e-05
1752653763.937665,1.2974727789508265,-1.3514154267362135,2.020760536193848,-1.516528134500124,-1.5712178389178677,-2.748917881642477,0.0521541014313697,-0.0033356077037751,-0.0,-0.0497888810932636,0.0,-7.5564268627204e-05,0.5150997470682901,-0.6661417193080406,0.6929420025101366,0.9995897316744513,0.02864083479929638,-0.0002588937372916522,-6.234605458742344e-05
1752653763.9384706,1.2975409666644495,-1.3513780546239396,2.0207855701446533,-1.51659498483453,-1.5711901823626917,-2.748950783406393,0.0551970936357975,-0.0031771990470588,-0.0,-0.0520781576633453,0.0,-9.066788334166632e-05,0.5151284968392996,-0.66614640861393,0.6928721347059312,0.999588901027972,0.028669792305149162,-0.00025418981567124673,-8.566451008416742e-05
1752653763.940499,1.297624413167135,-1.3513690543225785,2.0207974910736084,-1.5167556603303929,-1.5712092558490198,-2.748929802571432,0.0523861236870288,-0.0030557226855307,-0.0,-0.0527719929814338,0.0,-9.063290053745732e-05,0.5151414730039018,-0.66615580198147,0.69282634832128,0.9995890347488434,0.028665259016073318,-0.00024894197310204564,-5.062915116421099e-05
1752653763.9424546,1.2977970282184046,-1.3513944906047364,2.020751714706421,-1.5168261167458077,-1.5711773077594202,-2.748929802571432,0.0530832633376121,-0.0028862380422651,-0.0,-0.0504749603569507,0.0,-8.885965507943183e-05,0.5151057877093281,-0.6661600747310865,0.6927365479250223,0.9995896871992337,0.028642385079375006,-0.0002500516413460692,-9.217418002950538e-05
1752653763.94468,1.297898594533102,-1.3514019411853333,2.0208137035369877,-1.5169334200075646,-1.5712092558490198,-2.748967234288351,0.0532671101391315,-0.0030242074280977,-0.0,-0.0526288002729415,0.0,-8.714006253285334e-05,0.5151437115133368,-0.666129727420511,0.6926854081574363,0.9995882601345081,0.028692076479714206,-0.0002619332470038864,-7.962112322241422e-05
1752653763.946647,1.29800254503359,-1.351385475402214,2.0207974910736084,-1.5170687598041075,-1.571169678364889,-2.74890119234194,0.0564949735999107,-0.0031450984533876,-0.0,-0.0529677718877792,0.0,-8.548497135052457e-05,0.5151437043281911,-0.666149816310111,0.6926162729043077,0.9995894446572574,0.02865096138484516,-0.0002408254510491211,-8.089883831840949e-05
1752653763.9486525,1.298088852559225,-1.351413832311966,2.0207886695861816,-1.5172290441444891,-1.571221653615133,-2.748913351689474,0.0529919900000095,-0.0032449760474264,-0.0,-0.0526767373085022,0.0,-8.389016875298694e-05,0.5151309548600971,-0.6661540592211157,0.6925992433285172,0.9995893993409574,0.028652623295572655,-0.00024361322612994889,-2.3580967073251734e-05
1752653763.9506335,1.2982428709613243,-1.3514183324626463,2.020739793777466,-1.5172638532570382,-1.5712021032916468,-2.748925272618429,0.053723182529211,-0.0032690705265849,-0.0,-0.0530782043933868,0.0,-0.0001894198940135,0.5150954386839006,-0.6661678748953708,0.6925007625178236,0.9995899217385177,0.028634163697746816,-0.00025814739615924036,-7.992519287791532e-05
1752653763.952645,1.298358742390768,-1.3514721256545563,2.02075719833374,-1.5173907962492486,-1.5712583700763147,-2.748971764241354,0.0553595200181007,-0.0033714182209223,-0.0,-0.053383968770504,0.0,-0.0002271502162329,0.5150912452758231,-0.6661413015587931,0.6924802780025361,0.9995890056524941,0.028666096177838964,-0.0002705568358122471,-3.882756268867755e-05
1752653763.9547715,1.2984259764300743,-1.351451189523079,2.0207440853118896,-1.5175021302751084,-1.571225945149557,-2.748934332524435,0.0552880987524986,-0.0033412079792469,-0.0,-0.0532814636826515,0.0,-0.0002166677877539,0.515093695471906,-0.6661625251891256,0.6924299380077198,0.9995897351691387,0.02864082948202297,-0.0002510260867372535,-3.488519142022116e-05
1752653763.9583943,1.2985337416278284,-1.351437674169876,2.0207679271698,-1.517568727289774,-1.5712335745440882,-2.748967234288351,0.0550028905272483,-0.0033212043344974,-0.0,-0.0558580346405506,0.0,-0.0002067241584882,0.5151111157717596,-0.6661554725560922,0.6923523638750876,0.999588917112812,0.028669195989545274,-0.0002656883627518607,-5.82772918219783e-05
1752653763.9588573,1.2986214796649378,-1.3514756572297593,2.0208094120025635,-1.517712728386261,-1.5712264219867151,-2.748925272618429,0.0556011907756328,-0.0032896550837904,-0.0,-0.0536548234522342,0.0,-0.0001976442435989,0.5151350540619483,-0.6661245338735939,0.6923403218544015,0.9995889315434376,0.028668947169954252,-0.00024315472313721646,-1.6727093997923056e-05
1752653763.96074,1.298802677785055,-1.3514585954001923,2.0207810401916504,-1.5178123351982613,-1.5711892286883753,-2.748950783406393,0.0561228357255458,-0.0031739298719912,-0.0,-0.0547278486192226,0.0,-0.0001893229346023,0.5151220924184112,-0.6661414750778039,0.6922130673895773,0.9995889692897022,0.028667524713005745,-0.00024635640661416436,-6.935200692714122e-05
1752653763.9624598,1.2988746801959437,-1.351524905567505,2.0208094120025635,-1.5178948652795334,-1.571197811757223,-2.74892241159548,0.0559783205389976,-0.0031491287518292,-0.0,-0.0555660687386989,0.0,-0.0001816841831896,0.5151268130524882,-0.6660998082897333,0.6922278640246999,0.999588974200513,0.0286675178426276,-0.0002345618097068749,-3.2531003838444256e-05
1752653763.9645152,1.2989538351642054,-1.3514165592244645,2.0207810401916504,-1.5180660609951993,-1.571197811757223,-2.748887602482931,0.0564923584461212,-0.0031895253341645,-0.0,-0.0587680228054523,0.0,-0.0002092051436193,0.5151377182877791,-0.6661761242742731,0.692104448671501,0.9995898782180588,0.02863594195675418,-0.00023789631125819308,-3.9970000618063094e-05
1752653763.9668703,1.2990606466876429,-1.3514693987420578,2.0207529067993164,-1.5181452569416545,-1.5711935202227991,-2.74894625345339,0.0567516759037971,-0.0033768811263144,-0.0,-0.0549835078418254,0.0,-0.0002017217775573,0.5151076655684023,-0.6661660489836475,0.6920837102120962,0.9995894432670731,0.028651191752265884,-0.00023077879513104722,-2.9348684159250243e-05
1752653763.9688098,1.2992060820208948,-1.3514314454844971,2.020801782608032,-1.5182689775577565,-1.5712173620807093,-2.748929802571432,0.056735809892416,-0.003587702056393,-0.0,-0.0564921461045742,0.0,-0.000216597225517,0.515146953041901,-0.6661611895329148,0.6919668298393266,0.999588971912324,0.028667405091184085,-0.0002538595787311433,-5.1690573875456055e-05
1752653763.9709077,1.2993629614459437,-1.351440430884697,2.0207648277282715,-1.5183879111758252,-1.571225945149557,-2.748950783406393,0.0573436617851257,-0.0035064497496932,-0.0,-0.0569903440773487,0.0,-0.0002188896469306,0.5151195448250262,-0.6661767501567154,0.6918801445168482,0.999589197537348,0.02865942501586477,-0.00026369605177644967,-6.31568922201951e-05
1752653763.972747,1.2994630972491663,-1.3515470039895554,2.020760536193848,-1.5184911873987694,-1.5712345282184046,-2.748883310948507,0.0573799572885036,-0.0035179408732801,-0.0,-0.056490633636713,0.0,-0.000211628008401,0.5150935451399694,-0.6661333514344621,0.6919111702075774,0.9995902322138353,0.028623546627404028,-0.0002451789025754607,-1.133425152097945e-05
1752653763.9748776,1.2995832602130335,-1.3515260976604004,2.0207767486572266,-1.5185570579818268,-1.571221653615133,-2.748917881642477,0.0576812773942947,-0.0034700578544288,-0.0,-0.0562439486384391,0.0,-0.0002047546440735,0.5151091440567012,-0.6661314863412561,0.6918188540330751,0.999589501411052,0.0286489349735493,-0.0002546815533367663,-4.828035042455397e-05
1752653763.9769104,1.2996943632708948,-1.351572410469391,2.0207529067993164,-1.5187587787261982,-1.5712345282184046,-2.748962704335348,0.0581834018230438,-0.003387052565813,-0.0,-0.0564375631511211,0.0,-0.0001983096735784,0.5150876433461723,-0.6661355844096803,0.6918044527787666,0.9995892076308828,0.028659407226079223,-0.00023255608176377397,1.682208473999961e-05
1752653763.97885,1.2997449080096644,-1.3515679103187104,2.0207486152648926,-1.5188574355891724,-1.5711935202227991,-2.748908821736471,0.0577391646802425,-0.0035238785203546,-0.0,-0.0564045533537864,0.0,-0.0001922536757774,0.5150931790220467,-0.6661441855467585,0.6917776587228376,0.9995900467780717,0.028630326298288288,-0.0002049268732688844,2.8341530180350548e-05
1752653763.980576,1.2999780813800257,-1.3515288543752213,2.0207679271698,-1.5189193052104493,-1.5712507406817835,-2.748925272618429,0.0598101019859313,-0.0036071648355573,-0.0,-0.0567917339503765,0.0,-0.000212948070839,0.5151030272566697,-0.6661433268186353,0.6915918659211584,0.9995895162261214,0.02864822539393517,-0.00027404996258743256,-5.5939474915894426e-05
1752653763.9826791,1.3001154104815882,-1.3515351128629227,2.0207529067993164,-1.5190632951310654,-1.571204964314596,-2.74894625345339,0.0605072937905788,-0.0035224335733801,-0.0,-0.0567346103489398,0.0,-0.0002070808841381,0.5150985296936302,-0.6661502009343713,0.6915194314373325,0.9995894369569386,0.02865119952242459,-0.00025052050858457176,-5.94096914968962e-05
1752653763.9848485,1.3001607100116177,-1.3515171122602003,2.020760536193848,-1.5192316260984915,-1.571197811757223,-2.748917881642477,0.0602520182728767,-0.0036212506238371,-0.0,-0.0573907978832721,0.0,-0.0002012898621615,0.5151151785246071,-0.6661683010508116,0.6914934854280592,0.9995897419382943,0.028640821689824705,-0.00022578108353873017,-1.2944805491847672e-05
1752653763.9869666,1.3003018538104456,-1.3515499395183106,2.020792961120605,-1.5193669770709055,-1.5712021032916468,-2.748983923588888,0.0605373159050941,-0.0036098596174269,-0.0,-0.0581881366670131,0.0,-0.0002461822004988,0.5151305409015275,-0.6661398347023814,0.6914392730630764,0.9995883315960571,0.02869003240064158,-0.00022221114146379233,2.6413958162469553e-07
1752653763.9887836,1.3004630247699185,-1.3516207498363038,2.0207443237304688,-1.5194179576686402,-1.5712178389178677,-2.748958174382345,0.0603656731545925,-0.0036140191368758,-0.0,-0.0589441433548927,0.0,-0.0002350324793951,0.5150772249546195,-0.6661258001371684,0.6913924116946601,0.9995893942381153,0.02865285915132827,-0.00023744302862547842,-1.4489305531432568e-05
1752653763.990441,1.3005498091327112,-1.351565272813179,2.020792961120605,-1.5195653599551695,-1.571237866078512,-2.748904530202047,0.0637105256319046,-0.003623932832852,-0.0,-0.0595090463757514,0.0,-0.0002233740524388,0.5151240187461458,-0.6661359154840888,0.6913044339286403,0.9995894640695039,0.028650357267215074,-0.0002455302914513154,-8.036109667499038e-06
1752653763.9928555,1.3006699720965784,-1.3515697580626984,2.0207886695861816,-1.5196844351342698,-1.571255032216207,-2.748913351689474,0.0603096932172775,-0.0036206399090588,-0.0,-0.0602630861103534,0.0,-0.0002418423246126,0.5151198288000718,-0.6661399700890448,0.6912394098061426,0.9995893974098187,0.02865262179865347,-0.00025266791432672873,-2.9772504759304207e-06
1752653763.9944706,1.30078632036318,-1.3515834224275132,2.020760536193848,-1.5198319007507344,-1.5711773077594202,-2.748920742665426,0.061639554798603,-0.0036061415448784,-0.0,-0.0607903450727462,0.0,-0.0002437141374684,0.5151092586144345,-0.6661505502860311,0.6911879796497055,0.9995897050363268,0.028642246758617453,-0.00020804706407458575,1.557816352715925e-06
1752653763.9964578,1.3009064833270472,-1.3515906792930146,2.020760536193848,-1.519926243727543,-1.5712092558490198,-2.748932663594381,0.064264178276062,-0.0036844953428953,-0.0,-0.0603993497788906,0.0,-0.0002598326827865,0.5151045004968804,-0.6661492605304217,0.6911222751722857,0.9995895302158504,0.02864820791412485,-0.00022642000734376873,-3.806247741999495e-07
1752653763.9989388,1.3010309378253382,-1.351607085471489,2.0207724571228027,-1.5199967560223122,-1.5712464491473597,-2.748941723500387,0.0637167543172836,-0.0035207860637456,-0.0,-0.0599346533417701,0.0,-0.0002607999485917,0.5151037268732623,-0.6661350445687523,0.6910582891483735,0.9995892235280822,0.028658699803939244,-0.00025106578267836577,-9.90182222956077e-06
1752653764.0008302,1.3011873404132288,-1.3516145211509247,2.020785331726074,-1.5201765161803742,-1.5712021032916468,-2.748950783406393,0.062467910349369,-0.0034891210962086,-0.0,-0.0604304522275924,0.0,-0.00025054285652,0.5151184536724749,-0.6661292630190997,0.6909779338730709,0.9995889156645742,0.02866965713523826,-0.00022453523600107794,-4.918994075335009e-06
1752653764.0029397,1.301356617604391,-1.3516219419291993,2.020760536193848,-1.5203079518726843,-1.5711806456195276,-2.748917881642477,0.06438759714365,-0.0035451760049909,-0.0,-0.0607016459107399,0.0,-0.0002409544686088,0.515102740675184,-0.6661379503465278,0.6908828844644521,0.9995897428136731,0.02864082223858371,-0.00022096515893873668,-2.3186017300695217e-05
1752653764.0049422,1.3014143149005335,-1.3515935999206086,2.0207560062408447,-1.5204033602825184,-1.5711730162249964,-2.748979393635885,0.0649718940258026,-0.0035537634976208,-0.0,-0.0600798279047012,0.0,-0.0002649023081175,0.5151094444411314,-0.6661583660324091,0.6908311171773786,0.9995889276759375,0.028669300286774967,-0.00021556756307256436,-2.04783240416967e-05
1752653764.006474,1.3015335241900845,-1.3516291838935397,2.0207974910736084,-1.520522528593876,-1.571181599293844,-2.748908821736471,0.0647948831319809,-0.0035832123830914,-0.0,-0.0635540261864662,0.0,-0.0002558111445978,0.5151297664470696,-0.6661241570215223,0.6907923811507246,0.9995893455310397,0.02865475979161466,-0.00021221661833254675,-2.493854575058702e-06
1752653764.0085294,1.3016794363604944,-1.3516383630088349,2.0207855701446533,-1.520649341200926,-1.5712021032916468,-2.748934332524435,0.0640282183885574,-0.0034292393829673,-0.0,-0.0593786388635635,0.0,-0.00034112209687,0.5151184828491324,-0.666128871820919,0.6907143640741064,0.9995891482653292,0.028661553777682675,-0.00022360059292076873,-2.831522570886764e-06
1752653764.010532,1.301786247883932,-1.351667345767357,2.0207440853118896,-1.5208052855781098,-1.5711773077594202,-2.748887602482931,0.0676360353827476,-0.0032213295344263,-0.0,-0.0612749345600605,0.0,-0.00035562258563,0.5150908376285287,-0.6661435743078546,0.6906831565399281,0.9995904170731077,0.028617455984990433,-0.00019631353516963876,2.7740828528986235e-05
1752653764.0126507,1.3019965330706995,-1.3516509395888825,2.020792961120605,-1.5209451255253337,-1.571225945149557,-2.748925272618429,0.0634757205843925,-0.0030714650638401,-0.0,-0.0635864958167076,0.0,-0.0003937729343306,0.5151209586114985,-0.6661263862078781,0.6905411610270845,0.9995891692143001,0.028660721630423238,-0.00023626536858876665,-1.9402132830839567e-06
1752653764.0162318,1.3020513693438929,-1.3515873712352295,2.020739793777466,-1.5210749332657834,-1.5712302366839808,-2.748932663594381,0.0648059621453285,-0.0032362362835556,-0.0,-0.0620400235056877,0.0,-0.0003688536526169,0.5151036625148047,-0.666192441265931,0.6904664682980661,0.9995898250552082,0.028637841819407872,-0.0002358918012740572,4.13313913338858e-06
1752653764.0186644,1.302417103444235,-1.3516127479127429,2.020760536193848,-1.5213132251850148,-1.5711610952960413,-2.748941723500387,0.0635943934321403,-0.003323562676087,-0.0,-0.0613982416689395,0.0,-0.0003786277375183,0.5151171364433438,-0.6661625156344837,0.6902633219458235,0.9995893989019305,0.02865274299077141,-0.00022521416714594447,-5.657349925199992e-05
1752653764.0207682,1.3024619261371058,-1.3516201984933396,2.0207767486572266,-1.5214543168297787,-1.5712135473834437,-2.748949114476339,0.0666042119264602,-0.0033630901016294,-0.0,-0.0620730407536029,0.0,-0.0004076443146914,0.5151262095821492,-0.6661646442601714,0.6902554106237738,0.9995890618642274,0.028664532844637453,-0.00022793860781754842,1.477640131291879e-06
1752653764.0225291,1.3026250044452112,-1.3516984444907685,2.020760536193848,-1.5215282079628487,-1.5712092558490198,-2.748950783406393,0.0677049756050109,-0.0036456175148487,-0.0,-0.0619613900780677,0.0,-0.0003862809680867,0.5150959877212334,-0.6661316361351712,0.6902160937582905,0.9995892701806908,0.02865726499536428,-0.00022821768312356869,-4.394132225882037e-06
1752653764.024568,1.302789036427633,-1.3517447722009202,2.020760536193848,-1.5216550168446084,-1.571225945149557,-2.748970333729879,0.0670028328895568,-0.0037237470969557,-0.0,-0.0628994926810264,0.0,-0.0003666137054096,0.5150840808845888,-0.6661114571238937,0.6901561612923446,0.9995889886838909,0.028667035937259798,-0.00023397101708324134,3.1703613504978033e-06
1752653764.0267332,1.3028634230243128,-1.3516701024821778,2.0207972526550293,-1.5217776757529755,-1.5712021032916468,-2.748944584523336,0.0668896064162254,-0.0033764913678169,-0.0,-0.0648468732833862,0.0,-0.0003488393558654,0.5151309361390745,-0.6661325241349773,0.6900579622836518,0.9995888326018686,0.02867251891519528,-0.00022849036424020048,-1.3742078383768915e-05
1752653764.028591,1.3030107657061976,-1.3517476183227082,2.0207679271698,-1.5219538931599637,-1.5711849371539517,-2.748974863682882,0.0672083273530006,-0.0028744472656399,-0.0,-0.0619453899562358,0.0,-0.0004031715798191,0.5150992798959176,-0.6661179353909359,0.6900411706432982,0.9995888251772964,0.028672984485081807,-0.00019890358825079286,3.128503206469835e-05
1752653764.0307057,1.3031390349017542,-1.351726771598198,2.020829916000366,-1.522015967672207,-1.5711687246905726,-2.74894625345339,0.0676803663372993,-0.0026551019400358,-0.0,-0.0635938495397567,0.0,-0.0003983615315519,0.5151450853332468,-0.6660910048834832,0.6899428375385176,0.9995883445842408,0.028689674542980825,-0.00020930415055082024,-1.1735731340994771e-05
1752653764.0328045,1.3032920996295374,-1.3516894441894074,2.020784378051758,-1.5221883703819294,-1.5712221304522913,-2.748941723500387,0.0682720616459846,-0.00260752113536,-0.0,-0.0678379237651825,0.0,-0.0003662137314677,0.5151202395808924,-0.666140133104401,0.689827023038062,0.999589056125554,0.028664655194746563,-0.00023735014781147364,-9.027608015470428e-06
1752653764.0348475,1.3034356276141563,-1.3517013651183625,2.0208048820495605,-1.5222944033196946,-1.5711773077594202,-2.748908821736471,0.0685080140829086,-0.0028105457313358,-0.0,-0.0636854618787765,0.0,-0.0003386665484867,0.5151357848513087,-0.6661214667881082,0.6897504118933148,0.9995892368837287,0.028658459022878748,-0.00022212892724980977,-2.9855962888914833e-05
1752653764.0369515,1.30351430574526,-1.3517103654197236,2.0207767486572266,-1.5224828992835064,-1.571197811757223,-2.748917881642477,0.0691371709108352,-0.0030675374437123,-0.0,-0.0652035698294639,0.0,-0.0003149577532894,0.515119410829102,-0.6661463525009516,0.689726071209553,0.9995895136979036,0.028648915577906404,-0.00020718713870034841,2.854624280523484e-05
1752653764.0386412,1.3037565390216272,-1.3516804587892075,2.020784378051758,-1.5225859333625813,-1.571225945149557,-2.748937193547384,0.0697140768170356,-0.0034220304805785,-0.0,-0.0664044991135597,0.0,-0.0003526065556798,0.515123995807193,-0.666148931503256,0.68954646453784,0.9995891156889425,0.0286623993474793,-0.0002546032041162566,-4.2860844268807466e-05
1752653764.040534,1.3038833777057093,-1.3516429525664826,2.0207855701446533,-1.522732393150665,-1.5712302366839808,-2.748958174382345,0.0694910213351249,-0.0038401044439524,-0.0,-0.0666010603308677,0.0,-0.000369146146113,0.5151351427465463,-0.6661708999514022,0.6894455024614948,0.9995887960150246,0.028673483449794944,-0.00026021803706770296,-5.0146396080916347e-05
1752653764.042544,1.3040035406695765,-1.351738692527153,2.0207886695861816,-1.52283542350445,-1.5712092558490198,-2.7489281336413782,0.0698257237672805,-0.0037124867085367,-0.0,-0.066884733736515,0.0,-0.0003642406372819,0.5151187805973996,-0.6661255340284483,0.6894537271405128,0.9995891898798047,0.028660008842350277,-0.00023457173192148966,-1.8565953793523273e-05
1752653764.0451276,1.30416709581484,-1.351751269107201,2.0207972526550293,-1.5230064627579232,-1.571181599293844,-2.7489658037768763,0.0704346820712089,-0.0035114926286041,-0.0,-0.0668999105691909,0.0,-0.000344471016433,0.5151269342291379,-0.6661187454898807,0.6893716102801838,0.9995885307438028,0.02868312255475066,-0.00021785042721681562,-1.5071360548069297e-05
1752653764.046601,1.3042882124530235,-1.351717786197998,2.0207886695861816,-1.5231422831169148,-1.5712345282184046,-2.748958174382345,0.070464126765728,-0.0032595957163721,-0.0,-0.0669148415327072,0.0,-0.0003717743675224,0.5151252449887511,-0.6661456884928565,0.6892766427359724,0.9995887566306546,0.02867502424944729,-0.0002458405950510199,-1.2817072987198216e-05
1752653764.0485086,1.3044479529010218,-1.3517421048930665,2.020760536193848,-1.523257204597332,-1.5712135473834437,-2.7489779631244105,0.0702220723032951,-0.0030824660789221,-0.0,-0.0676862671971321,0.0,-0.0003548678068909,0.5151029344606338,-0.6661471683050673,0.6892001098426951,0.9995888772759782,0.028670854630233347,-0.00024045879246270492,-2.6466777471037288e-05
1752653764.0504794,1.304584328328268,-1.3517421048930665,2.0207972526550293,-1.523429149096348,-1.5711935202227991,-2.7489734331714075,0.0696741864085197,-0.0029323929920792,-0.0,-0.0678534507751464,0.0,-0.0003382000140845,0.5151328986142708,-0.6661342869101432,0.6891265124324575,0.9995884199330204,0.028686936624243237,-0.00022404830849136572,-1.4327587062182316e-05
1752653764.052471,1.3047483603106895,-1.3517749321511765,2.020792961120605,-1.5235679422369977,-1.5712092558490198,-2.748920742665426,0.0735579207539558,-0.002867067232728,-0.0,-0.0684679672122001,0.0,-0.0003230353468097,0.5151217692280184,-0.6661235923601151,0.6890568859623736,0.99958923564333,0.028658457324627126,-0.00022967663197341186,-7.64201744100996e-06
1752653764.0545137,1.3048690001117151,-1.3517704469016572,2.020760536193848,-1.5236462888172646,-1.5712106863604944,-2.748953644429342,0.070074588060379,-0.0031388117931783,-0.0,-0.0680861249566078,0.0,-0.0003099376626778,0.5151002749386958,-0.666140895498789,0.6889792473894181,0.9995892258892097,0.028658700481483446,-0.00023989408816990748,-2.87010363653013e-05
1752653764.056562,1.3050039450274866,-1.351749525671341,2.0207767486572266,-1.5238259483924883,-1.5711849371539517,-2.748953644429342,0.0715705603361129,-0.0034651218447834,-0.0,-0.0684750080108642,0.0,-0.000313097727485,0.5151222392157545,-0.6661487580808304,0.6888903242074751,0.9995889976452266,0.02866679958661141,-0.0002232803168782603,-2.3107842424948875e-05
1752653764.058562,1.3051555792437952,-1.351697952752449,2.020784378051758,-1.5239484806409855,-1.5711773077594202,-2.748934332524435,0.0736560970544815,-0.0034855161793529,-0.0,-0.0683063939213752,0.0,-0.0002929660258814,0.515139802339625,-0.666168621691246,0.6887577735798638,0.9995891602587195,0.02866096785162377,-0.00023629626516614305,-6.147480172147025e-05
1752653764.0606482,1.305262867604391,-1.3517778676799317,2.0207886695861816,-1.5240723204663773,-1.5712006727801722,-2.748920742665426,0.0707975029945373,-0.003557983553037,-0.0,-0.0684947296977043,0.0,-0.0003244646068196,0.5151246289284075,-0.6661353413419592,0.6887643452714658,0.9995892976342059,0.028656312747300836,-0.00022723139086437325,-1.2679858977244458e-05
1752653764.0625567,1.305439297352926,-1.3517942887595673,2.020817995071411,-1.524255321626999,-1.5711568037616177,-2.748970333729879,0.0729157105088234,-0.0033666333183646,-0.0,-0.0685745254158973,0.0,-0.0003109891549684,0.5151475078483452,-0.6661154035509818,0.6886779299922823,0.9995881715797448,0.028695750584655556,-0.00020251335950574622,-1.1161767861463238e-05
1752653764.0645864,1.3055685202227991,-1.3518226158669968,2.0207767486572266,-1.524378803824522,-1.5711730162249964,-2.748941723500387,0.0727269276976585,-0.0032732698600739,-0.0,-0.0693186223506927,0.0,-0.0003426232142373,0.5151132685782616,-0.6661269921522357,0.6886268025035602,0.9995891727966443,0.028660835242737003,-0.00020529215391365598,2.457733165291206e-06
1752653764.0670226,1.3056982199298304,-1.3518017095378418,2.0207810401916504,-1.524497167473175,-1.5711730162249964,-2.748937193547384,0.0728121623396873,-0.0030436243396252,-0.0,-0.0692755579948425,0.0,-0.0003703842230606,0.5151216591998938,-0.6661362339105927,0.6885341691423069,0.9995891746795761,0.02866071907603449,-0.00021188515400829774,-1.2252754341104208e-05
1752653764.071044,1.3058636824237269,-1.3518226158669968,2.020735502243042,-1.5246325519732018,-1.571225945149557,-2.7489870230304163,0.0723200291395187,-0.0029592490755021,-0.0,-0.0707672014832496,0.0,-0.0005485849105753,0.5150815198722236,-0.6661535753843728,0.6884533217302611,0.9995891072841789,0.02866286736833219,-0.00023791047356819882,-5.6258483941903245e-06
1752653764.0762477,1.3061516920672815,-1.3518260282329102,2.0207886695861816,-1.524911192511656,-1.571204964314596,-2.7489824930774134,0.0724908635020256,-0.003026399295777,-0.0,-0.0709572285413742,0.0,-0.0007692687795497,0.5151211893715892,-0.6661293707236078,0.6882905702250748,0.9995884118465899,0.028687175651029507,-0.00022955552524273285,-1.2626956790823359e-05
1752653764.0765982,1.3064573446856895,-1.3518680197051545,2.0207886695861816,-1.5251811307719727,-1.5712221304522913,-2.7489658037768763,0.077060729265213,-0.0033475998789072,-0.0,-0.0737462788820266,0.0,-0.0010460120392963,0.5151117666954279,-0.6661144636978794,0.6881463722115115,0.9995886497254157,0.02867883462866227,-0.00023610461418362746,-6.250841420899704e-06
1752653764.0789893,1.3066681067096155,-1.3518289637616654,2.0208005905151367,-1.5253735345653077,-1.5711653868304651,-2.748937193547384,0.0734756588935852,-0.0034433207474648,-0.0,-0.0710086375474929,0.0,-0.0008524632430635,0.5151357227984945,-0.666126272706049,0.6879916554129051,0.9995888912261036,0.02867049587065165,-0.00022195462499765618,-4.4045933758749524e-05
1752653764.080744,1.3067596594439903,-1.351878212099411,2.0207767486572266,-1.5255088669112702,-1.571197811757223,-2.748941723500387,0.0747201442718505,-0.0033532457891851,-0.0,-0.0729017034173011,0.0,-0.0007165626739151,0.5151088185053196,-0.6661244236285698,0.6879852033074102,0.9995891701133767,0.02866083672953298,-0.00021772628996135938,5.027594544650771e-06
1752653764.082549,1.3069122473346155,-1.351870776419975,2.0207724571228027,-1.5256476451507588,-1.571225945149557,-2.748944584523336,0.0764031633734703,-0.0032742191106081,-0.0,-0.0730116814374923,0.0,-0.0007014312432147,0.5151056553666393,-0.6661335427347077,0.6878903007128062,0.9995891866388306,0.028660125124943803,-0.0002349071405662025,1.0857599332018891e-06
1752653764.086654,1.307105843220846,-1.3518334490111847,2.0207529067993164,-1.5257745844176789,-1.5712135473834437,-2.7489734331714075,0.0763916969299316,-0.0031993116717785,-0.0,-0.072753868997097,0.0,-0.000651639944408,0.5151009437542645,-0.666157499034906,0.687741021568391,0.9995890481080637,0.028664782486651625,-0.0002505117041871029,-4.8900860638857845e-05
1752653764.0869231,1.3072283903705042,-1.351854370241501,2.0207767486572266,-1.5259788793376463,-1.571204964314596,-2.7489689032184046,0.0760530456900596,-0.0031710646580904,-0.0,-0.0755129605531692,0.0,-0.0005817034398205,0.515118618812778,-0.6661466294429935,0.6876980810506533,0.9995887787097295,0.028674423558572828,-0.0002256029350623011,-3.8066573343985103e-06
1752653764.0887213,1.3074010054217735,-1.3518737119487303,2.020756244659424,-1.5260886301151295,-1.5712178389178677,-2.74901253381838,0.0764021277427673,-0.0032664083410054,-0.0,-0.0727099627256393,0.0,-0.0005251493421383,0.5150980678246392,-0.6661463719378522,0.6876079239286242,0.9995884432681216,0.028685987198234692,-0.00024037592134888803,-2.1040253234283086e-05
1752653764.090793,1.30762225786318,-1.3519184601357956,2.020760536193848,-1.5262605410865326,-1.5712006727801722,-2.748988453541891,0.0768983736634254,-0.0032366744708269,-0.0,-0.0726474598050117,0.0,-0.0005556998075917,0.515092801976135,-0.6661227405171171,0.6875125448877049,0.9995887285635991,0.028676096396971388,-0.0002334827875769738,-2.664257450280475e-05
