mathias31415/evaluate_motion_primitives_from_trajectory_controller/data/trajectory_20250716_093707_planned.csv
time_from_start,shoulder_pan_joint_pos,shoulder_lift_joint_pos,elbow_joint_pos,wrist_1_joint_pos,wrist_2_joint_pos,wrist_3_joint_pos,pose_x,pose_y,pose_z,pose_qx,pose_qy,pose_qz,pose_qw
0.0,0.8736342191696167,-1.4880884376219292,1.956193749104635,-1.9409781895079554,-1.5486295858966272,-2.7084017435656946,-0.293753904627738,-0.6260388607227719,0.40574384376241013,0.8431397371913995,-0.5353482983013852,0.017414108707639094,-0.04705668807456973
0.1,0.8741501565363307,-1.4880677503218476,1.953836171882097,-1.9411569280606236,-1.5486227356213877,-2.7059017435656947,-0.2940300283260467,-0.6269077886675358,0.4072072833212016,0.8426668739877669,-0.536205416898775,0.017183738248075262,-0.04583677030417258
0.2,0.8756979686364722,-1.4880056884216033,1.9467634402144822,-1.9416931437186278,-1.5486021847956697,-2.6984017435656944,-0.29484012434965523,-0.6295012557032409,0.4116108159987045,0.8412351039978319,-0.5387691435576397,0.016514789029861338,-0.042173113416295524
0.30000000000000004,0.8782776554700417,-1.487902251921196,1.9349755541017912,-1.9425868364819687,-1.5485679334194726,-2.6859017435656947,-0.2961293909515796,-0.6337788254176636,0.41899358749654625,0.8388050561667759,-0.5430162996285475,0.015473852094217371,-0.036054625058898324
0.4,0.8818892170370389,-1.487757440820626,1.918472513544024,-1.943838006350646,-1.548519981492797,-2.6684017435656946,-0.2978065909868029,-0.6396714940694789,0.4294191757910092,0.8353116881617635,-0.5489072886326408,0.014172237049587385,-0.02746488309310529
0.5,0.8865326533374638,-1.4875712551198927,1.8972543185411797,-1.9454466533246588,-1.548458329015642,-2.6459017435656946,-0.29974427340248094,-0.6470793132257134,0.44297305773339757,0.8306651823145811,-0.5563846675588705,0.012766374726278583,-0.01638524555926292
0.6000000000000001,0.8922079643713168,-1.4873436948189966,1.8713209690932593,-1.9474127774040089,-1.5483829759880088,-2.6184017435656948,-0.30177922811463676,-0.6558681396444258,0.4597589926573344,0.8247522627291602,-0.5653711867796756,0.011458212008224021,-0.002799224900910014
0.7000000000000001,0.8986500382879461,-1.4870853899842276,1.8418838945342162,-1.9496445346720923,-1.5482974423897689,-2.5871863561357227,-0.3036465194667245,-0.6654786318018502,0.47909248589646236,0.8177337306753311,-0.5753611453815977,0.010521473208945078,0.012664781975800869
0.8,0.9051334984518694,-1.4868254257043936,1.8122577054038294,-1.9518906295679943,-1.5482113592923001,-2.555770429599825,-0.30505321746557884,-0.6747438938128536,0.4988339370404488,0.810346950406269,-0.585180431535606,0.010168364365791216,0.028253971069325493
0.9,0.9116169586157927,-1.4865654614245596,1.7826315162734423,-1.9541367244638965,-1.5481252761948314,-2.5243545030639263,-0.3059890687387845,-0.6835862536342385,0.5188425123582028,0.8026426594679628,-0.5947552162330088,0.010407320007673714,0.04384839399659632
1.0,0.9181004187797164,-1.4863054971447256,1.753005327143054,-1.9563828193597987,-1.5480391930973627,-2.4929385765280268,-0.30645792737185173,-0.6919914508157273,0.539100392654824,0.794627803916721,-0.6040767759367119,0.011238149880829818,0.05942731698177844
1.1,0.92458387894364,-1.4860455328648914,1.7233791380126657,-1.958628914255701,-1.5479531099998942,-2.461522649992127,-0.3064642311827467,-0.6999456438498857,0.5595895292634177,0.7863095737972375,-0.6131365876899768,0.01265994290935793,0.07497002625202756
1.2,0.9310673391075637,-1.4857855685850574,1.6937529488822773,-1.9608750091516034,-1.5478670269024257,-2.430106723456228,-0.30601299257501335,-0.7074354296635004,0.5802916601768117,0.7776953973655748,-0.6219263359229027,0.014671068357175833,0.09045585307304611
1.3,0.9375507992714871,-1.485525604305223,1.664126759751889,-1.9631211040475054,-1.5477809438049568,-2.398690796920328,-0.30510978864670724,-0.7144478626151087,0.6011883263771144,0.7687929351223023,-0.630437919092574,0.01726917785916285,0.10586419872803615
1.4,0.9440342594354107,-1.485265640025389,1.6345005706215008,-1.9653671989434076,-1.547694860707488,-2.3672748703844286,-0.30376075056996493,-0.7209704729726694,0.622260888348465,0.7596100736605719,-0.6386634561515889,0.02045120831895559,0.12117455940989635
1.5,0.9505177195993342,-1.485005675745555,1.6048743814911137,-1.9676132938393098,-1.5476087776100194,-2.3358589438485304,-0.30197255225701086,-0.726991284845993,0.6434905427581309,0.7501549193340635,-0.6465952928398124,0.02421338566982348,0.13636655099659264
1.6,0.9570011797632572,-1.4847457114657208,1.575248192360728,-1.9698593887352116,-1.5475226945125509,-2.304443017312634,-0.29975239832932976,-0.7324988335492217,0.6648583392909697,0.7404357917498808,-0.6542260077943354,0.02855122949400202,0.15141993367979734
1.7000000000000002,0.9634846399271801,-1.4844857471858868,1.5456220032303427,-1.9721054836311138,-1.5474366114150822,-2.273027090776737,-0.2971080114076667,-0.7374821823693676,0.6863451976221134,0.7304612170916104,-0.6615484184727791,0.03345955849483274,0.16631463641705901
1.8,0.9699681000911031,-1.4842257829060528,1.5159958140999574,-1.9743515785270156,-1.5473505283176134,-2.2416111642408407,-0.29404761874140856,-0.7419309387176344,0.7079319245126052,0.7202399212779003,-0.6685555868852219,0.03893249681501979,0.1810307811779783
1.9,0.9764515602550261,-1.4839658186262188,1.4863696249695717,-1.9765976734229178,-1.5472644452201447,-2.2101952377049443,-0.29057993819676686,-0.7458352696410464,0.729599231012616,0.7097808229620369,-0.6752408251301814,0.04496348119330381,0.19554870695513352
2.0,0.9829350204189491,-1.4837058543463846,1.4567434358391862,-1.9788437683188198,-1.547178362122676,-2.1787793111690474,-0.2867141636240312,-0.7491859166726849,0.7513277497567398,0.6990930263781293,-0.6815977007302577,0.051545268950829656,0.20984899351076403
2.1,0.9894184805828735,-1.4834458900665504,1.4271172467087943,-1.9810898632147222,-1.5470922790252073,-2.1473633846331444,-0.2824599496249729,-0.7519742099996828,0.773098052335812,0.6881858140396364,-0.68762004176317,0.05866994679749363,0.22391248483056597
2.2,0.9959019407467979,-1.4831859257867164,1.397491057578402,-1.983335958110625,-1.5470061959277386,-2.115947458097241,-0.2778273957422774,-0.7541920819289704,0.7948906667295623,-0.6770686392960882,0.6933019417841186,-0.06632894044755208,-0.2377203122562716
2.3,1.0023854009107225,-1.4829259615068822,1.3678648684480101,-1.9855820530065276,-1.54692011283027,-2.0845315315613373,-0.2728270300936176,-0.7558320796316725,0.8166860947844465,-0.6657511187539479,0.6986377645355552,-0.07451302503282065,-0.2512539172691386
2.4,1.0088688610746468,-1.482665997227048,1.3382386793176182,-1.9878281479024298,-1.5468340297328012,-2.0531156050254338,-0.26746979247373515,-0.7568873771479524,0.8384648297208506,-0.6542430245677049,0.7036221484406067,-0.08321233630080423,-0.2644950738968279
2.5,1.0153523212385713,-1.482406032947214,1.308612490187226,-1.9900742427983324,-1.5467479466353327,-2.0216996784895302,-0.26176701694856697,-0.7573517866350463,0.8602073736539003,-0.6425542766073569,0.7082500108765891,-0.0924163825841659,-0.2774259107166538
2.6,1.0218357814024956,-1.4821460686673797,1.278986301056834,-1.992320337694235,-1.5466618635378637,-1.9902837519536267,-0.25573041396613305,-0.7572197688421974,0.8818942551120599,-0.6306949345085641,0.7125165522252089,-0.1021140575270132,-0.29002893242866157
2.7,1.0283192415664184,-1.4818861043875458,1.2493601119264492,-1.9945664325901369,-1.5465757804403952,-1.958867825417731,-0.24937205200951534,-0.7564864427971729,0.9035060465377129,-0.6186751896118294,0.7164172596962383,-0.11229365355255651,-0.3022870409725134
2.8,1.0348027017303412,-1.4816261401077115,1.2197339227960649,-1.9968125274860389,-1.5464896973429265,-1.9274518988818357,-0.24270433881785505,-0.7551475946900703,0.9250233817539399,-0.6065053567971596,0.7199479109216255,-0.12294287605582406,-0.31418355616273075
2.9,1.041286161894264,-1.4813661758278778,1.1901077336656802,-1.9990586223819407,-1.5464036142454578,-1.8960359723459401,-0.23574000220186678,-0.7531996859411277,0.9464269733816705,-0.5941958662207524,0.7231045773171891,-0.13404885830419963,-0.32570223581737867
3.0,1.0477696220581867,-1.4811062115480436,1.1604815445352958,-2.0013047172778426,-1.5463175311479893,-1.8646200458100444,-0.22849207048086503,-0.7506398604403176,0.9676976301915274,-0.5817572549603157,0.7258836272092274,-0.14559817702774794,-0.3368272953559588
3.1,1.0542530822221097,-1.4808462472682096,1.1308553554049114,-2.003550812173745,-1.5462314480505204,-1.833204119274149,-0.2209738525687994,-0.7474659509475504,0.9888162743746503,-0.5692001585756994,0.7282817287235668,-0.15757686868042572,-0.3475434268428676
3.2,1.0607365423860324,-1.4805862829883756,1.1012291662745268,-2.0057969070696466,-1.5461453649530519,-1.8017881927382535,-0.2131989177372434,-0.743676484643404,1.0097639587168903,-0.556535302591604,0.7302958524347613,-0.1699704463524793,-0.357835817453474
3.3,1.0672200025499552,-1.4803263187085414,1.0716029771441424,-2.0080430019655484,-1.5460592818555832,-1.7703722662023575,-0.2051810750836792,-0.7392706878213839,1.030521883660848,-0.5437734939091743,0.7319232737733431,-0.18276391731354485,-0.3676901673405595
3.4,1.073703462713878,-1.4800663544287074,1.0419767880137578,-2.01028909686145,-1.5459731987581145,-1.7389563396664622,-0.19693435273380341,-0.7342484897138244,1.0510714142403121,-0.5309256121533493,0.7331615751892251,-0.19594180116520502,-0.3770927068795956
3.5,1.0801869228778007,-1.4798063901488732,1.0123505988833734,-2.012535191757352,-1.545887115660646,-1.7075404131305667,-0.1884729768069053,-0.7286105254446666,1.071394096871778,-0.5180026009628915,0.7340086480695466,-0.20948814858102474,-0.38603021327208353
3.6,1.0866703830417235,-1.4795464258690392,0.9827244097529888,-2.014781286653254,-1.545801032563177,-1.6761244865946712,-0.17981135017365715,-0.7223581381034698,1.0914716759878418,-0.5050154592300624,0.7344626944094483,-0.22338656061137857,-0.3944900264869586
3.7,1.0931538432056465,-1.479286461589205,0.9530982206226042,-2.017027381549156,-1.5457149494657085,-1.6447085600587752,-0.17096403103591815,-0.7154933799361509,1.1112861104974077,-0.491975232296951,0.7345222282344674,-0.23762020852970064,-0.40246006452086064
3.8,1.099637303369569,-1.479026497309371,0.9234720314922197,-2.019273476445058,-1.5456288663682398,-1.6132926335228799,-0.16194571135835598,-0.7080190126490976,1.1308195900577978,-0.478893003115493,0.734186076773433,-0.25217185419614335,-0.40992883795890506
3.9,1.1061207635334918,-1.4787665330295372,0.8938458423618351,-2.02151957134096,-1.545542783270771,-1.5818767069869843,-0.1527711951818648,-0.6999385068244443,1.1500545511440166,-0.4657798833782536,0.7334533813809488,-0.2670238709139985,-0.4168854638184175
4.0,1.1123413252828696,-1.4785171100648773,0.8654209682630027,-2.0236745891311,-1.5454601907646335,-1.551734667707111,-0.14383568355793255,-0.6916197564426511,1.1682128995862429,-0.4531797737296166,0.732377138158933,-0.2815393178329279,-0.42306906374571324
4.1,1.1175722637658947,-1.478307367563001,0.8415181804137213,-2.0254867671857877,-1.5453907378219296,-1.5263878968561153,-0.1362307174470889,-0.684198649250843,1.1832463930260493,-0.4425773380387052,0.7311890182213301,-0.29393485750436926,-0.42789042876767763
4.2,1.1228875754338976,-1.477950982257541,0.8222121746215411,-2.0269137487882696,-1.545268309454425,-1.5050667771215778,-0.12937007834213896,-0.6782402047175601,1.1950944443023892,-0.4341453702460883,0.7300306109235735,-0.30445466052725934,-0.4311385673906618
4.3,1.132738524801511,-1.4767110743759515,0.8065830535491845,-2.0278822503931377,-1.5448316829996043,-1.4834872772157768,-0.1204383416479721,-0.6748103987408315,1.2039191611957072,-0.42799325164699176,0.728929621067066,-0.3150273645557652,-0.4315566517349807
4.4,1.1474598253104238,-1.474523136200314,0.7948780561061474,-2.0283604426193995,-1.5440579226363562,-1.4616088780638206,-0.10931814912686706,-0.6741254436182618,1.2096028034501014,-0.42427852368190244,0.7279951876360066,-0.32558462365375,-0.428958499113104
4.5,1.165883697782546,-1.471560046047221,0.7880493978950177,-2.0283084205367072,-1.5430081607973891,-1.4411882019050568,-0.09683982304971084,-0.6762410144206293,1.2117375308791234,-0.42330417928125275,0.7273689819076523,-0.335161808612348,-0.42357348596123245
4.6,1.1866036371727582,-1.4680601540953164,0.7861960553296002,-2.027765284958364,-1.5417669333886188,-1.4234082978037539,-0.08374451226176541,-0.680803617849714,1.2104514955542423,-0.4249418873051644,0.7270924766043898,-0.3430969233705774,-0.4159872883303815
4.7,1.2075475969384786,-1.4643951535449844,0.7887488486495073,-2.0268481111436008,-1.5404662192010967,-1.4093756469653966,-0.0710625100681522,-0.68702816508142,1.2063385249041199,-0.4286700742197069,0.7271216652786093,-0.3488608877315259,-0.40722491618527557
4.8,1.2284915545391593,-1.460623617297898,0.79500678206572,-2.025622746523885,-1.5391269426948768,-1.398640732983227,-0.05869674879068451,-0.6945495115181213,1.1998361126318446,-0.43413014994817267,0.7273675790168934,-0.35266554929604915,-0.3976109005558025
4.9,1.2494355121600782,-1.4567512922431254,0.8047699756878455,-2.024105816890629,-1.5377511840519729,-1.3910256523959426,-0.04650441946634514,-0.7032413399730075,1.1910245197896927,-0.44122540621820283,0.727760198098115,-0.35457799081500985,-0.38724628261787764
5.0,1.270379472010399,-1.4527721092886072,0.8182494888603523,-2.0222797664056147,-1.5363367464692275,-1.3867182554421558,-0.034399573366094276,-0.7131168054226609,1.1797057883911606,-0.4500500821940543,0.7282362205020189,-0.3544775598249627,-0.37612842254554474
5.1,1.2913234218775085,-1.4486863850637852,0.8354343825950632,-2.020145505376976,-1.534883744540683,-1.385708815456022,-0.02226030709054822,-0.7240603008284072,1.165808912422538,-0.4605913755609009,0.7286970190927085,-0.3523547793570815,-0.3642833355899504
5.2,1.312267372901432,-1.4445859207545508,0.853131904060195,-2.0179686043049467,-1.533425407201959,-1.3851556354534265,-0.009650836615307237,-0.7347088150686181,1.1513839642010304,-0.4713484469834286,0.7289415190805248,-0.3497276959528356,-0.35237117074245405
5.3,1.333211323925356,-1.4404854564453164,0.8708294255253274,-2.0157917032329173,-1.531967069863235,-1.3846024554508305,0.0034711733606273493,-0.7448317893816088,1.136772376743859,-0.4820761472111424,0.7289455660274651,-0.34684150167138517,-0.340502456345469
5.4,1.3541552749492802,-1.436384992136082,0.8885269469904595,-2.0136148021608884,-1.530508732524511,-1.384049275448235,0.01708342286058542,-0.7544072724384546,1.1219813424885225,-0.49276914354415496,0.7287099977143778,-0.34369709251925523,-0.3286831589778855
5.5,1.3750992259732207,-1.4322845278268446,0.9062244684556059,-2.0114379010888572,-1.5290503951857861,-1.3834960954456386,0.03116270250086085,-0.7634142848939544,1.1070181361890186,-0.5034221274014723,0.7282357700399529,-0.3402955013614127,-0.31691922729628963
5.6,1.3960431769971613,-1.4281840635176068,0.9239219899207521,-2.009261000016826,-1.527592057847061,-1.3829429154430424,0.04568493625278601,-0.7718328568262192,1.0918901112200143,-0.514029816938446,0.7275239563657847,-0.3366378975673767,-0.3052165888897915
5.7,1.416987128021102,-1.4240835992083694,0.9416195113858984,-2.0070840989447953,-1.5261337205083358,-1.3823897354404462,0.06062522574893382,-0.7796440632883387,1.076604695843056,-0.5245869596470613,0.7265757468034243,-0.3327255865849334,-0.29358114714165623
5.8,1.4379310790450424,-1.4199831348991319,0.9593170328510445,-2.004907197872764,-1.524675383169611,-1.38183655543785,0.07595789604988376,-0.7868300579081781,1.06116938943684,-0.5350883349376954,0.7253924474438643,-0.3285600094416115,-0.2820187780994972
5.9,1.458875030068983,-1.4158826705898944,0.9770145543161908,-2.002730296800733,-1.5232170458308856,-1.3812833754352538,0.0916565427854973,-0.7933741044761551,1.0455917586934447,-0.545528756701112,0.7239754795299213,-0.3241427421740761,-0.2705353273556525
6.0,1.4798189810929236,-1.4117822062806566,0.994712075781337,-2.0005533957287023,-1.5217587084921607,-1.3807301954326574,0.10769408058209767,-0.7992606064646123,1.0298794337824753,-0.555903075849417,0.7223263785720211,-0.31947549518564533,-0.2591366069394157
6.1,1.500762932116864,-1.4076817419714194,1.0124095972464833,-1.998376494656671,-1.5203003711534355,-1.3801770154300614,0.12404279268464935,-0.8044751344262998,1.014040104485098,-0.5662061828347316,0.7204467934079096,-0.31456011253217836,-0.2478283922227769
6.2,1.5217068831408045,-1.4035812776621819,1.0301071187116295,-1.9961995935846402,-1.5188420338147104,-1.379623835427465,0.14067438168087995,-0.8090044512234978,0.9980815162999473,-0.5764330101443385,0.7183384852068421,-0.3093985711366181,-0.23661641884132992
6.3,1.5426508341647456,-1.3994808133529442,1.047804640176776,-1.994022692512609,-1.5173836964759853,-1.3790706554248686,0.15756002123232252,-0.8128365350433708,0.9820114665229048,-0.5865785347710819,0.7160033264188352,-0.3039929799325075,-0.22550637963199122
6.4,1.5635947851886858,-1.3953803490437067,1.065502161641922,-1.991845791440578,-1.5159253591372601,-1.3785174754222727,0.1746704087154626,-0.8159606001593379,0.9658378003027569,-0.596637780657808,0.7134432996695902,-0.29834557893684055,-0.21450392158917259
6.5,1.5845387362126264,-1.3912798847344692,1.0831996831070683,-1.9896688903685469,-1.5144670217985352,-1.3779642954196762,0.19197581867457902,-0.8183671154024652,0.9495684066747532,-0.6066058211146568,0.7106604966017174,-0.29245873825264773,-0.20361464284103586
6.6,1.6054826872365673,-1.3871794204252317,1.1008972045722147,-1.9874919892965157,-1.5130086844598098,-1.37741111541708,0.20944615698642388,-0.8200478203111908,0.9332112145740978,-0.6164777812080166,0.7076571166629302,-0.28633495700174505,-0.19284408964746047
6.7,1.6264266382605075,-1.3830789561159942,1.1185947260373608,-1.985315088224485,-1.5115503471210847,-1.3768579354144839,0.2270510156356787,-0.8209957389320575,0.9167741888314114,-0.6262488401199857,0.7044354658418914,-0.2799768621881261,-0.18219775342133335
6.8,1.6473705892844484,-1.3789784918067565,1.1362922475025072,-1.9831381871524538,-1.5100920097823596,-1.3763047554118877,0.24475972799906914,-0.8212051912485289,0.900265326152207,-0.6359142334771942,0.7009979553524246,-0.27338720749250345,-0.17168106777476513
6.9,1.668314540308389,-1.374878027497519,1.1539897689676535,-1.9809612860804229,-1.5086336724436344,-1.3757515754092913,0.2625414245351623,-0.8206718022194088,0.8836926510824481,-0.6454692556478477,0.69734710026683,-0.2665688719985484,-0.1612994055918329
7.0,1.689258491332329,-1.3707775631882815,1.1716872904327993,-1.978784385008392,-1.5071753351049095,-1.3751983954066953,0.2803650887762359,-0.8193925084128696,0.8670642119622287,-0.6549092620058912,0.6934855180990678,-0.25952485885141136,-0.15105807612941977
7.1,1.71020244235627,-1.3666770988790442,1.189384811897946,-1.976607483936361,-1.5057169977661844,-1.3746452154040991,0.2981996135181251,-0.8173655622265735,0.8503880768696578,-0.6642296711611927,0.6894159273385928,-0.25225829384914583,-0.14096232214772844
7.2,1.7311463933802105,-1.3625766345698065,1.207082333363092,-1.9744305828643298,-1.5042586604274593,-1.374092035401503,0.31601385710369156,-0.8145905336889148,0.8336723295570054,-0.673425967154673,0.6851411459356551,-0.24477242396769325,-0.1310173170720214
7.3,1.7520903444041511,-1.358476170260569,1.2247798548282385,-1.9722536817922987,-1.5028003230887341,-1.3735388553989065,0.3337766996955056,-0.8110683098408915,0.8169250653811887,0.6824937016173264,-0.6806640897388976,0.23707061582011946,0.12122816218712262
7.4,1.7730342954280918,-1.3543757059513313,1.2424773762933845,-1.9700767807202677,-1.501341985750009,-1.3729856753963103,0.3514570994334272,-0.8068010917026682,0.8001543872306621,0.6914284958920967,-0.6759877708861075,0.22915635405083545,0.11159988386621274
7.5,1.7939782464520322,-1.3502752416420938,1.2601748977585308,-1.9678998796482365,-1.4998836484112839,-1.372432495393714,0.3690241483731192,-0.8017923888333638,0.7833684014507913,0.7002260431175881,-0.6711152961490083,0.2210332396655629,0.10213743083542015
7.6,1.8149221974759728,-1.3461747773328563,1.277872419223677,-1.9657229785762056,-1.498425311072559,-1.371879315391118,0.3864471281020261,-0.7960470114971001,0.7665752137697809,0.7088821102726235,-0.6660498652329797,0.21270498829784756,0.09284567147570257
7.7,1.8358661484999135,-1.3420743130236188,1.2955699406888233,-1.9635460775041746,-1.4969669737338338,-1.3713261353885218,0.4036955649300644,-0.7895710604528021,0.7497829252272239,0.7173925401806686,-0.6607947690326448,0.20417542841295253,0.08372939116349015
7.8,1.856810099523854,-1.3379738487143813,1.3132674621539695,-1.9613691764321435,-1.4955086363951087,-1.3707729553859256,0.4207392845531749,-0.7823719143896499,0.7329996281073435,0.7257532534731755,-0.6553533878442562,0.19544849944999862,0.07479328965154756
7.9,1.8777540505477943,-1.3338733844051436,1.330964983619116,-1.9591922753601128,-1.4940502990563838,-1.3702197753833292,0.43754846608897136,-0.7744582150344617,0.7162334018789893,0.7339602505109108,-0.6497291895358546,0.18652824990325864,0.066041978491487
8.0,1.8986980015717352,-1.3297729200959059,1.348662505084262,-1.9570153742880814,-1.4925919617176584,-1.3696665953807332,0.45409369538500605,-0.7658398499616139,0.6994923091444475,0.7420096132623663,-0.6439257276761754,0.1774188353435342,0.05747997849934853
8.1,1.9196419525956752,-1.3256724557866686,1.3663600265494082,-1.9548384732160506,-1.4911336243789335,-1.3691134153781368,0.47034601750162863,-0.7565279331403528,0.6827843915991157,0.7498975071383597,-0.6379466396233199,0.1681245163805899,0.04911171726564342
8.2,1.9405859036196162,-1.3215719914774309,1.3840575480145545,-1.9526615721440195,-1.4896752870402084,-1.3685602353755406,0.4862769882730788,-0.746534783258549,0.6661176660040911,0.7576201827819768,-0.6317956445741991,0.15864965656764057,0.04094152671122674
8.3,1.961529854643557,-1.3174715271681934,1.401755069479701,-1.9504846710719885,-1.4882169497014834,-1.3680070553729444,0.5018587248522484,-0.7358738998660593,0.649500120173709,0.7651739778130019,-0.6254765415758067,0.14899872024893004,0.032973640690357325
8.4,1.9824738056674973,-1.3133710628589559,1.4194525909448472,-1.9483077699999576,-1.4867586123627583,-1.3674538753703482,0.5170639551465935,-0.7245599373848857,0.6329397089800595,0.772555318526039,-0.6189932074993693,0.13917627035145924,0.02521219264226205
8.5,2.003417756691438,-1.3092705985497184,1.4371501124099935,-1.9461308689279264,-1.485300275024033,-1.366900695367752,0.5318660660548096,-0.7126086770372596,0.6164443503764986,0.7797607215415252,-0.6123495949784558,0.12918696612196395,0.01766121329251321
8.6,2.0243617077153786,-1.3051701342404807,1.4548476338751397,-1.9439539678558955,-1.483841937685308,-1.3663475153651559,0.546239150416249,-0.7000369967466198,0.6000219214421667,0.7867867954088772,-0.6055497303121384,0.11903556081026508,0.010324628405493726
8.7,2.0453056587393195,-1.301069669931243,1.4725451553402862,-1.941777066783864,-1.4823836003465827,-1.3657943353625595,0.5601580525875645,-0.6868628390701683,0.583680254449505,0.7936302421610322,-0.5985977113343158,0.10872689930014837,0.0032062565892001286
8.8,2.0662496097632594,-1.2969692056220055,1.490242676805432,-1.9396001657118331,-1.4809252630078575,-1.3652411553599633,0.5735984125637046,-0.6731051772253295,0.567427132956754,0.8002878588196705,-0.59149770525032,0.09826591568895772,-0.0036901928463852983
8.9,2.0871935607872003,-1.292868741312768,1.5079401982705785,-1.9374232646398024,-1.4794669256691324,-1.3646879753573673,0.5865367085632364,-0.6587839792759023,0.5512702879273971,0.8067565388504351,-0.5842539464419496,0.087657630817112,-0.010361121976163472
9.0,2.1081375118111407,-1.2887682770035305,1.5256377197357245,-1.9352463635677712,-1.4780085883304075,-1.364134795354771,0.5989502980008937,-0.6439201705470987,0.535217393878512,0.8130332735674838,-0.5768707342420876,0.07690714974879496,-0.01680304629084676
9.1,2.129081462835081,-1.284667812694293,1.543335241200871,-1.9330694624957403,-1.4765502509916824,-1.3635816153521747,0.6108174567733974,-0.6285355943418613,0.519276065059954,0.8191151534867489,-0.5693524306800595,0.0660196592050771,-0.023012596670812735
9.2,2.150025413859022,-1.2805673483850555,1.5610327626660174,-1.9308925614237094,-1.4750919136529572,-1.3630284353495785,0.6221174167877992,-0.6126529710339863,0.5034538516662991,0.8249993696272877,-0.561703458198928,0.05500042495077244,-0.028986521301762855
9.3,2.170969364882963,-1.2764668840758178,1.5787302841311637,-1.9287156603516782,-1.473633576314232,-1.3624752553469823,0.6328304016649934,-0.5962958556164983,0.48775823608344354,0.8306832147601528,-0.553928297345908,0.04385478913634671,-0.03472168753110525
9.4,2.190453492190802,-1.2726522280669725,1.5951942627217348,-1.926690492436821,-1.47227688719989,-1.3619606327916483,0.6422531836696688,-0.5806741593116842,0.4732767974748301,0.8357886935592945,-0.5465857524275957,0.03337727590785925,-0.039840085524223495
9.5,2.2050766793013654,-1.2697892602933358,1.6075507740352988,-1.9251705675830477,-1.4712586676791262,-1.3615743993309921,0.6489721508618018,-0.5687060109157052,0.4624879651023997,0.8395038346408507,-0.5410081025762309,0.02544758901195773,-0.04354267772716988
9.6,2.2146998664119306,-1.2679052062653788,1.615682313316386,-1.9241703395786278,-1.4705886005525923,-1.3613202278680852,0.6532254681827302,-0.5607207292788996,0.4554267351188754,0.8418936813379052,-0.5373071190648904,0.020199331832143497,-0.045913790074795735
9.7,2.2193230535224946,-1.2670000659831022,1.619588880564995,-1.9236898084235616,-1.4702666858202889,-1.3611981184029274,0.6552207872214713,-0.5568544651872411,0.45204552891235955,0.8430262072965409,-0.5355206491442331,0.017669704687988706,-0.047034345829279844
9.742463742,2.219773845873142,-1.2669118086174032,1.6199697975797829,-1.9236429533506927,-1.4702352969330532,-1.361186211895248,0.6554136654845887,-0.5564764534492869,0.4517162301974551,0.8431360928615075,-0.5353461659463086,0.017422765620169707,-0.04714296086335202
