mathias31415/evaluate_motion_primitives_from_trajectory_controller/data/trajectory_20250716_091324_executed.csv
timestamp,elbow_joint_pos,shoulder_lift_joint_pos,shoulder_pan_joint_pos,wrist_1_joint_pos,wrist_2_joint_pos,wrist_3_joint_pos,elbow_joint_vel,shoulder_lift_joint_vel,shoulder_pan_joint_vel,wrist_1_joint_vel,wrist_2_joint_vel,wrist_3_joint_vel,pose_x,pose_y,pose_z,pose_qx,pose_qy,pose_qz,pose_qw
1752650077.265568,0.9083140532123012,-1.1859699052623291,1.3207077980041504,-1.2648487848094483,-1.5689809958087366,-2.887615982686178,-0.0,-0.0,-0.0,0.0,0.0,0.0,-0.05285599046594205,-0.9114448513408624,0.7853588772094279,0.9683070566827884,-0.24936023914409292,0.0008800731546027136,-0.01414710512997817
1752650077.2658198,0.9083083311664026,-1.1859247845462342,1.320698618888855,-1.2648219031146546,-1.5690258185016075,-2.887636963521139,-0.0,-0.0,-0.0,0.0,0.0,0.0,-0.052875320644979025,-0.9114661793450229,0.7853191114797272,0.9683081647958832,-0.2493541346757409,0.0008578131023635163,-0.014180185697747729
1752650077.267629,0.9083130995379848,-1.1859041315368195,1.3207032680511477,-1.2648294132998965,-1.5689476172076624,-2.887636963521139,-0.0,-0.0,-0.0,0.0,0.0,0.0,-0.05286560908415912,-0.9114818220497621,0.7852983170822114,0.9683084468661136,-0.24935238816046867,0.000896859356249036,-0.014189217374510314
1752650077.2695758,0.9083474318133752,-1.1859610241702576,1.3207077980041504,-1.264882968073227,-1.5690258185016075,-2.887690846120016,-0.0,-0.0,-0.0,0.0,0.0,0.0,-0.05286369890913263,-0.9114539206504848,0.7853326555719434,0.968316432267483,-0.249323680795255,0.0008581859002368878,-0.014151067537099743
1752650077.2720048,0.9082887808429164,-1.185932145719864,1.320698618888855,-1.2648784977248688,-1.5689767042743128,-2.887677256261007,-0.0,-0.0,-0.0,0.0,0.0,0.0,-0.05287017455243376,-0.911469162252078,0.7853453359653721,0.9683136619430661,-0.24933506903241037,0.000882733602431782,-0.014138466196875202
1752650077.2737875,0.9082811514483852,-1.1860068005374451,1.3206913471221924,-1.2648294132998965,-1.569000546132223,-2.887686316167013,-0.0,-0.0,-0.0,0.0,0.0,0.0,-0.052866795904210596,-0.9114183786822418,0.7854115981050539,0.9683141681588564,-0.24933408682533992,0.0008709611016752181,-0.014121838285261857
1752650077.2785358,0.9083183447467248,-1.185952977543213,1.3207367658615112,-1.264866606598236,-1.5689647833453575,-2.887636963521139,-0.0,-0.0,-0.0,0.0,0.0,0.0,-0.05283085773178262,-0.9114589899159978,0.7853429278554058,0.9683132245821193,-0.24933616094618033,0.0008881187291701541,-0.014148822888188174
1752650077.2788231,0.9083140532123012,-1.1859653753093262,1.3207168579101562,-1.2648005348495026,-1.5689929167376917,-2.887636963521139,-0.0,-0.0,-0.0,0.0,0.0,0.0,-0.0528483251891746,-0.9114420350609622,0.7853491938751459,0.9683104605283406,-0.24934554435087203,0.0008741461448677314,-0.01417347565975778
1752650077.2797058,0.9083312193499964,-1.1859454077533265,1.3207242488861084,-1.264862136249878,-1.5689767042743128,-2.8876579443561,-0.0,-0.0,-0.0,0.0,0.0,0.0,-0.05284472971392323,-0.9114623583759022,0.7853270439176323,0.9683141324706515,-0.2493319498192431,0.0008823716347097226,-0.014161252672077806
1752650077.2823243,0.9082649389850062,-1.1859862071326752,1.320766806602478,-1.2647960048964997,-1.569000546132223,-2.887620512639181,-0.0,-0.0,-0.0,0.0,0.0,0.0,-0.052799963149549434,-0.911429972105459,0.7854000510233656,0.968315109154885,-0.24932936168459668,0.0008699261696039135,-0.014140792508709157
1752650077.2839725,0.9082391897784632,-1.18599487960849,1.3207367658615112,-1.2648590964129944,-1.5690301100360315,-2.887669865285055,-0.0,-0.0,-0.0,0.0,0.0,0.0,-0.052831020953987055,-0.9114288613393203,0.7854323207906017,0.9683182586635234,-0.24931994244135175,0.0008558018476013448,-0.014091977969056906
1752650077.285807,0.9082587401019496,-1.18594844759021,1.3206613063812256,-1.2648829382709046,-1.5690301100360315,-2.887636963521139,-0.0,-0.0,-0.0,0.0,0.0,0.0,-0.05290763265125844,-0.9114555427364092,0.7853804639775492,0.9683044565721106,-0.24937235008430347,0.0008560611990531292,-0.014113027855308232
1752650077.2886174,0.9082678000079554,-1.18592785418544,1.3207412958145142,-1.264850215320923,-1.568967644368307,-2.887641493474142,-0.0,-0.0,-0.0,0.0,0.0,0.0,-0.052829864861235386,-0.9114701604541181,0.7853521734927992,0.9683144232435581,-0.24933176718499994,0.0008866972172481627,-0.014144305530684277
1752650077.2902634,0.9082887808429164,-1.1859699052623291,1.3207331895828247,-1.2648784977248688,-1.5690091292010706,-2.887698475514547,-0.0,-0.0,-0.0,0.0,0.0,0.0,-0.05283667586108636,-0.9114479324504047,0.7853791687123512,0.9683209505631198,-0.24930788970403242,0.0008664648099035805,-0.014119563399450405
1752650077.2960489,0.9083140532123012,-1.18594844759021,1.3207577466964722,-1.264871047144272,-1.5689900557147425,-2.887603823338644,-0.0,-0.0,-0.0,0.0,0.0,0.0,-0.05281535885097543,-0.9114623859914389,0.7853422390505247,0.9683117936414133,-0.24934188329104165,0.0008751051402074822,-0.014146721274522536
1752650077.297969,0.9083140532123012,-1.18594844759021,1.3207577466964722,-1.264871047144272,-1.5689900557147425,-2.887603823338644,-0.0,-0.0,-0.0,0.0,0.0,0.0,-0.05281535885097543,-0.9114623859914389,0.7853422390505247,0.9683117936414133,-0.24934188329104165,0.0008751051402074822,-0.014146721274522536
1752650077.299883,0.9083426634417932,-1.1859367054751893,1.320715069770813,-1.264911250477173,-1.568960491810934,-2.887636963521139,-0.0,-0.0,-0.0,0.0,0.0,0.0,-0.05285412889630235,-0.9114735516581773,0.7853173466846387,0.9683105384665653,-0.24934669949145147,0.0008904217155902385,-0.014146791031129367
1752650077.3020942,0.9083264509784144,-1.1859440964511414,1.3206868171691897,-1.2648785275271912,-1.5689929167376917,-2.887632433568136,-0.0,-0.0,-0.0,0.0,0.0,0.0,-0.052881317308577036,-0.9114624144017854,0.7853309514932041,0.9683064592010778,-0.24936234079615796,0.0008743698737454698,-0.014151308754178844
1752650077.3043523,0.9083502928363244,-1.1859949988177796,1.3207242488861084,-1.264862136249878,-1.5689972082721155,-2.887620512639181,-0.0,-0.0,-0.0,0.0,0.0,0.0,-0.052839798096946264,-0.9114333938788899,0.785358775678022,0.9683097235605368,-0.24934997489699542,0.0008718855932187019,-0.014145992100133647
1752650077.3063312,0.9082768599139612,-1.1859660607627411,1.320712327957153,-1.2648710173419495,-1.5689929167376917,-2.887603823338644,-0.0,-0.0,-0.0,0.0,0.0,0.0,-0.052854104217406946,-0.911448256247672,0.78538279653856,0.9683065182531521,-0.24936392630698515,0.0008740498550285693,-0.01411931308788118
1752650077.3099976,0.9082678000079554,-1.1859742564013978,1.3207321166992188,-1.2648382943919678,-1.568972412739889,-2.88770300546755,-0.0,-0.0,-0.0,0.0,0.0,0.0,-0.05283147268859911,-0.9114409677419785,0.7853923683689438,0.9683211974540207,-0.24930644317721576,0.0008848464083677776,-0.014127030769796536
1752650077.3160698,0.9083550612079064,-1.18598164737735,1.3207321166992188,-1.2648294132998965,-1.5690014998065394,-2.887632433568136,-0.0,-0.0,-0.0,0.0,0.0,0.0,-0.052834181975094964,-0.9114378761122179,0.7853398209090977,0.9683118458991935,-0.24934029750919132,0.0008697188742790086,-0.014171404955201928
1752650077.3206325,0.9083426634417932,-1.1859440964511414,1.320694088935852,-1.264833853845932,-1.568960491810934,-2.887665335332052,-0.0,-0.0,-0.0,0.0,0.0,0.0,-0.052869849599315066,-0.9114591219212216,0.7853149536454429,0.9683109718369352,-0.24934302860868796,0.0008907034135302014,-0.014181768291936452
1752650077.326825,0.9082720915423792,-1.1859905284694214,1.32075035572052,-1.2648784977248688,-1.5689809958087366,-2.887653414403097,-0.0,-0.0,-0.0,0.0,0.0,0.0,-0.05281461503683063,-0.911436972843011,0.7854087743294484,0.9683176705886027,-0.2493216337156331,0.0008801273130888096,-0.014100963199117822
1752650077.3279805,0.9082720915423792,-1.1859905582717438,1.320745825767517,-1.2648576957038422,-1.569000546132223,-2.887665335332052,-0.0,-0.0,-0.0,0.0,0.0,0.0,-0.052820329932023444,-0.9114337358996389,0.7854063731790645,0.9683184906670737,-0.2493178965438874,0.0008704488696698391,-0.014111322189544518
1752650077.332447,0.9082720915423792,-1.185953007345535,1.3207197189331057,-1.264791564350464,-1.568960491810934,-2.887636963521139,-0.0,-0.0,-0.0,0.0,0.0,0.0,-0.052843258733146485,-0.9114478304093353,0.785365024993534,0.9683108894699899,-0.24934440525587706,0.0008903567998448609,-0.014163197597963906
1752650077.334527,0.9082887808429164,-1.1859278243831175,1.3207077980041504,-1.2648457747748871,-1.5690181891070765,-2.8876579443561,-0.0,-0.0,-0.0,0.0,0.0,0.0,-0.05286616832838427,-0.9114671810041989,0.7853376421197109,0.9683122320399278,-0.24933964618369553,0.000861756046197469,-0.014156959396689362
1752650077.33556,0.9083474318133752,-1.1859321159175416,1.320712327957153,-1.264894889002182,-1.56895620027651,-2.887669865285055,-0.0,-0.0,-0.0,0.0,0.0,0.0,-0.05285638798932251,-0.9114744882005963,0.7853081517024096,0.9683141098353599,-0.24933209234615378,0.0008927945365174528,-0.01415963763516666
1752650077.338501,0.9082720915423792,-1.185941056614258,1.320712327957153,-1.264874057178833,-1.5690258185016075,-2.887641493474142,-0.0,-0.0,-0.0,0.0,0.0,0.0,-0.05286160816879468,-0.9114621391758242,0.7853639121051607,0.9683111675314902,-0.2493454439917118,0.0008578498568302767,-0.0141278621171752
1752650077.3401897,0.9083049933062952,-1.1859862071326752,1.3207197189331057,-1.2648948591998597,-1.5689476172076624,-2.887686077748434,-0.0,-0.0,-0.0,0.0,0.0,0.0,-0.052840201083231696,-0.9114419227995186,0.7853848970805423,0.9683177048694421,-0.24932084925719356,0.0008972411046941829,-0.014111396828372081
1752650077.3420713,0.908327881489889,-1.1859204036048432,1.3207412958145142,-1.264829383497574,-1.5690091292010706,-2.887653414403097,-0.0,-0.0,-0.0,0.0,0.0,0.0,-0.052835592519789656,-0.9114730477087066,0.7853030364599249,0.9683153847608509,-0.24932559835477644,0.0008659548725507137,-0.014188437639031565
1752650077.3439324,0.908309284840719,-1.185977266435959,1.320715069770813,-1.2648174625686188,-1.5690014998065394,-2.887665335332052,-0.0,-0.0,0.0031755017116665,0.0,2.970097511934e-06,2.581901696885325e-07,-0.05284960368476955,-0.9114365231423472,0.7853649970895314,0.9683140277045039,-0.24933266048457792,0.0008701012913512483,-0.01415666239288596
1752650077.3459284,0.9082811514483852,-1.1859616500190278,1.3207367658615112,-1.2648591262153168,-1.5689929167376917,-2.887646023427145,-0.0,-0.0,0.0145601825788617,0.0063024088740348,0.0131049565970897,0.005608691368252,-0.05283217660570985,-0.9114509034613346,0.7853745994208561,0.9683146831321117,-0.24933163589855895,0.00087415510880812,-0.014129600976408592
1752650077.3478203,0.90829307237734,-1.185957358484604,1.320789456367493,-1.264829383497574,-1.5689523855792444,-2.887587372456686,-0.0,-0.0,0.0213449411094188,0.0069255521520972,0.0119824493303895,0.0100971180945634,-0.05277944299752983,-0.9114543389697161,0.7853593555471214,0.9683135308692719,-0.2493347338625748,0.0008935857785683302,-0.014152665106578656
1752650077.3499973,0.908360783253805,-1.1859484177878876,1.3207921981811523,-1.2647976142219086,-1.5689151922809046,-2.887620512639181,-0.0,-0.0,0.0216740239411592,0.0063760806806385,0.0091451480984687,0.0107736308127641,-0.05277375450302214,-0.9114595141171785,0.7853025437180617,0.9683171646130232,-0.24931746958136744,0.0009122873645698984,-0.014206893013736005
1752650077.3518806,0.9082978407489222,-1.1859204334071656,1.3208415508270264,-1.2648065251163023,-1.5689285437213345,-2.8875754515277308,-0.0,-0.0,0.0204836726188659,0.0063161407597362,0.0095073394477367,0.0131383296102285,-0.05273415690581494,-0.911476921610545,0.7853204294598611,0.9683180359048308,-0.24931535931343152,0.0009049865102279593,-0.014184990350427532
1752650077.353962,0.90829307237734,-1.1859786671451111,1.3208614587783811,-1.2648518246463318,-1.568904701863424,-2.887560431157248,-0.0,-0.0,0.0189102459698915,0.006911673117429,0.0108075020834803,0.0155553231015801,-0.05270590973610135,-0.9114496342968643,0.7853810766637284,0.9683193472943271,-0.24931329541888503,0.0009167701323986913,-0.014130885159415452
1752650077.3560388,0.9083140532123012,-1.1859247249415894,1.320892572402954,-1.2647693020156403,-1.5688970724688929,-2.887560431157248,0.0006134900031611,0.0002404539118288,0.0160422828048467,0.0084821162745356,0.0096730515360832,0.0189689248800277,-0.05268249965421102,-0.9114742566886799,0.7853091460913946,0.9683221099712411,-0.24929807703696752,0.0009202010624654999,-0.014209621969580637
1752650077.3579118,0.9083140532123012,-1.1859440964511414,1.3208999633789062,-1.2648126047900696,-1.5688970724688929,-2.8875141779529017,0.0005610508960671,0.000591515447013,0.0119645278900861,0.0113000031560659,0.0089058876037597,0.0207736417651176,-0.05267415049524302,-0.9114683283507365,0.7853315510782541,0.9683177037601419,-0.2493169746375205,0.0009198858737557806,-0.014178312743736123
1752650077.360401,0.9083355108844202,-1.1859573286822815,1.3209073543548584,-1.2647164923003693,-1.568847958241598,-2.8874931971179407,0.0004991022287867,0.0006016708794049,0.0110712759196758,0.0132316406816244,0.012636587023735,0.019601097330451,-0.05265723395109118,-0.9114519787744899,0.785317930023826,0.9683151697754021,-0.249323750001317,0.0009441287834103812,-0.0142305407119758
1752650077.3633952,0.9083851019488732,-1.185929076080658,1.3210166692733765,-1.2646962267211457,-1.5688040892230433,-2.887364451085226,0.0006431778892874,0.0005738982581533,0.0160901304334402,0.0180626902729272,0.0174492411315441,0.0184815526008605,-0.05255671566891622,-0.9114749537063187,0.7852572252523566,0.9683119593900167,-0.24933332754083726,0.000964257337229045,-0.01427975095958525
1752650077.366075,0.9083502928363244,-1.1859247547439118,1.3210241794586182,-1.264621154671051,-1.5687359015094202,-2.8873477617846888,0.0007524895481765,0.0005303744692355,0.0183370113372802,0.0191471595317125,0.0163833983242511,0.018107283860445,-0.05254027450015052,-0.9114698836600322,0.7852678129184868,0.9683103460333988,-0.2493381772649631,0.0009981246593197255,-0.014302128164358522
1752650077.3679967,0.9083049933062952,-1.1859617096236723,1.321093201637268,-1.2645944517901917,-1.5687935988055628,-2.8873375097857874,0.0006631725700572,0.0005457915831357,0.0203414056450128,0.0194320697337389,0.0162808615714311,0.018864594399929,-0.05247715505606664,-0.9114454812644438,0.7853279823242549,0.9683181948756895,-0.249309403070907,0.000968775762817765,-0.01427432963874991
1752650077.3698206,0.9083173910724084,-1.1859786671451111,1.321091651916504,-1.2645507615855711,-1.5687535444842735,-2.887334648762838,0.0006887700874358,0.0005523346480913,0.0214762706309556,0.0188569873571395,0.0152786690741777,0.0195254571735858,-0.05247032814332218,-0.9114319831156475,0.7853298407984043,0.9683172785904839,-0.24931176000826324,0.000988746638940935,-0.014293938742883388
1752650077.3730218,0.90829307237734,-1.1859366756728669,1.3211326599121094,-1.2645766896060486,-1.568725887929098,-2.8872252146350306,0.000681267818436,0.0005413293256424,0.0222269799560308,0.0165285337716341,0.0161890722811222,0.019954839721322,-0.05243664932484105,-0.9114616798349447,0.7853114362854408,0.9683087434391688,-0.24934508737610442,0.0010015080188658114,-0.014289918206511739
1752650077.3750825,0.9082959334002894,-1.1859653753093262,1.3212214708328247,-1.2644324463656922,-1.5686457792865198,-2.8871892134295862,0.0006663622916676,0.0005775563186034,0.024073276668787,0.0159080401062965,0.0167545974254608,0.0219401773065328,-0.05233812137116387,-0.91143516342383,0.7853184699787948,0.9683143067004111,-0.2493199132083197,0.0010405225064594554,-0.014349272804284451
1752650077.3757946,0.9082959334002894,-1.1859653753093262,1.3212214708328247,-1.2644324463656922,-1.5686457792865198,-2.8871892134295862,0.0006663622916676,0.0005775563186034,0.024073276668787,0.0159080401062965,0.0167545974254608,0.0219401773065328,-0.05233812137116387,-0.91143516342383,0.7853184699787948,0.9683143067004111,-0.2493199132083197,0.0010405225064594554,-0.014349272804284451
1752650077.3809433,0.9082630316363732,-1.1859379273704072,1.3212673664093018,-1.2644057732871552,-1.5686171690570276,-2.887129370366232,0.0006891483208164,0.0006214333116076,0.0251585654914379,0.0161982048302888,0.0171557962894439,0.0229643508791923,-0.05229606901785478,-0.9114501984794979,0.7853126903415328,0.9683123514757387,-0.2493268340941933,0.0010540411209829345,-0.014359971358167896
1752650077.381729,0.9082911650287072,-1.1859454375556489,1.3214296102523804,-1.264359013443329,-1.568517033253805,-2.887057367955343,0.0008098998805508,0.0012736528879031,0.0282573755830526,0.0164298824965953,0.0193945541977882,0.0247908327728509,-0.052134631712478285,-0.9114527178542395,0.7852952613657952,0.9683228884851001,-0.24928374157924352,0.001102334162564687,-0.014393911196036793
1752650077.3839102,0.9082911650287072,-1.185949758892395,1.3214681148529053,-1.2643054884723206,-1.5684760252581995,-2.886996332799093,0.0010514926398172,0.0015314202755689,0.0298026222735643,0.0168547853827476,0.0196790490299463,0.0257900450378656,-0.052092675989470316,-0.911447150416925,0.7852929121795306,0.9683196335051085,-0.2492948691660317,0.0011220543619107966,-0.01441861886702523
1752650077.385769,0.9082887808429164,-1.1859203738025208,1.3215627670288086,-1.26429499805484,-1.5684283415423792,-2.8869240919696253,0.0013234615325927,0.0016421016771346,0.0312007367610931,0.0166539717465639,0.0203410778194665,0.0272192303091287,-0.052005069699018816,-0.9114693605929765,0.7852669590811389,0.9683220468197896,-0.2492842984363944,0.001144639195762173,-0.014437520456074897
1752650077.3882926,0.9083502928363244,-1.1858965319446106,1.321592926979065,-1.2642796498588105,-1.5684211889850062,-2.886885229741232,0.0016721546417102,0.0016583274118602,0.0330861359834671,0.0172075442969799,0.0211622212082147,0.028757119551301,-0.051980428749699284,-0.9114855032629672,0.7852028352390632,0.96832022519406,-0.24928843707157627,0.0011475774142649985,-0.01448791526113922
1752650077.3902075,0.9083550612079064,-1.1858726900867005,1.3216438293457031,-1.264260099535324,-1.5683477560626429,-2.886812035237448,0.0020417685154825,0.0017706480575725,0.0353944860398769,0.0169498268514871,0.0214571505784988,0.0298809111118316,-0.051928756224324406,-0.9115021222141847,0.7851760375913776,0.9683169256719972,-0.24929967553326846,0.0011833227151531226,-0.014512166740045535
1752650077.3919857,0.9083049933062952,-1.1859172147563477,1.3217957019805908,-1.2641781729510804,-1.5683119932757776,-2.886793915425436,0.0022808371577411,0.0017645530169829,0.0364277437329292,0.0177400764077901,0.022382428869605,0.0311469603329896,-0.05177677661399487,-0.911473636420098,0.785239760382822,0.9683336006827719,-0.2492351784475122,0.0011999871268286704,-0.014505986483872234
1752650077.3959098,0.9083669821368616,-1.1859378677657624,1.3217804431915283,-1.2641306084445496,-1.5683382193194788,-2.8866921106921595,0.0023754872381687,0.0019670529291033,0.0363548882305622,0.0179180651903152,0.0226980652660131,0.0323773734271526,-0.05178972328140906,-0.9114566633041185,0.7852114333414127,0.9683184350918617,-0.24929156811055767,0.0011861162653670574,-0.014550445300140737
1752650077.3976011,0.9083035627948206,-1.1858965915492554,1.3219784498214722,-1.2640748482993622,-1.5681679884540003,-2.8865559736834925,0.0032164573203772,0.0030997162684798,0.0394171103835105,0.0189477670937776,0.0251052193343639,0.0354423113167285,-0.051593943701209795,-0.9114872346435079,0.7852102469437191,0.9683254905357784,-0.24926274575286278,0.0012687386503660645,-0.014567712951081946
1752650077.400194,0.9083579222308558,-1.1859215956977387,1.3220868110656738,-1.264051155453064,-1.5681245962726038,-2.8864975611316126,0.0035692036617547,0.0037384333554655,0.0418598055839538,0.0190038941800594,0.0264143943786621,0.0369503870606422,-0.05148634152967302,-0.9114785895796746,0.7851937016524565,0.9683312255462864,-0.24923879915964148,0.0012891323579561176,-0.014594408629702937
1752650077.4020576,0.9083531538592736,-1.1858889919570466,1.3221250772476196,-1.2640689474395297,-1.5680931250201624,-2.886404816304342,0.003854856127873,0.0039907819591462,0.044305495917797,0.0194822922348976,0.0273673180490732,0.0382910147309303,-0.05145324066655778,-0.9115024643974898,0.7851697417583383,0.9683242857278094,-0.24926538112820015,0.001303893736236644,-0.014599565125904882
1752650077.4038205,0.908344093953268,-1.185934768324234,1.3222171068191528,-1.264025316839554,-1.568061653767721,-2.8863912264453333,0.00483472738415,0.0040442510508,0.0434979498386383,0.0205833371728658,0.0283151380717754,0.0390438102185726,-0.05135762250614446,-0.9114758814424826,0.7852117285146948,0.9683340642682061,-0.2492276334425973,0.0013188752472439462,-0.01459408354444905
1752650077.4057815,0.9083517233477992,-1.1858726900867005,1.3223174810409546,-1.2639344495585938,-1.5680058638202112,-2.8862670103656214,0.004881081636995,0.003999738022685,0.0453252121806144,0.0212491527199745,0.0294897407293319,0.0415153019130229,-0.05126644647541564,-0.9115087047423784,0.7851404600170848,0.968329788990815,-0.24923937710779653,0.0013448517461792855,-0.014674604788621908
1752650077.4077272,0.9083564917193812,-1.1859009128860016,1.3224551677703855,-1.263890580540039,-1.567941967641012,-2.886207167302267,0.0049059796147048,0.003994801081717,0.047177754342556,0.021378943696618,0.0300783868879079,0.0422417148947715,-0.05112828053677148,-0.9114961155661129,0.7851574903897511,0.9683391799581926,-0.24920210718003877,0.0013753106663024859,-0.014685055515541764
1752650077.4098232,0.9083364645587366,-1.1858858329108737,1.3225024938583374,-1.2638052564910431,-1.5678208510028284,-2.8860767523394983,0.0049316571094095,0.0042608650401234,0.0486588105559349,0.0220522675663232,0.0305858701467514,0.0433248057961463,-0.05107100337102661,-0.9115002031643352,0.785147428112349,0.968327932077379,-0.24924308566618628,0.001434410946672016,-0.014725578819907367
1752650077.4114833,0.90841514268984,-1.1858275395682831,1.3226145505905151,-1.2637946766665955,-1.5678051153766075,-2.8860064188586634,0.0057084169238805,0.0048930100165307,0.0502478070557117,0.0230325572192668,0.0309989564120769,0.0468058101832866,-0.0509761341370068,-0.9115420787324789,0.7850415616771742,0.9683320093904215,-0.24922282945938334,0.0014406602065983654,-0.01479950554365678
1752650077.413486,0.908381764088766,-1.1858525735190888,1.3227386474609375,-1.2637591821006318,-1.5677455107318323,-2.885920826588766,0.0057743559591472,0.0054935328662395,0.051459152251482,0.023615987971425,0.0317947939038276,0.0454846732318401,-0.050851220212095545,-0.9115301258855946,0.7850821180008729,0.9683368223245241,-0.24920462786904293,0.0014689512431406997,-0.014788311646032762
1752650077.4158466,0.9083517233477992,-1.185824529533722,1.3227688074111938,-1.263715760116913,-1.5676444212542933,-2.8858161608325403,0.0057424940168857,0.0055454270914196,0.0528383255004882,0.0245924983173608,0.032269649207592,0.0471268184483051,-0.05081491930595701,-0.9115448665442656,0.785071979915378,0.9683269710612333,-0.2492413603616508,0.001518412373160447,-0.014809315457380587
1752650077.4174647,0.9084647337542932,-1.185861514215805,1.322925686836243,-1.2636563342860718,-1.5675800482379358,-2.885738436375753,0.0061275847256183,0.0055059506557881,0.0543519295752048,0.0257392115890979,0.031105225905776,0.0486895814538002,-0.050658420451820396,-0.9115300812099483,0.785022963936944,0.9683356659940757,-0.2492033399327089,0.0015485859563212512,-0.014877338865817099
1752650077.4193594,0.9084256331073206,-1.185842053299286,1.3230420351028442,-1.2636081737330933,-1.5675743261920374,-2.885666433964865,0.0058798748068511,0.0054593398235738,0.0557551980018615,0.0260562039911746,0.0341756939888,0.0524072311818599,-0.05055283508295008,-0.9115405463246152,0.7850259667749396,0.9683409650623774,-0.24918187846823506,0.0015499869476573154,-0.014891754952569294
1752650077.4219117,0.9083951155291956,-1.185772494678833,1.3231749534606934,-1.2635741096786042,-1.567526642476217,-2.88555866876711,0.005771835334599,0.0059219151735305,0.0572981983423233,0.0261243600398302,0.0350683145225048,0.0535444319248199,-0.05043531377977969,-0.911584328912567,0.7849800147500388,0.9683434304731752,-0.2491699562150784,0.0015718791886605952,-0.014928589184361138
1752650077.4235642,0.9084785620318812,-1.185837672357895,1.323264718055725,-1.2635540229133149,-1.5673969427691858,-2.885413471852438,0.0056649548932909,0.0061437557451426,0.0587748251855373,0.0257863700389862,0.0357942581176757,0.0517453961074352,-0.05032933420104553,-0.9115549813647797,0.7849805586752807,0.96833589278059,-0.2491976652955163,0.0016348839021508446,-0.014948227945420488
1752650077.426397,0.9084904829608362,-1.1857436162284394,1.32352614402771,-1.263362781410553,-1.5672810713397425,-2.8852396647082728,0.0071769282221794,0.0066255256533622,0.061447873711586,0.0287424605339765,0.0372208431363105,0.0569139532744884,-0.050086329242088896,-0.9116046684712423,0.7848661396781063,0.9683442702817996,-0.24915575315384583,0.0016888807149703948,-0.015097435698803832
1752650077.4273543,0.9084904829608362,-1.1857436162284394,1.32352614402771,-1.263362781410553,-1.5672810713397425,-2.8852396647082728,0.0071769282221794,0.0066255256533622,0.061447873711586,0.0287424605339765,0.0372208431363105,0.0569139532744884,-0.050086329242088896,-0.9116046684712423,0.7848661396781063,0.9683442702817996,-0.24915575315384583,0.0016888807149703948,-0.015097435698803832
1752650077.4293764,0.9084904829608362,-1.185768650179245,1.3236321210861206,-1.2633534234813233,-1.567181412373678,-2.8851094881640837,0.0072955237701535,0.0070275170728564,0.063080795109272,0.0286172647029161,0.0388123504817485,0.0577169023454189,-0.04997448250307242,-0.9115970591525008,0.7848875265678361,0.9683411001673495,-0.24916819165860846,0.001736957972633162,-0.015090028802737914
1752650077.4343822,0.9085186163531702,-1.1857732099345704,1.323806881904602,-1.2632774275592349,-1.567162815724508,-2.885090176259176,0.007094987668097,0.0074828788638114,0.0643205046653747,0.0299212858080863,0.040951382368803,0.0587634332478046,-0.04981041330906869,-0.9115957774282467,0.7848640473995757,0.9683596615535716,-0.2490929589840007,0.001744552690614508,-0.015140019694736422
1752650077.4346683,0.9085186163531702,-1.1857374471477051,1.3239643573760986,-1.2632371944240113,-1.5670622030841272,-2.884899918233053,0.0073997019790112,0.0076197255402803,0.0673889517784118,0.0339657850563526,0.0410768426954746,0.0598507225513458,-0.049659586286978925,-0.9116227409329716,0.7848273652509378,0.9683547239047599,-0.24910947102700673,0.0017920317923980833,-0.015178562449591875
1752650077.435451,0.9085429350482386,-1.1857374471477051,1.3240867853164673,-1.263156072502472,-1.5669859091388147,-2.8847714106189173,0.0085450978949666,0.0075365835800766,0.068282350897789,0.0323431976139545,0.0397589765489101,0.0625399798154831,-0.04953719071108436,-0.9116223912161722,0.7848017722762037,0.968352951923779,-0.249112854865432,0.0018280013513500611,-0.015231692366807695
1752650077.4375796,0.9085004965411584,-1.185713605289795,1.3241719007492063,-1.2631428402713318,-1.5668934027301231,-2.884651486073629,0.0087397936731576,0.0078853098675608,0.0689531490206718,0.0320186987519264,0.04228400811553,0.0636509656906127,-0.04945189471308336,-0.9116401704219097,0.784807173493635,0.9683483951436751,-0.24913037334400595,0.0018727008535234769,-0.015229435040687848
1752650077.4396708,0.9085577170001428,-1.1857506197742005,1.324362874031067,-1.2630618971637269,-1.5668633619891563,-2.884552780781881,0.0085947662591934,0.0083858268335461,0.0723522007465362,0.0340596511960029,0.0432896837592124,0.065076969563961,-0.049267078582013256,-0.91162134842673,0.7847928402419446,0.9683590305864693,-0.24908581763089907,0.001885243715879611,-0.0152803531671084
1752650077.4414473,0.908569637929098,-1.185680941944458,1.324518799781799,-1.2629735332778471,-1.5667184034930628,-2.884392563496725,0.0091839004307985,0.0088070183992385,0.0732250958681106,0.0365754477679729,0.0474281273782253,0.0660555735230445,-0.04911632596830032,-0.9116640802927783,0.7847122595803429,0.9683567764300935,-0.24908877489173434,0.0019548311845126753,-0.015366014443985037
1752650077.443414,0.9086406866656702,-1.1856859487346192,1.324657678604126,-1.262843297129013,-1.5666301886187952,-2.884214226399557,0.009337187744677,0.0085585433989763,0.0746536999940872,0.0369421988725662,0.0461919009685516,0.0671832263469696,-0.04897581875090331,-0.9116577771977896,0.7846543396886658,0.968350090177775,-0.24910833434238913,0.001995940832350176,-0.015464696377537243
1752650077.446375,0.9087098280536096,-1.1856740576079865,1.3250030279159546,-1.262767420416214,-1.5664542357074185,-2.8840060869800013,0.0096964007243514,0.0095195490866899,0.0780090019106864,0.0380850061774253,0.0489221103489398,0.0711958780884742,-0.048641220718285874,-0.9116801688100074,0.7845889113353031,0.9683654386003167,-0.24904303248302234,0.0020791600300232665,-0.015544207591451788
1752650077.44775,0.9087098280536096,-1.1856740576079865,1.3250030279159546,-1.262767420416214,-1.5664542357074185,-2.8840060869800013,0.0096964007243514,0.0095195490866899,0.0780090019106864,0.0380850061774253,0.0489221103489398,0.0711958780884742,-0.048641220718285874,-0.9116801688100074,0.7845889113353031,0.9683654386003167,-0.24904303248302234,0.0020791600300232665,-0.015544207591451788
1752650077.449486,0.9085968176471156,-1.185613827114441,1.3251551389694214,-1.2626626056483763,-1.5663664976703089,-2.8838442007647918,0.009663064032793,0.0097271306440234,0.0795020833611488,0.0387055315077304,0.0505845844745636,0.0704068765044212,-0.04849741441421597,-0.911709148802882,0.7845980632686766,0.9683635524802436,-0.24904835646078258,0.0021204240364383455,-0.015570811601552518
1752650077.4515502,0.9086959997760218,-1.1855567556670683,1.3253319263458252,-1.2625817221454163,-1.5663283506976526,-2.883714024220602,0.0092900125309824,0.0104046780616045,0.0806338116526603,0.0398345291614532,0.0515148006379604,0.0726092681288719,-0.04833880209906986,-0.9117462512936639,0.7844714960287726,0.9683673821097135,-0.2490258604980761,0.002136364931444107,-0.01568980605528647
1752650077.4538136,0.9086797873126428,-1.1855729979327698,1.325470805168152,-1.2625095409205933,-1.5661628882037562,-2.883512083684103,0.0104720871895551,0.0106977634131908,0.0823549330234527,0.0412658005952835,0.0533820614218711,0.0755317062139511,-0.048188841438976164,-0.9117391430467569,0.7844885526886326,0.9683587111195645,-0.2490575699621306,0.0022162830255493308,-0.015710554826765723
1752650077.4559536,0.9087231794940394,-1.1855982703021546,1.3257129192352295,-1.2624046963504334,-1.5660222212420862,-2.883387629185812,0.0103487940505146,0.0104408441111445,0.0833363085985183,0.0418148078024387,0.0550997331738472,0.0738964527845382,-0.04794580819850029,-0.9117292435207832,0.7844702068958357,0.9683719533726647,-0.24900153056647656,0.0022833209888748623,-0.015772892633363924
1752650077.45804,0.9086640516864222,-1.1855255228332062,1.325788974761963,-1.262327567940094,-1.565972153340475,-2.8832455317126677,0.0105654764920473,0.0108345430344343,0.0864678472280502,0.0425924733281135,0.0555037334561347,0.0767774656414985,-0.04787869306247926,-0.911765851533511,0.7844354608011903,0.96836285345698,-0.24903380178121065,0.0023063264176176033,-0.0158186748341164
1752650077.4624326,0.9087532202350062,-1.1854459804347537,1.3264294862747192,-1.2620920103839417,-1.5656245390521448,-2.882778231297628,0.0116650089621543,0.0116271264851093,0.0910088792443275,0.0450818128883838,0.0576601698994636,0.0788016468286514,-0.04726091308275898,-0.9118283376093879,0.784277660643733,0.9683800695121962,-0.24895219321356038,0.0024698761322492187,-0.01602330108321638
1752650077.463562,0.9087532202350062,-1.1854459804347537,1.3264294862747192,-1.2620920103839417,-1.5656245390521448,-2.882778231297628,0.0116650089621543,0.0116271264851093,0.0910088792443275,0.0450818128883838,0.0576601698994636,0.0788016468286514,-0.04726091308275898,-0.9118283376093879,0.784277660643733,0.9683800695121962,-0.24895219321356038,0.0024698761322492187,-0.01602330108321638
1752650077.465511,0.9087603727923792,-1.1854384404471894,1.326579213142395,-1.261951462631561,-1.5654709974872034,-2.882577721272604,0.0119807599112391,0.0114643014967441,0.0918295457959175,0.0459747500717639,0.0589245818555355,0.0791159123182296,-0.047104096934146626,-0.9118279869892538,0.7842499243986372,0.968371989337188,-0.24897781180233863,0.0025432511871068134,-0.016101905808176168
1752650077.467833,0.9088342825519008,-1.1854141515544434,1.326754450798035,-1.261865035896637,-1.5654075781451624,-2.8824642340289515,0.0120882242918014,0.0118824020028114,0.0932356640696525,0.0463308729231357,0.0610381923615932,0.0822362601757049,-0.04693880444015073,-0.9118447089452015,0.7841689564183145,0.9683779629831765,-0.2489482559980467,0.0025719309628651683,-0.016194808279416644
1752650077.469489,0.9088433424579064,-1.18538589895282,1.3269473314285278,-1.2617349189570923,-1.565263573323385,-2.882254425679342,0.0125675061717629,0.0123052196577191,0.0948554128408432,0.0462118610739707,0.0629627257585525,0.0836094692349433,-0.04674705288021763,-0.911859459671679,0.7841226019688851,0.9683740030842025,-0.24895741753596148,0.0026400087641424777,-0.016279581021238318
1752650077.4717505,0.9088252226458948,-1.1853501063636322,1.3271135091781616,-1.2616838377765198,-1.5651443640338345,-2.8821030298816126,0.0125438580289483,0.0123644834384322,0.0960065275430679,0.0477318428456783,0.0604961216449737,0.0841263383626937,-0.04658561032719005,-0.9118849347160137,0.7840967427575968,0.9683748743724452,-0.24895111219066907,0.002696745205636557,-0.016314839517321846
1752650077.473419,0.9089534918414516,-1.185330705051758,1.327314853668213,-1.2615507704070588,-1.5650165716754358,-2.881928030644552,0.0128319691866636,0.0126948589459061,0.0970096960663795,0.048355896025896,0.0645436495542526,0.0884653776884079,-0.04638761236822046,-0.9118981307910097,0.7839786043333424,0.9683753920946035,-0.24893914003744555,0.0027564182593011657,-0.01645620555959708
1752650077.4780924,0.9090059439288538,-1.1852810245803376,1.3275437355041504,-1.2614630919745942,-1.56486684480776,-2.881790224705832,0.0131687326356768,0.0129035925492644,0.0986048653721809,0.0484884642064571,0.064820684492588,0.0858981609344482,-0.04616708185378802,-0.9119335756633925,0.783889094067842,0.968384623933241,-0.2488960621566008,0.002827461685789191,-0.016552215351083255
1752650077.4796426,0.9089954535113732,-1.1852542918971558,1.3279304504394531,-1.2613017123988648,-1.5646289030658167,-2.8814147154437464,0.0137995965778827,0.0131474044173955,0.1014767885208129,0.0504124797880649,0.0659934058785438,0.0916818678379058,-0.04578661709944494,-0.9119544570706224,0.7838535808918113,0.9683836869565469,-0.24889235033286503,0.0029393297316027754,-0.016643110375042562
1752650077.4817338,0.9089787642108362,-1.1852467519095915,1.3281102180480957,-1.2611432832530518,-1.5645011107074185,-2.8811853567706507,0.0135666634887456,0.0134378978982567,0.1025942414999008,0.0509780831634998,0.0671959966421127,0.0899937227368354,-0.0456045838321775,-0.9119515686761192,0.783839665498389,0.9683757957517123,-0.24891725875740286,0.002999144508398893,-0.01671890029744559
1752650077.4835987,0.9090269247638147,-1.1852343541434784,1.3283476829528809,-1.2610982817462464,-1.5643489996539517,-2.8809428850757044,0.0144161116331815,0.013166569173336,0.1048555076122284,0.0500247329473495,0.0675817430019378,0.0913049280643463,-0.045371719901967644,-0.9119702820333925,0.7837913888084131,0.9683737250496325,-0.2489207973651715,0.003070690753822475,-0.016773077561393773
1752650077.4855504,0.9090717474566858,-1.1851734679988404,1.3285348415374756,-1.260923371916153,-1.5642054716693323,-2.880796019230978,0.0141913350671529,0.0136319855228066,0.1056976392865181,0.0528321228921413,0.067371554672718,0.0916120037436485,-0.04518892898923,-0.9119994928969484,0.7836868249690119,0.9683758140392177,-0.2489022543091896,0.0031383320148414347,-0.016914533864414497
1752650077.4875734,0.9091008345233362,-1.1851910513690491,1.3287934064865112,-1.2608156961253665,-1.564117733632223,-2.880580727254049,0.0149522153660655,0.0134800467640161,0.1074113026261329,0.0517392754554748,0.0681070685386657,0.0935806408524513,-0.04493778397683241,-0.9119917015884448,0.7836708133380655,0.9683798481804611,-0.24888192506268503,0.003177615313933946,-0.01697526954118926
1752650077.4897263,0.9091532866107386,-1.185105876331665,1.328987717628479,-1.2607858341983338,-1.563887898121969,-2.8803935686694544,0.0150327552109956,0.0137936417013406,0.1089751943945884,0.0502990595996379,0.0695310980081558,0.0951408147811889,-0.044746444311125434,-0.9120549938664353,0.7835562824913007,0.9683784259286558,-0.24888017680309954,0.00328845603645955,-0.017060710632715134
1752650077.4920847,0.9091680685626428,-1.1850789350322266,1.3291754722595217,-1.260646180515625,-1.5638259092914026,-2.880213801060812,0.0153584005311131,0.0136131700128316,0.1105413138866424,0.0520553551614284,0.0706459060311317,0.0948986411094665,-0.044568168044292006,-0.9120650340911345,0.7835061740365146,0.9683776060531376,-0.24887671474278264,0.0033154079696495636,-0.017152289165841172
1752650077.4945407,0.9091971556292932,-1.1850789350322266,1.3294155597686768,-1.2605011624148863,-1.5636780897723597,-2.88003117242922,0.0151867866516113,0.0138422260060906,0.111729510128498,0.0549673698842525,0.0714679211378097,0.0931927934288978,-0.04432852754867613,-0.9120638408309709,0.783470141518781,0.9683826647088201,-0.24884998265882616,0.0033847938155065244,-0.01724076544047347
1752650077.4960358,0.9092071692096156,-1.185006932621338,1.3295820951461792,-1.260482774381973,-1.563554588948385,-2.8798349539386194,0.0159539878368377,0.0139685329049825,0.1127629429101944,0.0544602237641811,0.0721291452646255,0.1010288000106811,-0.04417258109862794,-0.912114981481798,0.7833969186586756,0.9683776091780661,-0.24886528959656998,0.0034428856331985944,-0.01729220099075918
1752650077.497766,0.9092643896686,-1.1849936705878754,1.3298548460006714,-1.260290042763092,-1.5633857885943812,-2.879629675542013,0.0164403934031724,0.0144653115421533,0.1144127622246742,0.0527903102338314,0.0733276754617691,0.0965190082788467,-0.04390153301664245,-0.9121188237472766,0.7833247781433896,0.9683830133581237,-0.24883385876518938,0.003521743392112859,-0.01742548406632746
1752650077.4996564,0.9092839399920862,-1.184957967405655,1.3300799131393433,-1.2602321666530152,-1.5632088820086878,-2.879420344029562,0.0165393054485321,0.0142108779400587,0.1150178238749504,0.0554373525083065,0.0741186067461967,0.1022902876138687,-0.04367984903509758,-0.9121483782618308,0.7832732218750764,0.9683832597501087,-0.24882760952547495,0.0036057823241645447,-0.017483744090492092
1752650077.501654,0.9092734495746058,-1.1849711698344727,1.3302907943725586,-1.2600402993014832,-1.563120190297262,-2.879245106373922,0.0168465934693813,0.0145933553576469,0.1173141002655029,0.0554146654903888,0.0773914083838462,0.0992162898182869,-0.04346995774227437,-0.9121294663810667,0.7832699171654541,0.9683858334165454,-0.2488110050531968,0.003645819233278967,-0.017568989859385774
1752650077.503606,0.9093440214740198,-1.1849261087230225,1.3304818868637085,-1.2599906486323853,-1.5629833380328575,-2.8790250460254114,0.0165682714432477,0.0142350578680634,0.1175395399332046,0.0560181774199008,0.0748260393738746,0.1022252216935157,-0.04328578710599579,-0.9121644971938933,0.7831769346772073,0.9683801879315802,-0.2488260782014156,0.003709693284620106,-0.01765311882456926
1752650077.5055084,0.9094346205340784,-1.184870259170868,1.3307256698608398,-1.2598924797824402,-1.562770191823141,-2.8787763754474085,0.017456317320466,0.0143253169953823,0.1203180626034736,0.0574073456227779,0.076972372829914,0.1035448014736175,-0.04304521956244166,-0.9122051656371567,0.7830554139168179,0.9683764886587888,-0.24883009510834125,0.003810496027646932,-0.01777751673524782
1752650077.50749,0.9094045797931116,-1.1848376554301758,1.330991506576538,-1.2597936552814026,-1.562648121510641,-2.8785651365863245,0.0177252180874347,0.0141818467527627,0.1202981993556022,0.0584827661514282,0.0806656256318092,0.1047485470771789,-0.04279048468216439,-0.9122264336584822,0.7830348754914009,0.968381849521879,-0.2488046223474263,0.0038666841273653635,-0.017829811244056925
1752650077.5094852,0.909431282673971,-1.1848271650126954,1.331241011619568,-1.259610728626587,-1.5625255743609827,-2.878373924885885,0.0189983434975147,0.0148783288896083,0.121392011642456,0.060557298362255,0.0771116092801094,0.1052369400858879,-0.0425454828486051,-0.9122260551892877,0.7829866669044714,0.9683865715005914,-0.24877734239118457,0.003922704151538507,-0.01794141695209289
1752650077.5114653,0.9095066229449672,-1.1847612422755738,1.3314265012741089,-1.2595238250545044,-1.5623281637774866,-2.878146235142843,0.0178376100957393,0.0147864818572998,0.1226782277226448,0.059053461998701,0.0798875391483306,0.1059580668807029,-0.042361466248257686,-0.9122702980284975,0.7828675810948797,0.9683783790426346,-0.24879934160849107,0.004016297345956482,-0.018057463098946312
1752650077.5135005,0.9095457235919396,-1.184741811161377,1.3316997289657593,-1.259350375538208,-1.5621841589557093,-2.8779307047473357,0.0174031406641006,0.0154142081737518,0.1238278672099113,0.0618792958557605,0.0803797468543052,0.1077730059623718,-0.04209403119818454,-0.912278140422637,0.7828042387635475,0.9683827820840933,-0.24877254694857454,0.004082435660638195,-0.018175284505818075
1752650077.5157397,0.9095361868487756,-1.1847224992564698,1.331963300704956,-1.2592546206763764,-1.5620206038104456,-2.877740446721212,0.0183766074478626,0.0156182926148176,0.1253640055656433,0.0610046572983264,0.0808272659778595,0.10755655169487,-0.04183499591346268,-0.9122934561140235,0.7827823791210564,0.9683902026128102,-0.24873838209619084,0.0041594042257775705,-0.018229978392103195
1752650077.5178838,0.9095891157733362,-1.184703068142273,1.3321750164031982,-1.259157494907715,-1.5618532339679163,-2.8774786631213587,0.0189634766429662,0.0156985241919755,0.1266583949327469,0.0618160739541053,0.0811516568064689,0.1108375415205955,-0.041623318244034854,-0.9123086446737552,0.7827186872209683,0.9683816484389491,-0.2487639887033031,0.004237664886337561,-0.018316743362225673
1752650077.519447,0.9096301237689416,-1.1846460861018675,1.3324429988861084,-1.2589931052974244,-1.561672512684957,-2.87727934518923,0.0187281258404254,0.0153110194951295,0.1285523176193237,0.0628740042448043,0.0809172764420509,0.108159564435482,-0.04136210957615975,-0.9123401412462186,0.7826215240045715,0.9683869053199001,-0.24873222021772942,0.004322008739513681,-0.01845005341351593
1752650077.5221908,0.909663979207174,-1.184638575916626,1.3326789140701294,-1.2588659685901185,-1.5615208784686487,-2.8770445028888147,0.0192573219537735,0.0159093178808689,0.1309565305709839,0.0664416253566742,0.0854723080992698,0.1126053854823112,-0.041127416555609524,-0.9123446347457468,0.7825777418799023,0.9683847527363273,-0.24873295680169696,0.0043923424369819416,-0.018536294030995455
1752650077.524683,0.9096811453448694,-1.1845992368510745,1.332951545715332,-1.2587745946696778,-1.5613654295550743,-2.8768003622638147,0.0189702436327934,0.0161647237837314,0.1309506148099899,0.0620989054441452,0.0830682069063186,0.1127089112997055,-0.04086418982038136,-0.9123729331487807,0.7825206771642588,0.9683861742602159,-0.24872045946683882,0.004464253658358984,-0.018612387905408548
1752650077.525751,0.9096811453448694,-1.1845992368510745,1.332951545715332,-1.2587745946696778,-1.5613654295550743,-2.8768003622638147,0.0189702436327934,0.0161647237837314,0.1309506148099899,0.0620989054441452,0.0830682069063186,0.1127089112997055,-0.04086418982038136,-0.9123729331487807,0.7825206771642588,0.9683861742602159,-0.24872045946683882,0.004464253658358984,-0.018612387905408548
1752650077.5279808,0.9096892515765588,-1.1845270556262513,1.3334965705871582,-1.2585026186755677,-1.5610416571246546,-2.876349751149313,0.0196209046989679,0.016904629766941,0.1350874453783035,0.0655801892280578,0.0866960361599922,0.1159281581640243,-0.0403327889006222,-0.9124144734427567,0.7824195542294075,0.9683930225633907,-0.24867747614540134,0.00461435211312763,-0.018792936520667637
1752650077.5327902,0.9098222891436976,-1.184494928722717,1.333713173866272,-1.2583955091289063,-1.5608294645892542,-2.87611443201174,0.0195577386766672,0.0164568722248077,0.1366323679685592,0.0653460919857025,0.086771048605442,0.116752453148365,-0.04011368235428589,-0.9124396097093905,0.7822901065439011,0.9683870478709724,-0.24868835348463583,0.004714226212835268,-0.0189315722553083
1752650077.536653,0.9098728338824672,-1.1844020646861573,1.3343214988708496,-1.2581020158580325,-1.5604990164386194,-2.8755906263934534,0.0199519805610179,0.0161522962152957,0.1402521282434463,0.0667213723063469,0.0894234851002693,0.1215165108442306,-0.039526347186899076,-0.9124943275705614,0.7821397693068628,0.9683916772178552,-0.2486502990998231,0.004865438021298926,-0.01915504543504967
1752650077.536993,0.9099696318255824,-1.1843753320029755,1.3348519802093506,-1.2578856509974976,-1.5601637999164026,-2.8751097361194056,0.0196716580539941,0.0166276022791862,0.1421399414539337,0.0676887109875679,0.0908668413758277,0.1216269135475158,-0.03900270086936832,-0.9125176670256794,0.7820268556040029,0.9683928184869912,-0.24862923232157677,0.005020695455920906,-0.019329939346612365
1752650077.539252,0.9099696318255824,-1.1843753320029755,1.3348519802093506,-1.2578856509974976,-1.5601637999164026,-2.8751097361194056,0.0196716580539941,0.0166276022791862,0.1421399414539337,0.0676887109875679,0.0908668413758277,0.1216269135475158,-0.03900270086936832,-0.9125176670256794,0.7820268556040029,0.9683928184869912,-0.24862923232157677,0.005020695455920906,-0.019329939346612365
1752650077.5405886,0.9099739233600062,-1.1843106907657166,1.335059404373169,-1.25768335283313,-1.5599468390094202,-2.8748346010791224,0.0199681650847196,0.0169438775628805,0.1437030881643295,0.0690677314996719,0.0909583196043968,0.1218454241752624,-0.038792228896841495,-0.9125457690350468,0.7819430129088827,0.9683805965569753,-0.24866395661837795,0.005122360127353957,-0.019468392783577988
1752650077.5436263,0.9100506941424767,-1.184332088833191,1.3353735208511353,-1.2575727862170716,-1.559763256703512,-2.8745952288257044,0.0204224996268749,0.0176299475133419,0.1451864540576934,0.069498486816883,0.0922472476959228,0.1231802403926849,-0.03847925777607396,-0.9125398937599585,0.7818986020214531,0.9683872852330908,-0.24862940744227213,0.005207414971078379,-0.01955419093463218
1752650077.544537,0.9101060072528284,-1.1842525762370606,1.3359699249267578,-1.2572597426227112,-1.5594561735736292,-2.874115530644552,0.0201174672693014,0.0179513748735189,0.1482827067375183,0.0713711380958557,0.094863474369049,0.1261613219976425,-0.037902935977093474,-0.9125824338563182,0.781754865200763,0.9683956543327643,-0.2485757208724215,0.005346703187118424,-0.019783337109857035
1752650077.545715,0.9101060072528284,-1.1842525762370606,1.3359699249267578,-1.2572597426227112,-1.5594561735736292,-2.874115530644552,0.0201174672693014,0.0179513748735189,0.1482827067375183,0.0713711380958557,0.094863474369049,0.1261613219976425,-0.037902935977093474,-0.9125824338563182,0.781754865200763,0.9683956543327643,-0.2485757208724215,0.005346703187118424,-0.019783337109857035
1752650077.5488043,0.9100878874408168,-1.1841717523387452,1.3362959623336792,-1.2571044725230711,-1.5592144171344202,-2.873856608067648,0.0202877093106508,0.0183746088296175,0.1500887274742126,0.0720849186182022,0.0951911732554435,0.1288389414548874,-0.037584770996243536,-0.9126296568490362,0.7816769160222593,0.9684004914287476,-0.24854543403728488,0.005459929935069316,-0.01989584340714801
1752650077.5498786,0.9102204481707972,-1.1841761630824583,1.3365468978881836,-1.2569653552821656,-1.5590079466449185,-2.8736003080951136,0.0200565047562122,0.0182141661643981,0.1514197587966919,0.0723510757088661,0.0997848212718963,0.1301227360963821,-0.0373288558719954,-0.9126299885554618,0.7815769353867769,0.9683959650707183,-0.24854996483569078,0.005555812920932191,-0.020032542467613563
1752650077.5517137,0.9102204481707972,-1.1841761630824583,1.3365468978881836,-1.2569653552821656,-1.5590079466449185,-2.8736003080951136,0.0200565047562122,0.0182141661643981,0.1514197587966919,0.0723510757088661,0.0997848212718963,0.1301227360963821,-0.0373288558719954,-0.9126299885554618,0.7815769353867769,0.9683959650707183,-0.24854996483569078,0.005555812920932191,-0.020032542467613563
1752650077.556236,0.9103029409991664,-1.1840604108623047,1.3374866247177124,-1.25655950725589,-1.5584443251239222,-2.8727949301349085,0.0198931246995925,0.0188127476722002,0.1555622816085815,0.0741974562406539,0.0982441678643226,0.1365779042243957,-0.03641265331900722,-0.9127023319827342,0.7813723832770247,0.9684032759875524,-0.24849023178674975,0.005814641715080187,-0.020344279413858905
1752650077.5580862,0.9103630224811,-1.184008316402771,1.3377984762191772,-1.2564445298961182,-1.5582488218890589,-2.872529808674948,0.020252326503396,0.0191449243575334,0.1565354615449905,0.0782381743192672,0.1012583374977111,0.1350253820419311,-0.036110322465193925,-0.9127377272699565,0.7812727721837653,0.9684055912796906,-0.24846948762410842,0.005904424503175169,-0.020461238216000637
1752650077.560179,0.9104221502887172,-1.183946744804718,1.338135838508606,-1.2562224131873627,-1.558021370564596,-2.872256104146139,0.020559549331665,0.0192345213145017,0.1586335301399231,0.0749768018722534,0.1033412665128707,0.1364031732082367,-0.035779369074040904,-0.9127676386684725,0.7811530364821812,0.9684085620084105,-0.2484409176740275,0.006008688854368802,-0.020636451059739193
1752650077.5620694,0.9104068914996546,-1.1839229327491303,1.3384480476379397,-1.2560882729342957,-1.5578706900226038,-2.871995274220602,0.0211727172136306,0.019345773383975,0.1605313867330551,0.0771940499544143,0.1044709160923957,0.1374074667692184,-0.03547673402319975,-0.9127803976087757,0.781126646898352,0.9684125559259166,-0.2484174994113638,0.006076747937077807,-0.020710882302497333
1752650077.5649664,0.9103978315936488,-1.1839080911925812,1.3387277126312256,-1.255923555498459,-1.5576179663287562,-2.871708218251364,0.0206847041845321,0.0197562016546726,0.1625966131687164,0.0783838778734207,0.1043645963072776,0.1377069503068924,-0.035190182825045074,-0.9127859955280211,0.7811008214117346,0.9684083493580182,-0.2484235012846296,0.00619556613670755,-0.020800189023422903
1752650077.567865,0.9104989210711878,-1.1838404697230835,1.3393943309783936,-1.2555881601623078,-1.5572102705584925,-2.8711703459369105,0.020412553101778,0.0201514493674039,0.1645674556493759,0.0791163221001625,0.106398157775402,0.143056035041809,-0.03453618796069717,-0.9128232845016356,0.7809350575266325,0.9684164666616343,-0.24836526244301313,0.006381847967683341,-0.021059808325963603
1752650077.5698223,0.9104998747455042,-1.1837594670108338,1.3396941423416138,-1.2554447811893006,-1.557002846394674,-2.87087852159609,0.0209126230329275,0.0205144546926021,0.1660151183605194,0.0788095667958259,0.1100065931677818,0.1421759575605392,-0.034246138283469056,-0.9128695504843879,0.7808456730322145,0.968413748545555,-0.24836348713517553,0.006477037601481262,-0.021176351666684003
1752650077.5730317,0.9105990568744105,-1.1837075513652344,1.3400630950927734,-1.25530959785495,-1.5568073431598108,-2.870549265538351,0.0210056956857442,0.0210691355168819,0.1676965504884719,0.0778414234519004,0.1084781885147094,0.1446868181228637,-0.03389126377662478,-0.9129048442723988,0.7807179534695564,0.9684143333664034,-0.24834630908121022,0.006564447263549372,-0.02132364247422784
1752650077.5736694,0.9106553236590784,-1.1837207835963746,1.340395212173462,-1.2551288467696686,-1.5565961042987269,-2.8703036944018763,0.021562211215496,0.0211626980453729,0.1687998324632644,0.0827254652976989,0.1094613596796989,0.1445075869560241,-0.033557696968009365,-0.9128943585722795,0.7806719869585037,0.9684213031160311,-0.24830656508877608,0.006661555468523332,-0.021439521533870482
1752650077.5756955,0.9106577078448694,-1.1836562913707276,1.3407443761825562,-1.2549400490573426,-1.5564001242267054,-2.869962278996603,0.0208516623824834,0.0214005373418331,0.1712549030780792,0.0795976594090461,0.1108791977167129,0.1462797671556472,-0.03322031821680851,-0.9129266447915141,0.7805912469640337,0.9684181947782784,-0.24830487434340517,0.006749420250313751,-0.02157161852923444
1752650077.5777695,0.9107025305377404,-1.1836086076549073,1.3410993814468384,-1.2548130315593262,-1.5561397711383265,-2.8697362581836146,0.0204214062541723,0.0216688308864831,0.1733568012714386,0.0823821648955345,0.1116925403475761,0.1473574340343475,-0.03287001066351246,-0.9129595403324352,0.7805045550603336,0.9684301149672062,-0.24824507970846849,0.006870937606584667,-0.02168601027266617
1752650077.5797646,0.9107888380633752,-1.1835560363582154,1.3414571285247805,-1.254608468418457,-1.55593711534609,-2.869445864354269,0.0208305139094591,0.0220160726457834,0.1742851883172989,0.0850991159677505,0.1124574989080429,0.1485720574855804,-0.03252255281554784,-0.9129858260326545,0.7803769076301666,0.9684332955174858,-0.24821470896906087,0.00696148640774338,-0.021862023958023922
1752650077.5824988,0.9108369986163538,-1.1835158628276368,1.3418241739273071,-1.2545032066157835,-1.555713001881735,-2.869157854710714,0.0216668806970119,0.0224051531404256,0.1753553450107574,0.0835487619042396,0.1125834658741951,0.1516098976135254,-0.032164926120394864,-0.913016152721145,0.7802971822327494,0.9684394666116964,-0.2481787713418957,0.007064208047045361,-0.021963468049195096
1752650077.5843458,0.9108637014972132,-1.1834809345057984,1.3421220779418943,-1.2543522876552125,-1.5555055777179163,-2.868857208882467,0.0215421058237552,0.022681538015604,0.1758211404085159,0.0860586240887641,0.1142087802290916,0.1494777351617813,-0.03187017406142892,-0.9130345413728326,0.7802311749578518,0.9684353507703727,-0.24818230499652724,0.007158936024421172,-0.02207406849391712
1752650077.5857675,0.9108713308917444,-1.1833994549563904,1.342515230178833,-1.2541112762740632,-1.5552852789508265,-2.8685787359820765,0.0206680912524461,0.0229883100837469,0.1773177087306976,0.0864894986152648,0.1136338859796524,0.1526720076799392,-0.03149067921673008,-0.9130720757756828,0.7801258274421597,0.9684443255160498,-0.2481292419645182,0.0072578967772910525,-0.02224388887419063
1752650077.5881534,0.9109237829791468,-1.1833604139140623,1.3428210020065308,-1.2539841395667572,-1.5550254026996058,-2.868249479924337,0.0202110446989536,0.0235314033925533,0.1782946288585662,0.0866413190960884,0.1174217537045478,0.1553667783737182,-0.031184160981207996,-0.9130978865592579,0.7800418503598409,0.9684371588368066,-0.2481433751903384,0.007378205373783937,-0.022358372452019184
1752650077.590314,0.9109962622271937,-1.1833617252162476,1.3432230949401855,-1.2538170677474518,-1.554800335560934,-2.867962900792257,0.0206775162369012,0.023756580427289,0.1797551959753036,0.0880448371171951,0.1153321787714958,0.1572455912828445,-0.030787217503980998,-0.9130979659613865,0.7799761040453492,0.968447201293807,-0.24808990348541868,0.007480215790913303,-0.022482536923340336
1752650077.5921726,0.9109538237201136,-1.1833254855922242,1.3435550928115845,-1.2536669236472626,-1.5545743147479456,-2.867598358784811,0.0209330189973115,0.0240083299577236,0.181617721915245,0.0903081223368644,0.1202607452869415,0.1600532680749893,-0.030458879146280246,-0.9131161124909566,0.7799550656785873,0.9684399551363383,-0.2481080449077542,0.007583638698499156,-0.022559693518963544
1752650077.5947297,0.9110520521747034,-1.1832369726947327,1.343894124031067,-1.2534529131701966,-1.5543015638934534,-2.867349449788229,0.0213118679821491,0.0238493494689464,0.1833289861679077,0.088515356183052,0.118721142411232,0.1574980914592743,-0.030125109141898945,-0.9131628889530866,0.7797864087686543,0.9684445244462578,-0.2480675692419777,0.0077085272820768,-0.02276538529389793
1752650077.5957594,0.911133114491598,-1.1832250815681,1.344298005104065,-1.2532734733871005,-1.554103199635641,-2.8669703642474573,0.0214576441794633,0.0243591647595167,0.1851013451814651,0.0890116468071937,0.1203009262681007,0.1608283668756485,-0.029731044200418312,-0.9131683370185831,0.7797016905757593,0.9684429780543115,-0.24805786424229243,0.0077954379771300614,-0.022906885244257352
1752650077.6009076,0.911086384450094,-1.1831951898387452,1.3446580171585083,-1.25307451308284,-1.553826634083883,-2.866741959248678,0.0210904721170663,0.0246774982661008,0.1866985410451889,0.0890352576971054,0.1219833120703697,0.1605242490768432,-0.02936913315428627,-0.9131786060153445,0.7796837413556942,0.9684551941970838,-0.2479971257078861,0.00792466548100669,-0.023003524737087725
1752650077.6012795,0.911086384450094,-1.1831951898387452,1.3446580171585083,-1.25307451308284,-1.553826634083883,-2.866741959248678,0.0210904721170663,0.0246774982661008,0.1866985410451889,0.0890352576971054,0.1219833120703697,0.1605242490768432,-0.02936913315428627,-0.9131786060153445,0.7796837413556942,0.9684551941970838,-0.2479971257078861,0.00792466548100669,-0.023003524737087725
1752650077.6015248,0.91124135652651,-1.1830335420421143,1.3454638719558716,-1.2527465683272858,-1.55333120027651,-2.8660879770862024,0.0201728884130716,0.0256233066320419,0.1892835944890976,0.0922489389777183,0.1220112890005111,0.1643348336219787,-0.02859075982336318,-0.9132750800450402,0.7793992585075571,0.968462690597303,-0.2479294201624175,0.008147293147003744,-0.023337548143211442
1752650077.6036232,0.9112322966205042,-1.182985858326294,1.345840573310852,-1.2525307101062315,-1.5530627409564417,-2.8656984011279505,0.0206676051020622,0.0262525770813226,0.1892692446708679,0.0891301184892654,0.1220498010516166,0.1667033284902572,-0.02821666726889432,-0.9132946747003575,0.7793384038780098,0.9684560431876796,-0.2479387306585907,0.008269231232010187,-0.02347121785296825
1752650077.605611,0.9112709204303188,-1.1829286974719544,1.3462389707565308,-1.2523876291564484,-1.5528276602374476,-2.865399185811178,0.0208045542240142,0.0265055671334266,0.1906146258115768,0.0913412347435951,0.1262003481388092,0.1675116419792175,-0.027830111729682423,-0.9133294887210637,0.779245610572516,0.9684636809694159,-0.2478934410804664,0.00837540195753953,-0.0235964648730343
1752650077.6076434,0.9113405386554164,-1.1828686159900208,1.3465977907180786,-1.2521672707847138,-1.5526087919818323,-2.865084711705343,0.0205550342798233,0.0265815276652574,0.19268599152565,0.0906219705939292,0.1238246783614158,0.1697532385587692,-0.027480027975669924,-0.9133560737422108,0.7791207399703375,0.9684632131545357,-0.2478747246697543,0.008472207562933489,-0.02377703377834574
1752650077.6095338,0.9113929907428188,-1.182825581436493,1.3469858169555664,-1.2520367366126557,-1.552327934895651,-2.864704434071676,0.0206321533769369,0.0269861072301864,0.1936990916728973,0.0918928310275077,0.1247968301177024,0.1675897389650344,-0.027096256416782122,-0.9133851290318913,0.7790329728181371,0.9684592650938517,-0.24787420734396307,0.008600385546591684,-0.023896915196916838
1752650077.611642,0.9114034811602992,-1.182765231733658,1.3474098443984983,-1.251873866920807,-1.552089039479391,-2.8643556276904505,0.0210100468248128,0.0276089161634445,0.1951003521680832,0.093568667769432,0.1275499314069748,0.1698619574308395,-0.026685478675360592,-0.9134188662213746,0.7789538065325345,0.9684638558756135,-0.24784061817267966,0.008707346404023668,-0.02402019910248991
1752650077.6135454,0.9114821592914026,-1.1827504199794312,1.347800850868225,-1.251661406164505,-1.5518372694598597,-2.864066187535421,0.0204079244285821,0.027991522103548,0.1966761946678161,0.0944131538271904,0.1290317922830581,0.1735170185565948,-0.026296480010039543,-0.9134214672395325,0.7788645192218047,0.9684706569866138,-0.24779454348444152,0.00882076786466722,-0.02417942988433363
1752650077.6158133,0.9115060011493128,-1.18268574893985,1.3481924533843994,-1.251463101511337,-1.551577393208639,-2.863661114369528,0.019902205094695,0.0282885208725929,0.1979995965957641,0.0961273089051246,0.1308521777391433,0.1722533404827118,-0.025912605222278028,-0.9134532298642196,0.7787686309372925,0.96846334069827,-0.24780425420490643,0.008936983230712762,-0.02432980995056691
1752650077.617706,0.9116204420672815,-1.182642624979355,1.3486331701278689,-1.2513066989234467,-1.5512855688678189,-2.8633907477008265,0.0203704331070184,0.0284487325698137,0.1993142515420913,0.0967576429247856,0.1318335235118866,0.1747051328420639,-0.025479115834537172,-0.9134820466836719,0.7786367037254411,0.9684781534627963,-0.24772536257888214,0.009069705654150486,-0.024493906176862392
1752650077.619431,0.9115474859820764,-1.182529256944992,1.3490124940872192,-1.2510985893062134,-1.551009480153219,-2.86305290857424,0.0206269808113574,0.0288503766059875,0.2011208087205886,0.0967257693409919,0.131545677781105,0.1798001676797866,-0.025110052636485546,-0.9135378732121344,0.7785604441268598,0.9684779211818945,-0.24770862247804315,0.009195310110218222,-0.024625206703770112
1752650077.6221137,0.9116376082049767,-1.182485268717148,1.349481463432312,-1.2508921188167117,-1.5507929960833948,-2.862675015126364,0.019998574629426,0.0288655217736959,0.202043741941452,0.0986655950546264,0.1318303346633911,0.1783773154020309,-0.024657862462190303,-0.9135588406354227,0.7784380558594362,0.9684830511704768,-0.24766742698792465,0.009288098829057184,-0.024802347164050748
1752650077.6237922,0.9116743246661584,-1.1824377340129395,1.3498897552490234,-1.250658707027771,-1.5505312124835413,-2.8622513453113,0.0202977154403924,0.029055954888463,0.2022779136896133,0.0957483723759651,0.1347710490226745,0.1798697710037231,-0.02425532265119774,-0.9135765146237206,0.7783450378510888,0.9684748914624152,-0.24767824925540022,0.009403893705193468,-0.024968705129110327
1752650077.625662,0.9116676489459437,-1.1823455852321167,1.350273370742798,-1.2504585546306153,-1.550288502370016,-2.861945931111471,0.0204664785414934,0.0303546600043773,0.2039553374052047,0.100504882633686,0.1341221630573272,0.1812237650156021,-0.023883913714558988,-0.9136216127538918,0.7782446161398036,0.9684788480328238,-0.24764352073110885,0.00951229481376237,-0.025118196597118423
1752650077.6276166,0.9117496649371546,-1.1823266309550782,1.3506817817687988,-1.2503413718989869,-1.549983326588766,-2.861556355153219,0.0207410752773284,0.0315922498703002,0.2050847858190536,0.0976341515779495,0.1341174989938736,0.1806337088346481,-0.023475971765022162,-0.9136385897740913,0.7781604935735866,0.9684758056814639,-0.2476381082057521,0.009651442912785881,-0.02523550719951623
1752650077.629493,0.9117825667010706,-1.1822339457324524,1.3511375188827517,-1.2501001220992585,-1.5497029463397425,-2.861217800770895,0.0192318204790353,0.031135618686676,0.2065163254737854,0.0989632159471511,0.1380461454391479,0.1815439015626907,-0.023033561185312516,-0.9136825464352104,0.7780287249224542,0.9684830998989671,-0.2475851250931812,0.009775881653691197,-0.025426820103469656
1752650077.6315856,0.9118617216693324,-1.1822235149196167,1.35153329372406,-1.2499420207789915,-1.5494816938983362,-2.8608678022967737,0.0192659236490726,0.0302949603646993,0.2083565145730972,0.1001424714922905,0.1367029249668121,0.1841265112161636,-0.022644455561802414,-0.913686754918796,0.7779493129564758,0.9684835950541714,-0.24756586740448208,0.009873096418416006,-0.025557569804792443
1752650077.6335468,0.9118812719928188,-1.1821172398379822,1.3519726991653442,-1.2497006815722962,-1.5491474310504358,-2.8604636828051966,0.0153751373291015,0.03060850687325,0.2101367861032486,0.1001760736107826,0.1376537680625915,0.1847937703132629,-0.02221245345924068,-0.9137387952978956,0.7778143902457553,0.9684801825945759,-0.24755319835165523,0.010023538888034166,-0.025750312145740348
1752650077.635533,0.911921803151266,-1.18206678450618,1.3524450063705444,-1.2495019298842929,-1.5488627592669886,-2.8601070086108606,0.0153581053018569,0.0313206985592842,0.2111025750637054,0.1020001694560051,0.1400817334651947,0.1858732402324676,-0.021750027081471307,-0.9137632405304247,0.7777203207703204,0.9684881245220005,-0.24750095218304663,0.010150465471485327,-0.02590365570832812
1752650077.637463,0.911884133015768,-1.182023064499237,1.352856159210205,-1.249273107653,-1.548621956502096,-2.8597214857684534,0.015900706872344,0.0317090190947055,0.2129835337400436,0.1035058349370956,0.1428558975458145,0.1875134110450744,-0.02134627847950073,-0.913775213147236,0.777680743209007,0.9684860106147084,-0.24749171261773598,0.010256655399882025,-0.026028838797666407
1752650077.6394303,0.9119790236102504,-1.181897447710373,1.353341817855835,-1.2491165560534974,-1.5482729117022913,-2.85940391222109,0.0163077432662248,0.0330986604094505,0.2147319912910461,0.1039675995707511,0.1423260569572448,0.1915363520383834,-0.020875439932743125,-0.9138515453958812,0.7774881430084148,0.9684985751973345,-0.24741503446477348,0.010414411742105046,-0.026226905833399462
1752650077.6414115,0.9119609037982386,-1.1818744403174897,1.35380220413208,-1.2488704186728974,-1.548022572194235,-2.858991924916402,0.015747545287013,0.0345343500375747,0.2157218903303146,0.105141744017601,0.1422329097986221,0.1903048604726791,-0.020422578814129934,-0.9138507894824691,0.7774522374922858,0.9684988807898806,-0.24739496484311194,0.010523872739295044,-0.026360906312021603
1752650077.6469054,0.91199237505068,-1.1818401378444214,1.354270339012146,-1.2486265760711213,-1.5477350393878382,-2.8585901896106165,0.0153229050338268,0.0339078120887279,0.215593010187149,0.108536884188652,0.1428247541189193,0.1886316388845443,-0.01996023455415833,-0.9138591931689385,0.7773736264524624,0.9685002210325468,-0.2473667569796024,0.010650847823710853,-0.026524872138025547
1752650077.6473284,0.91199237505068,-1.1818401378444214,1.354270339012146,-1.2486265760711213,-1.5477350393878382,-2.8585901896106165,0.0153229050338268,0.0339078120887279,0.215593010187149,0.108536884188652,0.1428247541189193,0.1886316388845443,-0.01996023455415833,-0.9138591931689385,0.7773736264524624,0.9685002210325468,-0.2473667569796024,0.010650847823710853,-0.026524872138025547
1752650077.6477938,0.9120071570025844,-1.1817078751376648,1.355132818222046,-1.2482972008040925,-1.5471299330340784,-2.857865873967306,0.0148772792890667,0.0337213091552257,0.2195117324590683,0.1086613312363624,0.1447836756706237,0.1920222640037536,-0.01911152293772983,-0.9139292851802929,0.7772094282575505,0.9685051669792815,-0.24730782953765137,0.010923880984018933,-0.026781482558981516
1752650077.6497922,0.9121397177325647,-1.1816202265075226,1.355605125427246,-1.24806963027034,-1.5468538443194788,-2.857482973729269,0.0154181895777583,0.0347584821283817,0.2199398875236511,0.1047683954238891,0.1480927616357803,0.193306028842926,-0.018654482364390747,-0.913972730671272,0.7770176787140255,0.9685073173952962,-0.2472687885513924,0.011042552892407676,-0.027014521756128007
1752650077.6515155,0.9121840635882776,-1.181521402006485,1.3560534715652466,-1.2478043597987671,-1.546558682118551,-2.8570426146136683,0.014827623963356,0.0354360863566398,0.2213670462369918,0.1054803654551506,0.1463237106800079,0.1945761889219284,-0.018217007499687087,-0.914015402321138,0.7768703126911154,0.96849971362019,-0.24726933744087384,0.011170788127727023,-0.0272285323101809
1752650077.6536806,0.91215688387026,-1.1815057557872315,1.3565049171447754,-1.2476203304580231,-1.5462430159198206,-2.856649700795309,0.0152532579377293,0.0362155474722385,0.2221790850162506,0.105487436056137,0.1486312597990036,0.1955189108848571,-0.017765458053585776,-0.9140176586225875,0.7768543606551803,0.9685015324256404,-0.24724507337220827,0.011313886522721034,-0.027324921849999528
1752650077.6557183,0.9121812025653284,-1.1813996595195313,1.3569942712783811,-1.2474217873862763,-1.5458977858172815,-2.856300179158346,0.014807729050517,0.0366569757461547,0.2238606810569763,0.1055407226085662,0.1501554101705551,0.1941447108983993,-0.017287276511762935,-0.9140734992687695,0.7767215270499185,0.9685107949336416,-0.2471822199164589,0.01146892488600143,-0.02750007302056229
1752650077.657729,0.9122260252581996,-1.1813483101180573,1.357471585273743,-1.247223274116852,-1.5455487410174769,-2.8558431307422083,0.0147943990305066,0.036661297082901,0.2257975935935974,0.1061432883143425,0.1504361778497696,0.1941977590322494,-0.016812832282755225,-0.9140976626896056,0.7766242105547454,0.9685056783426811,-0.2471772584483926,0.011625026073715725,-0.027658862823786576
1752650077.6620755,0.9122608343707485,-1.1811683934978028,1.3583999872207642,-1.2467796367457886,-1.545008961354391,-2.855105463658468,0.0149101028218865,0.0373808853328228,0.2294472008943557,0.1115553602576255,0.1506107002496719,0.1975809931755066,-0.01591403251780971,-0.9141786976649252,0.7763910514358502,0.9685143147441581,-0.2470930487067971,0.011859265041728176,-0.028007235656243787
1752650077.663651,0.9122980276690882,-1.1810845595649262,1.3588286638259888,-1.2465836566737671,-1.544680420552389,-2.854734722767965,0.0144013306125998,0.037854004651308,0.2312478721141815,0.1087632924318313,0.1535332947969436,0.2002961039543151,-0.015490395441847172,-0.9142198513028791,0.7762699475019448,0.9685135360081454,-0.2470697762564865,0.012006162499377492,-0.028176378255680035
1752650077.665393,0.912344757710592,-1.1810093981078644,1.3593146800994873,-1.246339128618576,-1.5443690458880823,-2.85432750383486,0.015383050777018,0.0381759293377399,0.2329221665859222,0.1134130358695983,0.1526383757591247,0.2016881853342056,-0.015013973549867212,-0.9142506100034852,0.7761447603771862,0.9685146912217157,-0.24703638170166356,0.012142077363557626,-0.0283705650411115
1752650077.667603,0.912372891102926,-1.180961237554886,1.3597540855407717,-1.2461451154998322,-1.544016186391012,-2.853920284901754,0.0151683194562792,0.0384051203727722,0.2349340915679931,0.1124949678778648,0.1535524874925613,0.2024981677532196,-0.01457323490522549,-0.9142712789801473,0.7760620120372379,0.9685110709517873,-0.24702580519402298,0.012301060030554008,-0.02851737951129913
1752650077.669626,0.912377659474508,-1.180843011741974,1.3602007627487185,-1.2459082764438172,-1.5437544027911585,-2.853484217320577,0.0149993067607283,0.038745317608118,0.2362710982561111,0.1142347604036331,0.1544631570577621,0.2026956528425216,-0.014143681035076688,-0.9143245740413442,0.7759268198725515,0.9685042681008218,-0.24702489591971316,0.01241216811629689,-0.028707517290757077
1752650077.6715176,0.9123953024493616,-1.1807711285403748,1.3606847524642944,-1.2456485790065308,-1.543429199849264,-2.853088919316427,0.014027090743184,0.0404190272092819,0.2368369549512863,0.1146018877625465,0.1578759849071502,0.2061478048563003,-0.013666473080095094,-0.914350339648536,0.7758222827974018,0.9685065709760323,-0.24698694097748114,0.012555038666192151,-0.02889366655383632
1752650077.6735775,0.9124286810504358,-1.1807293456843873,1.3611078262329102,-1.245465026502945,-1.5430625120746058,-2.852708403264181,0.0145794376730918,0.0406095534563064,0.2385203540325164,0.1147515773773193,0.1574806123971939,0.2055680304765701,-0.013238531052022258,-0.9143681384116658,0.7757430604534391,0.9685040881331851,-0.24697158155302223,0.012721370805881451,-0.029035080494564276
1752650077.6755493,0.9124358336078088,-1.1806121331504364,1.3616509437561035,-1.2452387970737,-1.5427587668048304,-2.852275673543112,0.0135307181626558,0.0398203544318676,0.2405558228492736,0.1143749430775642,0.1569912284612655,0.2085329592227935,-0.012716051125730604,-0.9144237565134474,0.7756085802805368,0.9685091349722621,-0.2469229434982033,0.012851787297643623,-0.029222371784646622
1752650077.677583,0.91248065630068,-1.180516169672348,1.3620933294296265,-1.245028333072998,-1.5424640814410608,-2.851882044469015,0.0135998679324984,0.0400400832295417,0.241710677742958,0.1144541054964065,0.1585180759429931,0.2099663317203521,-0.012284662957770585,-0.9144681734141449,0.775469914869718,0.9685065902478461,-0.24690408046243786,0.012979540645697405,-0.02940903300204586
1752650077.679552,0.9124720732318324,-1.1805115205100556,1.3625638484954834,-1.2447804075530549,-1.5421116987811487,-2.8514283339129847,0.013315811753273,0.0410283096134662,0.241510197520256,0.1136552691459655,0.1612859666347503,0.2096604108810424,-0.011808439542982855,-0.9144549810213525,0.7754446181770818,0.9685011279310841,-0.24690107420222887,0.013136859938432948,-0.029543995412963344
1752650077.6814988,0.9125245253192348,-1.180398092871048,1.363028645515442,-1.2445388001254578,-1.5418208281146448,-2.8510053793536585,0.0138921877369284,0.0433519966900348,0.2437232136726379,0.1149908453226089,0.1595575809478759,0.2080908268690109,-0.011358329342462765,-0.9145057135024586,0.7752817303148964,0.9684967529324933,-0.2468857779097082,0.01326046591793016,-0.02975923837692338
1752650077.6836076,0.9125860373126428,-1.1802725058845065,1.3634920120239258,-1.2443256837180634,-1.5414474646197718,-2.8505950609790247,0.0134552111849188,0.0437802709639072,0.2445850521326065,0.1149992421269416,0.1610337942838668,0.2102618515491485,-0.010902337363341775,-0.9145689275205505,0.7751054308755965,0.9684929179274233,-0.2468660979692731,0.013425434087344326,-0.029972576089097928
1752650077.68545,0.9125726858722132,-1.1802092355540772,1.363982319831848,-1.244085655813553,-1.5411322752581995,-2.8501580397235315,0.013385472819209,0.0423766411840915,0.2463620454072952,0.1153753697872161,0.1644916385412216,0.2128213942050933,-0.010419557960467729,-0.9145892289517261,0.7750315389540925,0.9684914323797598,-0.2468452389563248,0.013562714830640208,-0.030130153966070865
1752650077.6903372,0.9126294294940394,-1.1801303786090394,1.3644287586212158,-1.243837283258774,-1.540798489247457,-2.8497148195849817,0.0121203223243355,0.0428217612206935,0.247078850865364,0.1180781722068786,0.1654803901910781,0.2150875180959701,-0.009976847277781803,-0.9146192345719303,0.7748962666773038,0.9684819815228656,-0.24684923005613993,0.013707676447527262,-0.030334941777507823
1752650077.6918442,0.9126985708819788,-1.179999665623047,1.3654497861862185,-1.243337408905365,-1.5401433149920862,-2.848865811024801,0.0123515585437417,0.0442503429949283,0.2496663630008697,0.1190106645226478,0.1696657389402389,0.216081902384758,-0.008971936970124906,-0.914662118712916,0.7746790678169371,0.9684845401898093,-0.24677675904841323,0.013990973186282767,-0.03071122394492775
1752650077.6938512,0.9127176443683068,-1.179822103386261,1.365903615951538,-1.2431528133204957,-1.5397370497332972,-2.8483567873584192,0.012445923872292,0.0449128113687038,0.249948501586914,0.1188329085707664,0.1671735346317291,0.21567203104496,-0.00852743819435423,-0.9147572464228094,0.7744877475303508,0.9684668860914944,-0.24681008396622206,0.014170507653188079,-0.030917142650666384
1752650077.697082,0.9127042929278772,-1.179658667450287,1.3668842315673828,-1.242678241138794,-1.5391185919391075,-2.847515646611349,0.0118319690227508,0.0458322502672672,0.2520428001880646,0.1208429709076881,0.1676470190286636,0.2202747762203216,-0.007567584082653442,-0.91481713118574,0.7742987934010366,0.9684666659096509,-0.24675287025599976,0.014436864050262727,-0.031255639469775734
1752650077.7009962,0.9127596060382288,-1.1794863504222413,1.3678470849990845,-1.2421864730170746,-1.5384309927569788,-2.846654240285055,0.0123876994475722,0.0468420125544071,0.254410982131958,0.1214730665087699,0.1721861958503723,0.219971477985382,-0.006616982358157492,-0.91488237286339,0.7740546933425345,0.9684591048644359,-0.24671549051528083,0.014734880773107471,-0.03164351803422429
1752650077.7015157,0.9127596060382288,-1.1794863504222413,1.3678470849990845,-1.2421864730170746,-1.5384309927569788,-2.846654240285055,0.0123876994475722,0.0468420125544071,0.254410982131958,0.1214730665087699,0.1721861958503723,0.219971477985382,-0.006616982358157492,-0.91488237286339,0.7740546933425345,0.9684591048644359,-0.24671549051528083,0.014734880773107471,-0.03164351803422429
1752650077.7033565,0.9127629438983362,-1.1793547731688996,1.3684145212173462,-1.2418982845595856,-1.538079563771383,-2.846082512532369,0.0118586458265781,0.0471740663051605,0.2560330629348755,0.1194755360484123,0.1729780286550521,0.2228419035673141,-0.006066301850491282,-0.9149359250038791,0.773903332900018,0.9684472509628029,-0.24672386671115976,0.01488232730315083,-0.03187117869997019
1752650077.7056687,0.9128244558917444,-1.1792916518500824,1.3689013719558716,-1.2417336267283936,-1.5377729574786585,-2.845682922993795,0.0120283821597695,0.0473787672817707,0.2566675245761871,0.1209844052791595,0.1743608266115188,0.2227031737565994,-0.005589641008898196,-0.9149643373924089,0.7737885290035295,0.9684494338511316,-0.24668682074058332,0.015014375261171,-0.032029284753844665
1752650077.7076988,0.9128645102130336,-1.1791179341128846,1.3693749904632568,-1.2414292258075257,-1.537400547658102,-2.8452842871295374,0.0110384784638881,0.0478226505219936,0.2584742307662964,0.1217330172657966,0.1760516762733459,0.2225570231676101,-0.005127095021520046,-0.915040706474696,0.7735732829085888,0.9684452976470379,-0.2466575832972699,0.015173872887533886,-0.032303183262390796
1752650077.7094858,0.9128678480731408,-1.1790642005256196,1.3699127435684204,-1.24118064463649,-1.537032429371969,-2.8448413054095667,0.0117220925167202,0.0485862866044044,0.2612448930740356,0.1216990053653717,0.176611989736557,0.2249814718961715,-0.004593260695120596,-0.9150531154725762,0.7734963735852766,0.9684472420907186,-0.24661786873218997,0.015334366055100657,-0.03247188517104265
1752650077.7115445,0.912921730672018,-1.1789756578258055,1.3704043626785278,-1.2409134668162842,-1.536677662526266,-2.8443577925311487,0.0114673459902405,0.0488585345447063,0.2629702091217041,0.1231115460395813,0.1764996200799942,0.2246059030294418,-0.00410706568421401,-0.9150839715768782,0.7733525639232323,0.9684367685360995,-0.24662043289537622,0.01548558016487699,-0.032692265642070346
1752650077.7135675,0.9129245916949672,-1.1788723331740876,1.370903491973877,-1.2407090228847046,-1.5363314787494105,-2.8438478151904505,0.0110193975269794,0.0493229106068611,0.2645763754844665,0.1236714124679565,0.1784111261367797,0.226748377084732,-0.003617959441635909,-0.9151292579049787,0.7732363710599115,0.9684257230737225,-0.24663167692464252,0.015634182767601004,-0.03286346232011165
1752650077.7159302,0.9129670302020472,-1.178755686884262,1.3714818954467771,-1.2404903334430235,-1.5360191504107874,-2.843396965657369,0.0108922710642218,0.0499221198260784,0.2653136551380157,0.1268305778503418,0.1824222803115844,0.2272406816482544,-0.003061538001159725,-0.9151807424557364,0.7730802415994897,0.9684309046605637,-0.2465757867480842,0.01576370821719663,-0.033067654757008506
1752650077.7175398,0.9129613081561488,-1.178648130302765,1.3719762563705444,-1.2402135294726868,-1.5356224218951624,-2.8429630438434046,0.0107737081125378,0.050299871712923,0.2668047845363617,0.1211830526590347,0.185645192861557,0.2269410789012909,-0.0025696036651882137,-0.9152200367161758,0.7729580795257266,0.9684266668169513,-0.24655358557868787,0.01593680280569512,-0.03327369460151278
1752650077.7195885,0.913008991871969,-1.1785566967776795,1.3725367784500122,-1.2399216455272215,-1.5352724234210413,-2.842552487050192,0.0099330637603998,0.0507526397705078,0.2687309682369232,0.1240392625331878,0.1888905018568039,0.2282758802175521,-0.00202043097241835,-0.9152482627733963,0.7728131022139844,0.9684330190424157,-0.24648769272598647,0.016084336601583878,-0.033505209730708585
1752650077.72208,0.91302997270693,-1.1784364146045228,1.37306010723114,-1.2397160691073914,-1.5348647276507776,-2.842069212590353,0.0092924749478697,0.0511541478335857,0.2699911892414093,0.1226008310914039,0.187899649143219,0.2291356325149536,-0.0015040011639619398,-0.9153039804606352,0.77266987476536,0.9684265206686338,-0.24647547452959437,0.016262002399187705,-0.033696614058749366
1752650077.7237167,0.9129861036883752,-1.1783360999873658,1.373605728149414,-1.2394647759250184,-1.5345223585711878,-2.841569248829977,0.0082636857405304,0.0510018989443779,0.2724244594573974,0.1241286620497703,0.1877458244562149,0.2343805730342865,-0.0009708077133175261,-0.9153391061215824,0.7725822306462642,0.9684221778243579,-0.24645951088818444,0.016407233322034382,-0.033867354272233696
1752650077.727765,0.9130776564227504,-1.1782610279372712,1.374136447906494,-1.2391768854907532,-1.5341389814959925,-2.8410688082324427,0.0088004758581519,0.0525409691035747,0.2734638154506683,0.1251851022243499,0.1907444447278976,0.2343092113733291,-0.00044340500274589706,-0.9153591499238799,0.7724235072923588,0.9684126544275519,-0.24645230186937847,0.016569144069969916,-0.03411241874532217
1752650077.7280197,0.9130447546588344,-1.178136871462204,1.3747150897979736,-1.238946334724762,-1.5337665716754358,-2.840622727070944,0.0085758985951542,0.0537148118019104,0.2753859162330627,0.1255972236394882,0.1918001770973205,0.2346781194210052,0.00012021357258162565,-0.9154109511564278,0.7723096760139951,0.9684182198385322,-0.24639483292979925,0.01672895727012674,-0.034291103495205595
1752650077.730067,0.9130600134478968,-1.1778767865947266,1.37580406665802,-1.238465206032135,-1.5329535643206995,-2.839696232472555,0.0072874021716415,0.0523142330348491,0.2795121669769287,0.1303844004869461,0.1962322145700454,0.2354186475276947,0.0011916251143315227,-0.9155215081517984,0.7720157896272329,0.9684134669073932,-0.246331245932446,0.017079599174682145,-0.0347067959023056
1752650077.7348835,0.9130600134478968,-1.1778767865947266,1.37580406665802,-1.238465206032135,-1.5329535643206995,-2.839696232472555,0.0072874021716415,0.0523142330348491,0.2795121669769287,0.1303844004869461,0.1962322145700454,0.2354186475276947,0.0011916251143315227,-0.9155215081517984,0.7720157896272329,0.9684134669073932,-0.246331245932446,0.017079599174682145,-0.0347067959023056
1752650077.735649,0.9130962530719202,-1.177661494617798,1.3769688606262207,-1.2379263502410431,-1.5322240034686487,-2.838691536580221,0.0068577066995203,0.0554378442466259,0.2830903828144073,0.1290974617004394,0.1967900395393371,0.240645557641983,0.0023295658376548518,-0.915596129278294,0.771741491367397,0.968408531485771,-0.24626803015363494,0.017384134223962438,-0.03513922803796422
1752650077.737539,0.9131587187396448,-1.177541808491089,1.377543568611145,-1.237663136129715,-1.5318334738360804,-2.838261429463522,0.0056781549938023,0.0542414560914039,0.2841219007968902,0.1293731331825256,0.1967216283082962,0.2401520162820816,0.002892782649573688,-0.9156423048977175,0.7715649657445246,0.9684125709763631,-0.24620587346438583,0.01754891478147015,-0.035380726908617356
1752650077.7395537,0.9131243864642542,-1.177437798385956,1.3781222105026243,-1.2373547118953248,-1.531433407460348,-2.8377960363971155,0.0052903513424098,0.0548571720719337,0.2856412529945373,0.1294210106134414,0.1993287205696106,0.2401831150054931,0.003464062943195592,-0.9156713273041528,0.7714617483820747,0.9684137996635906,-0.24615874226316561,0.017719400499722277,-0.035589451730443984
1752650077.741509,0.9131720701800744,-1.1773715180209656,1.3786802291870115,-1.23706270874057,-1.5310185591327112,-2.837307993565694,0.0049754418432712,0.0559346303343772,0.2866093516349792,0.1281888931989669,0.2013581395149231,0.2406370639801025,0.004021661693731493,-0.9156825186360963,0.7713399516548458,0.9684088662798059,-0.24613298169327502,0.01789621664187824,-0.035812685787941646
1752650077.7434433,0.9131558577166956,-1.177235708837845,1.3792572021484375,-1.2368343633464356,-1.530604664479391,-2.8368786017047327,0.0048085236921906,0.0568649694323539,0.2880206704139709,0.128109335899353,0.2040532529354095,0.2455763816833496,0.004587499403638633,-0.9157397850360725,0.7712052090513513,0.9684145181381578,-0.24606937618756702,0.018074699156169285,-0.03600678286539278
1752650077.746349,0.9132126013385218,-1.1769380432418366,1.38055682182312,-1.2363196772388,-1.529811207448141,-2.8359151522265837,0.0037657506763935,0.0576810799539089,0.2916539907455444,0.1281802356243133,0.2068537473678589,0.2485933452844619,0.005846927845916023,-0.9158617297040028,0.7708466458114089,0.9684276760403904,-0.24592293331818468,0.018404346031516326,-0.03648324539210717
1752650077.7478378,0.9132126013385218,-1.1769380432418366,1.38055682182312,-1.2363196772388,-1.529811207448141,-2.8359151522265837,0.0037657506763935,0.0576810799539089,0.2916539907455444,0.1281802356243133,0.2068537473678589,0.2485933452844619,0.005846927845916023,-0.9158617297040028,0.7708466458114089,0.9684276760403904,-0.24592293331818468,0.018404346031516326,-0.03648324539210717
1752650077.749738,0.9131844679461878,-1.1768264037421725,1.3811010122299194,-1.2359952491572876,-1.529379669819967,-2.8354418913470667,0.0029729795642197,0.0583875961601734,0.2932314872741699,0.1291189193725586,0.2070077061653137,0.2469111084938049,0.006389986839708018,-0.9158923398336248,0.7707309810437928,0.9684221709434498,-0.24589721141448015,0.018589006159766178,-0.036708433550758
1752650077.7516365,0.9131887594806116,-1.1767267149737854,1.3817110061645508,-1.2357894343188782,-1.5289681593524378,-2.8349011580096644,0.0023737987503409,0.059092279523611,0.2943554222583771,0.132406935095787,0.2068706750869751,0.2483081966638565,0.006989463099135906,-0.9159300797578533,0.7706176817672148,0.9684185959082167,-0.24587150223032195,0.018763905786893284,-0.0368855436422375
1752650077.7537117,0.9132006804095668,-1.176632211809494,1.3823543787002563,-1.2355215412429352,-1.528592888508932,-2.834428373967306,0.0021403133869171,0.0592327080667018,0.2967931926250458,0.1308151483535766,0.2077053487300872,0.2504730522632599,0.007617410039756071,-0.9159559253034503,0.770496926642666,0.9684266353992509,-0.2457966140879142,0.018919235206509906,-0.037093650284170436
1752650077.7560804,0.9132054487811488,-1.1764392417720335,1.3829721212387085,-1.2352375549129029,-1.528170410786764,-2.833874527608053,0.0018429141491651,0.0611601434648036,0.297881931066513,0.1320643872022628,0.2096700072288513,0.2567882835865021,0.008216882995018219,-0.9160374718363242,0.7702909266702932,0.9684186172797234,-0.24577477485720542,0.01909358604031066,-0.0373574185676682
1752650077.7579896,0.913204018269674,-1.176352159386017,1.3835819959640503,-1.2349757713130494,-1.5277465025531214,-2.833383385335104,0.0014211022062227,0.0615395605564117,0.299258291721344,0.1308734118938446,0.2143586426973343,0.2555295825004577,0.008820552427553582,-0.916059931350518,0.7701866660097373,0.9684199114586833,-0.24572567745949092,0.019273778042131547,-0.037553801504149796
1752650077.7602143,0.9132126013385218,-1.1761910778335114,1.384211778640747,-1.2346796256354828,-1.5273292700396937,-2.832926575337545,0.0010701571591198,0.06089473888278,0.2994658350944519,0.1307016462087631,0.2169608324766159,0.2558068037033081,0.009434390322714379,-0.9161205154896056,0.770005464135805,0.9684254642687926,-0.24565098591105092,0.019447044752030712,-0.037809069376472895
1752650077.762027,0.9131420294391076,-1.176087246542313,1.3848259449005127,-1.2344170671752472,-1.5269020239459437,-2.8323362509356897,0.0008639176376163,0.0613678842782974,0.3007459044456482,0.1290133893489837,0.2170812934637069,0.2561857104301452,0.010040959046381066,-0.916150162815165,0.769931979844969,0.9684159118017808,-0.24564768603923026,0.01962808317974033,-0.037981238307701566
1752650077.7636085,0.9132245222674767,-1.175964431171753,1.3854389190673828,-1.2341253620437165,-1.526466194783346,-2.831832472478048,0.0005979139823466,0.063724085688591,0.3017832338809967,0.1319297403097152,0.2150933295488357,0.2602753341197967,0.010645404352259776,-0.916190553649047,0.7697368142882535,0.9684124855356648,-0.24560448285456157,0.019808541277274657,-0.03825333387883851
1752650077.7656827,0.9132335821734828,-1.1757959586432951,1.3861069679260254,-1.23391147077594,-1.5260127226458948,-2.831374231969015,0.0004994281334802,0.0626810640096664,0.3025112450122833,0.134603351354599,0.2149356752634048,0.2617759108543396,0.011295981184902496,-0.9162645679211447,0.7695580520059127,0.9684231975168702,-0.2455122466593274,0.020000660345842483,-0.03847363821138918
1752650077.7676373,0.9131963888751428,-1.1756967467120667,1.3867583274841309,-1.233606593017914,-1.525635067616598,-2.830773417149679,0.0004383479827083,0.0632181987166404,0.3046511113643646,0.1329598426818847,0.2172452509403228,0.2629096508026123,0.011932442166072635,-0.9162843105469867,0.7694617282386942,0.9684159342682784,-0.24549587339946982,0.0201530850658902,-0.0386808423054085
1752650077.7694197,0.9132102171527308,-1.1755980414203189,1.387376070022583,-1.2334227424911042,-1.5251992384540003,-2.8302982489215296,0.000390737055568,0.063928298652172,0.3059227764606476,0.1350978463888168,0.2213443368673324,0.2620538771152496,0.012541865335716723,-0.9163210308035327,0.7693457874812003,0.968420450522422,-0.24543543002982607,0.020339632706634653,-0.038853314368055336
1752650077.7713957,0.9131935278521937,-1.17545701683078,1.3879879713058472,-1.2331229013255616,-1.5247133413897913,-2.8297978083239954,0.0002656555734574,0.0644088611006736,0.306737333536148,0.1362475752830505,0.2254616320133209,0.2631194293498993,0.013149954682161647,-0.9163680158141609,0.7691994877628293,0.96841758078042,-0.24539170792482157,0.020546404571051113,-0.039091484703712445
1752650077.773425,0.91319448152651,-1.1753297013095398,1.3886178731918335,-1.2328114074519654,-1.524294678364889,-2.8292093912707728,-0.0002345257962588,0.0651438385248184,0.3093997538089752,0.135717824101448,0.2259811908006668,0.2639810144901275,0.013768565308499969,-0.9164039093568147,0.769052199866681,0.9684067374376021,-0.24538100318998526,0.020716799905171102,-0.039336603318343565
1752650077.7781136,0.9132216612445276,-1.175181345348694,1.3892312049865725,-1.2325320702842255,-1.5238426367389124,-2.828696076069967,-0.0004801463219337,0.0654472559690475,0.3118487000465393,0.1362759172916412,0.222572773694992,0.267074853181839,0.014372795308965104,-0.9164570315042382,0.7688723939278512,0.9684021051150835,-0.24534264702211867,0.02090484878676023,-0.03958959027392749
1752650077.7795916,0.9131510893451136,-1.17492567122493,1.3905373811721802,-1.2319739621928711,-1.5229466597186487,-2.827625099812643,-0.0043303547427058,0.0660137981176376,0.3138158023357391,0.1369351148605346,0.2271314710378646,0.2638759315013885,0.01565825307030816,-0.9165341126956018,0.7686325666707727,0.9684005060255755,-0.245247860562754,0.021279203320446683,-0.04001427651286932
1752650077.7815847,0.913204018269674,-1.1748231512359162,1.3911380767822266,-1.2316958469203492,-1.5224669615374964,-2.827063862477438,-0.0040547391399741,0.0666703060269355,0.3157002627849579,0.1352389901876449,0.2299281656742096,0.2676533758640289,0.016258961948752378,-0.9165609038013692,0.7684772879548868,0.9683881021385083,-0.24523932773156726,0.021480230641485135,-0.0402586073024815
1752650077.7837858,0.9131482283221644,-1.1746340555003665,1.3917274475097656,-1.2313978534987946,-1.5220564047442835,-2.8265231291400355,-0.0038325723726302,0.0669872388243675,0.3177098333835602,0.138437420129776,0.2298652231693267,0.2699935734272003,0.01683323388149148,-0.9166312142845037,0.768313667045176,0.9683778927257001,-0.24522531107321074,0.0216472409982566,-0.04049939069100988
1752650077.78542,0.9132474104510706,-1.1745554965785523,1.3923662900924685,-1.2311771673015135,-1.521564308797018,-2.826000515614645,-0.0037182627711445,0.067314013838768,0.3203851282596588,0.1365762054920196,0.2315778136253357,0.2725834250450134,0.017471477546869427,-0.9166510198262506,0.7681557679021751,0.9683752232936788,-0.2451797002215649,0.02185511602971846,-0.04072708452011715
1752650077.7873724,0.9131272474872034,-1.1743698579123991,1.3930226564407349,-1.2308777135661622,-1.5210874716388147,-2.8254616896258757,-0.0045019565150141,0.0675312504172325,0.3221437931060791,0.1382605880498886,0.2285911291837692,0.2732263505458832,0.018115558557695095,-0.916717109596826,0.7680381756231209,0.968373589067302,-0.24513303904910844,0.022055606546177265,-0.040938189790716624
1752650077.7902026,0.9131315390216272,-1.17426352322612,1.393626689910889,-1.2305938464454194,-1.5206320921527308,-2.824934307728902,-0.0055001932196319,0.0683765485882759,0.3232580423355102,0.1384551227092743,0.2285823374986648,0.2691514790058136,0.018716680095118367,-0.9167420476068664,0.767911058123603,0.9683665409572213,-0.24510611013229341,0.02224542403408766,-0.04116282594654945
1752650077.7919254,0.91313344637026,-1.1740825039199372,1.3942252397537231,-1.2303355497172852,-1.5201810042010706,-2.82438308397402,-0.0069809979759156,0.068328745663166,0.3230132162570953,0.1369746327400207,0.2323467284440994,0.2703649401664734,0.019304066388041916,-0.9168128586954685,0.7677211963604723,0.9683548179637103,-0.24509372237203125,0.02243080754215741,-0.04141102091591242
1752650077.793864,0.913121525441305,-1.1740042728236697,1.3949133157730105,-1.2300064724734805,-1.5197113196002403,-2.823806587849752,-0.0105834500864148,0.069102257490158,0.3104179203510284,0.1316701173782348,0.2178293019533157,0.2672978937625885,0.019987928830209375,-0.9168134121600137,0.7676252587461219,0.9683515572573332,-0.24505025613806924,0.02262442708339815,-0.041638549723929316
1752650077.7981102,0.9131172339068812,-1.1737241309932251,1.3959850072860718,-1.2294966739467164,-1.518782917653219,-2.822747770939962,-0.0122417593374848,0.0632641464471817,0.2861044406890869,0.1278894394636154,0.2117011547088623,0.2621773779392242,0.021059361265206626,-0.9169094110744658,0.7673256062626762,0.9683192361340315,-0.24506512168128536,0.023013925439793224,-0.042086842409407244
1752650077.8004258,0.9130180517779748,-1.1736624997905274,1.3966128826141355,-1.2292379599860688,-1.5184338728534144,-2.8222416082965296,-0.0098180789500474,0.0652063637971878,0.2849385142326355,0.1303770989179611,0.2140561491250991,0.2598658204078674,0.02167478404589493,-0.916904689962301,0.7673095125234853,0.968322981012867,-0.24501361955214024,0.02315580632826334,-0.04222249767128732
1752650077.801668,0.9130476156817836,-1.1735225182822724,1.3971827030181885,-1.228951410656311,-1.5179722944842735,-2.821764055882589,-0.0093807028606534,0.0654769018292427,0.2878613173961639,0.1317568868398666,0.21510711312294,0.2599315345287323,0.02224205742661399,-0.916947707687239,0.7671353399272669,0.9683156888185905,-0.2449800916770935,0.023346733354202457,-0.04247836521511923
1752650077.803428,0.9130433241473596,-1.1733458203128355,1.3977653980255127,-1.2287588280490418,-1.5175865332232874,-2.821194712315694,-0.0090771671384572,0.0664264112710952,0.2924249172210693,0.131718024611473,0.216923177242279,0.2602764666080475,0.022806895801449355,-0.9170206237161389,0.7669604629902951,0.9683020592963221,-0.24498287248785056,0.023500790878263407,-0.04268755062309786
1752650077.8054185,0.9130466620074672,-1.1731883746436615,1.3983689546585083,-1.2284293931773682,-1.5171058813678189,-2.82072621980776,-0.0076534571126103,0.0674327388405799,0.3019848465919494,0.1368348300457,0.2241118848323822,0.2583433985710144,0.023406698026290036,-0.9170666916700602,0.7667834141231609,0.9682986407041636,-0.24492935539369592,0.02369888182264998,-0.04296180020964843
1752650077.8074093,0.9129756132708948,-1.1730492872050782,1.398934006690979,-1.2282039386085053,-1.5166948477374476,-2.820190731679098,-0.007812918163836,0.0690473765134811,0.3147181570529938,0.1358138620853424,0.2273105233907699,0.2550577521324157,0.02396314960894228,-0.9171125832434976,0.7666831577174853,0.9682880087453205,-0.24492425074953775,0.02386883806709815,-0.043136087955749726
1752650077.8094497,0.9130085150348108,-1.1729052823833008,1.3995407819747925,-1.227972076540329,-1.5161970297442835,-2.8196635882007044,-0.0103206178173422,0.0699843317270279,0.3143933713436126,0.1318818032741546,0.2235230803489685,0.2550637722015381,0.024567147042184687,-0.9171630634380322,0.7665095114829787,0.9682791482844978,-0.24489734377910474,0.024076704754221082,-0.043371583964210925
1752650077.8114235,0.9129427115069788,-1.172782675628998,1.4001632928848269,-1.2277037662318726,-1.5158003012286585,-2.819106403981344,-0.0104502253234386,0.0700922831892967,0.3086399734020233,0.1329938918352127,0.2166892886161804,0.2532605528831482,0.025177325179758177,-0.9171917617604805,0.7664158573070803,0.9682722406835894,-0.24487504543670946,0.0242361832922489,-0.04356245474459667
1752650077.8133748,0.9128649870501916,-1.1726340812495728,1.400725483894348,-1.2273800832084198,-1.5153639952289026,-2.81864053407778,-0.0111214071512222,0.0698563903570175,0.3033341765403747,0.1263794302940368,0.2155464142560959,0.2519103288650512,0.02573540571160037,-0.9172302758300714,0.7663009183285517,0.9682666736636232,-0.24483903481143307,0.024415777775819592,-0.04378773230701078
1752650077.8155332,0.9129112402545374,-1.1725033086589356,1.4012905359268188,-1.227206514482834,-1.5149367491351526,-2.818129603062765,-0.011690629646182,0.0698242411017417,0.2994416952133178,0.1291284412145614,0.2174515724182129,0.2526668012142181,0.02629326140436678,-0.917279066922095,0.766136364887703,0.9682570486599398,-0.24482299458873444,0.02459128949796083,-0.04399156193833949
1752650077.8174508,0.9129203001605432,-1.1723426145366211,1.401848316192627,-1.2268851560405274,-1.5144808928119105,-2.8176358381854456,-0.0110397925600409,0.0692158192396164,0.2959437370300293,0.1277348697185516,0.2171296626329422,0.2513742446899414,0.026848109617961982,-0.9173264044830803,0.7659535225802913,0.9682446491417942,-0.2448038989553342,0.024775853096200895,-0.04426632543938904
1752650077.8223436,0.9128921667682092,-1.1722015005401154,1.4024766683578491,-1.2266570788672944,-1.5140488783465784,-2.8171563784228724,-0.0111275734379887,0.0713457614183425,0.2937463819980621,0.1294109374284744,0.2175166755914688,0.2495360225439071,0.0274651084691793,-0.9173705048432633,0.7658230177644572,0.9682465576108452,-0.24474210023571255,0.02495293691203845,-0.04446638040614878
1752650077.822762,0.9128559271441858,-1.1720996660045166,1.4030306339263916,-1.2264218491366885,-1.5135725180255335,-2.816608492528097,-0.0108225038275122,0.0696243643760681,0.293509691953659,0.1296951174736023,0.2150364518165588,0.2470165491104126,0.02802303083595775,-0.9173934354331296,0.7657327586379288,0.9682310226002172,-0.24474990560677864,0.025153614488056458,-0.04464825033746303
1752650077.8239243,0.9128196875201624,-1.1719304782203217,1.403637409210205,-1.2261305016330262,-1.5131290594684046,-2.816088740025656,-0.0105932187288999,0.0686274543404579,0.2925277948379516,0.1326104402542114,0.2146822065114975,0.2466551214456558,0.028620287223982195,-0.9174457174636506,0.7655755568975326,0.9682229381909382,-0.24471909171841055,0.02533221001964309,-0.0448908369819886
1752650077.8274014,0.9128320852862756,-1.1718613368323822,1.4041695594787598,-1.225869671707489,-1.5126526991473597,-2.815630737935201,-0.0109370369464159,0.0713452622294426,0.2924273014068603,0.127888336777687,0.2140625268220901,0.2460093051195144,0.029161826415822066,-0.9174474865505661,0.7654797843163724,0.9682145241425949,-0.2446944238383129,0.025533296374052245,-0.04509240466020256
1752650077.8324294,0.9128082434283656,-1.171527699833252,1.405350923538208,-1.2253689628890534,-1.5118239561664026,-2.814542118703024,-0.0092810150235891,0.0699978545308113,0.287166565656662,0.126088336110115,0.2119936943054199,0.240230843424797,0.03031903945382561,-0.9175583196436985,0.7651461682828565,0.9681899245232234,-0.24467113475546864,0.025861425409786542,-0.04555757395824009
1752650077.832753,0.91276723543276,-1.1714132589152833,1.4058711528778076,-1.2251141232303162,-1.5114949385272425,-2.814117972050802,-0.0105936909094452,0.0702487453818321,0.2849400639533996,0.1269881427288055,0.2094068229198455,0.2385791689157486,0.030828542814738097,-0.9175823165635635,0.7650447089865222,0.9681871342649617,-0.24463332752979197,0.025990150375998413,-0.04574625874249756
1752650077.834484,0.9127686659442348,-1.1712764364532011,1.4064759016036987,-1.224905030136444,-1.5110710302936,-2.813651148472921,-0.0100314943119883,0.0706932693719863,0.2837302386760711,0.1265801936388015,0.2062783241271972,0.2375339418649673,0.03142329639183157,-0.9176246571539413,0.7649006905028441,0.9681870450687065,-0.24457714301538294,0.02616221272010601,-0.045950032656651305
