mathias31415/evaluate_motion_primitives_from_trajectory_controller/data/trajectory_20250722_124049_executed.csv
timestamp,elbow_joint_pos,shoulder_lift_joint_pos,shoulder_pan_joint_pos,wrist_1_joint_pos,wrist_2_joint_pos,wrist_3_joint_pos,elbow_joint_vel,shoulder_lift_joint_vel,shoulder_pan_joint_vel,wrist_1_joint_vel,wrist_2_joint_vel,wrist_3_joint_vel
1753180916.5705044,1.8541320005999964,-1.3146692973426362,0.9991949200630188,-2.110438962975973,-1.57086688676943,-3.789058033620016,-0.0,-0.0,0.0,0.0,0.0,0.0
1753180916.5709743,1.854168717061178,-1.3147137028029938,0.9992126226425171,-2.110434671441549,-1.5708368460284632,-3.7890506426440638,-0.0,-0.0,0.0,0.0,0.0,0.0
1753180916.5716248,1.8541095892535608,-1.314643220310547,0.9991912841796875,-2.110458036462301,-1.570824925099508,-3.7890506426440638,-0.0,-0.0,0.0,0.0,0.0,0.0
1753180916.5737607,1.8541320005999964,-1.314692960386612,0.9991866946220398,-2.110495706597799,-1.570883576069967,-3.7890341917621058,-0.0,-0.0,0.0,0.0,0.0,0.0
1753180916.5757387,1.8541691938983362,-1.314698950653412,0.9992199540138245,-2.110450883904928,-1.570862118397848,-3.7889843622790735,-0.0,-0.0,0.0,0.0,0.0,0.0
1753180916.5778117,1.8541491667376917,-1.314685658817627,0.9992200136184692,-2.110434671441549,-1.5708702246295374,-3.789038960133688,-0.0,-0.0,0.0,0.0,0.0,0.0
1753180916.5797706,1.8541625181781214,-1.3146514159492035,0.9991912841796875,-2.110467096368307,-1.5709083716021937,-3.7889843622790735,-0.0,-0.0,0.0,0.0,0.0,0.0
1753180916.5820646,1.8541234175311487,-1.314664677982666,0.9992395043373108,-2.1104217968382777,-1.5708711783038538,-3.7890005747424524,-0.0,-0.0,0.0,0.0,0.0,0.0
1753180916.584418,1.8540623823748987,-1.314681039457657,0.9991912841796875,-2.1104799709715785,-1.5708368460284632,-3.7890716234790247,-0.0,-0.0,0.0,0.0,0.0,0.0
1753180916.5890493,1.8541467825519007,-1.314697341328003,0.9992200136184692,-2.1104842625060023,-1.5708745161639612,-3.7890341917621058,-0.0,-0.0,0.0,0.0,0.0,0.0
1753180916.5913036,1.8541854063617151,-1.3146692675403138,0.9992082118988037,-2.110450883904928,-1.570878807698385,-3.7890506426440638,-0.0,-0.0,0.0,0.0,0.0,0.0
1753180916.5942507,1.8541443983661097,-1.3147420150092621,0.9992125630378723,-2.110471864739889,-1.5708320776568812,-3.7890098730670374,-0.0,-0.0,0.0,0.0,0.0,0.0
1753180916.607028,1.854135815297262,-1.314655826692917,0.9991779923439026,-2.1104465923705042,-1.570885960255758,-3.7890477816211146,-0.0,-0.0,0.0,0.0,0.0,0.0
1753180916.6097126,1.8541730085956019,-1.314701960687973,0.9992156028747559,-2.1104799709715785,-1.57086688676943,-3.7890082041369837,-0.0,-0.0,0.0,0.0,0.0,0.0
1753180916.614047,1.8541730085956019,-1.3146929305842896,0.999183714389801,-2.110441823998922,-1.570862118397848,-3.789029661809103,-0.0,-0.0,0.0,0.0,0.0,0.0
1753180916.6162555,1.8541730085956019,-1.3146929305842896,0.999183714389801,-2.110441823998922,-1.570862118397848,-3.789029661809103,-0.0,-0.0,0.0,0.0,0.0,0.0
1753180916.6194668,1.8541854063617151,-1.3146884900382538,0.9991867542266846,-2.110458036462301,-1.5708711783038538,-3.789016310368673,-0.0,-0.0,0.0,0.0,0.0,0.0
1753180916.6264217,1.8541401068316858,-1.314655826692917,0.9992332458496094,-2.1104465923705042,-1.570841137562887,-3.7890263239489954,-0.0,-0.0,0.0,0.0,0.0,0.0
1753180916.6267955,1.8541401068316858,-1.314655826692917,0.9992332458496094,-2.1104465923705042,-1.570841137562887,-3.7890263239489954,-0.0,-0.0,0.0,0.0,0.0,0.0
1753180916.6298401,1.854119602833883,-1.3146387499621888,0.9991949200630188,-2.110438962975973,-1.570878807698385,-3.7890082041369837,-0.0,-0.0,0.0,0.0,0.0,0.0
1753180916.63163,1.8542192617999476,-1.3147137326053162,0.9991905689239502,-2.110488554040426,-1.5708487669574183,-3.7890217939959925,-0.0,-0.0,0.0,0.0,0.0,0.0
1753180916.6385133,1.8541062513934534,-1.314701960687973,0.9991881251335144,-2.1104327640929164,-1.570841137562887,-3.7890716234790247,-0.0,-0.0,0.0,0.0,0.0,0.0
1753180916.6396122,1.854135815297262,-1.314655826692917,0.999182403087616,-2.1104217968382777,-1.5708664099322718,-3.7890341917621058,-0.0,-0.0,0.0,0.0,0.0,0.0
1753180916.6419582,1.8541062513934534,-1.3146810096553345,0.9992036819458008,-2.110488554040426,-1.57086688676943,-3.7890170256244105,-0.0,-0.0,0.0,0.0,0.0,0.0
1753180916.644561,1.8541320005999964,-1.314681039457657,0.9992168545722961,-2.1104642353453578,-1.570878807698385,-3.7890251318561,-0.0,-0.0,0.0,0.0,0.0,0.0
1753180916.6464372,1.8541443983661097,-1.3146431905082245,0.9992036819458008,-2.110434671441549,-1.570883576069967,-3.7890506426440638,-0.0,-0.0,0.0,0.0,0.0,0.0
1753180916.6502938,1.8541739622699183,-1.3146765989116211,0.9992082118988037,-2.1104465923705042,-1.5708578268634241,-3.789062563573019,-0.0,-0.0,0.0,0.0,0.0,0.0
1753180916.653941,1.8540838400470179,-1.314651445751526,0.9991836547851562,-2.1104256115355433,-1.570911709462301,-3.7890170256244105,-0.0,-0.0,0.0,0.0,0.0,0.0
1753180916.6597524,1.8541467825519007,-1.314692960386612,0.9992169141769409,-2.110450883904928,-1.5708454290973108,-3.7890341917621058,-0.0,-0.0,0.0,0.0,0.0,0.0
1753180916.6607752,1.8541467825519007,-1.314681039457657,0.9991836547851562,-2.110450883904928,-1.570887867604391,-3.7890642325030726,-0.0,-0.0,0.0,0.0,0.0,0.0
1753180916.6620402,1.854119602833883,-1.314647690658905,0.9991993308067322,-2.110438962975973,-1.570916477833883,-3.789046112691061,-0.0,-0.0,0.0,0.0,0.0,0.0
1753180916.6641324,1.8541153112994593,-1.314692960386612,0.9992036819458008,-2.110434671441549,-1.570883576069967,-3.7890597025500696,-0.0,-0.0,0.0,0.0,0.0,0.0
1753180916.665887,1.8541515509234827,-1.3147093516639252,0.9992036819458008,-2.110438962975973,-1.5708501974688929,-3.7890308539019983,-0.0,-0.0,0.0,0.0,0.0,0.0
1753180916.6681602,1.8541110197650355,-1.314692960386612,0.9991912841796875,-2.110458036462301,-1.570853058491842,-3.7890341917621058,-0.0,-0.0,0.0,0.0,0.0,0.0
1753180916.670126,1.8541062513934534,-1.314647690658905,0.9992375373840332,-2.1104709110655726,-1.570853058491842,-3.7889917532550257,-0.0,-0.0,0.0,0.0,0.0,0.0
1753180916.6719024,1.8542011419879358,-1.3146268886378785,0.999182403087616,-2.11041321376943,-1.570878807698385,-3.7890551725970667,-0.0,-0.0,0.0,0.0,0.0,0.0
1753180916.6740432,1.8541277090655726,-1.3146557968905945,0.9991956353187561,-2.1104217968382777,-1.570878807698385,-3.7890217939959925,-0.0,-0.0,0.0,0.0,0.0,0.0
1753180916.6937838,1.854189697896139,-1.3146692973426362,0.9991993308067322,-2.110471864739889,-1.5708039442645472,-3.7890341917621058,-0.0,-0.0,0.0,0.0,0.0,0.0
1753180916.694074,1.8541606108294886,-1.314685658817627,0.9991704821586609,-2.110471864739889,-1.5708745161639612,-3.7890098730670374,-0.0,-0.0,0.0,0.0,0.0,0.0
1753180916.6942935,1.8541110197650355,-1.314685658817627,0.9991541504859924,-2.110450883904928,-1.5708454290973108,-3.7890432516681116,-0.0,-0.0,0.0,0.0,0.0,0.0
1753180916.6944993,1.854135815297262,-1.3146432501128693,0.9991956353187561,-2.110438962975973,-1.570878807698385,-3.7890716234790247,-0.0,-0.0,0.0,0.0,0.0,0.0
1753180916.6947145,1.8541401068316858,-1.3147137624076386,0.9991867542266846,-2.110476633111471,-1.570853058491842,-3.7890506426440638,-0.0,-0.0,0.0,0.0,0.0,0.0
1753180916.6950123,1.85413104692568,-1.3147256833365937,0.9992036819458008,-2.110429903069967,-1.570916477833883,-3.7890217939959925,-0.0,-0.0,0.0,0.0,0.0,0.0
1753180916.6999805,1.85413104692568,-1.3147019904902955,0.9991793632507324,-2.110467096368307,-1.5708501974688929,-3.789038960133688,-0.0,-0.0,0.0,0.0,0.0,0.0
1753180916.7005122,1.854119602833883,-1.314709262256958,0.9991750121116638,-2.110455175439352,-1.570853058491842,-3.7890506426440638,-0.0,-0.0,0.0,0.0,0.0,0.0
1753180916.7008708,1.8541443983661097,-1.314681039457657,0.9992199540138245,-2.110406061212057,-1.570883576069967,-3.7890217939959925,-0.0,-0.0,0.0,0.0,0.0,0.0
1753180916.702161,1.8541606108294886,-1.3146810096553345,0.9992125630378723,-2.1104709110655726,-1.570862118397848,-3.7890170256244105,-0.0,-0.0,0.0,0.0,0.0,0.0
1753180916.7025383,1.8541691938983362,-1.3146974307349701,0.9991541504859924,-2.11038937191152,-1.570829216633932,-3.7890341917621058,-0.0,-0.0,0.0,0.0,0.0,0.0
1753180916.703929,1.854119602833883,-1.3146974605372925,0.9991956353187561,-2.110504766503805,-1.570883576069967,-3.7890170256244105,-0.0,-0.0,0.0,0.0,0.0,0.0
1753180916.708584,1.8541062513934534,-1.314673737888672,0.9991867542266846,-2.110467096368307,-1.570853058491842,-3.7890432516681116,-0.0,-0.0,0.0,0.0,0.0,0.0
1753180916.7089999,1.8540833632098597,-1.314664677982666,0.9991750717163086,-2.110417505303854,-1.5708578268634241,-3.789029661809103,-0.0,-0.0,0.0,0.0,0.0,0.0
1753180916.711955,1.8541019598590296,-1.3146432501128693,0.9991949796676636,-2.110434671441549,-1.57086688676943,-3.7889917532550257,-0.0,-0.0,0.0,0.0,0.0,0.0
1753180916.7136507,1.8541320005999964,-1.314685658817627,0.9992199540138245,-2.1104217968382777,-1.5708664099322718,-3.789037052785055,-0.0,-0.0,0.0,0.0,0.0,0.0
1753180916.7160404,1.8541062513934534,-1.3147019904902955,0.9992288947105408,-2.110429903069967,-1.570853058491842,-3.7890716234790247,-0.0,-0.0,0.0,0.0,0.0,0.0
1753180916.7184982,1.8541401068316858,-1.314643220310547,0.9992043972015381,-2.110455175439352,-1.5708039442645472,-3.789053503667013,-0.0,-0.0,0.0,0.0,0.0,0.0
1753180916.7199943,1.8541401068316858,-1.3146513861468812,0.9991999864578247,-2.110450883904928,-1.570887867604391,-3.7890551725970667,-0.0,-0.0,0.0,0.0,0.0,0.0
1753180916.7246494,1.8541143576251429,-1.3146602374366303,0.9992451071739197,-2.110438962975973,-1.5708993116961878,-3.7890341917621058,-0.0,-0.0,0.0,0.0,0.0,0.0
1753180916.7262077,1.8541320005999964,-1.3146736782840271,0.9991880059242249,-2.1104842625060023,-1.570932690297262,-3.7890189329730433,-0.0,-0.0,0.0,0.0,0.0,0.0
1753180916.729587,1.854119602833883,-1.3147019904902955,0.9992244243621826,-2.110441823998922,-1.5708368460284632,-3.7890008131610315,-0.0,-0.0,0.0,0.0,0.0,0.0
1753180916.7331522,1.8541854063617151,-1.314681039457657,0.9992036819458008,-2.110450883904928,-1.5709083716021937,-3.7890341917621058,-0.0,-0.0,0.0,0.0,0.0,0.0
1753180916.7335415,1.8541773001300257,-1.3146566611579438,0.999182403087616,-2.110429903069967,-1.570890251790182,-3.7890005747424524,-0.0,-0.0,0.0,0.0,0.0,0.0
1753180916.7338128,1.8541491667376917,-1.3146647077849885,0.9992199540138245,-2.110425134698385,-1.570841137562887,-3.7890551725970667,-0.0,-0.0,0.0,0.0,0.0,0.0
1753180916.7362309,1.8541095892535608,-1.3147020202926178,0.9991912841796875,-2.110429903069967,-1.5708454290973108,-3.7890127340899866,-0.0,-0.0,0.0,0.0,0.0,0.0
1753180916.7394202,1.8541558424579065,-1.3146647077849885,0.9991867542266846,-2.110401769677633,-1.5708702246295374,-3.7890124956714075,-0.0,-0.0,0.0,0.0,0.0,0.0
1753180916.7406116,1.854072395955221,-1.3146343392184754,0.999182403087616,-2.110450883904928,-1.5708368460284632,-3.7890127340899866,-0.0,-0.0,0.0,0.0,0.0,0.0
1753180916.742259,1.8541854063617151,-1.3147019904902955,0.9992169141769409,-2.1104799709715785,-1.5708487669574183,-3.7890387217151087,-0.0,-0.0,0.0,0.0,0.0,0.0
1753180916.7438822,1.8540948073016565,-1.3146721583655854,0.9992199540138245,-2.110471864739889,-1.5708544890033167,-3.7890926043139856,-0.0,-0.0,0.0,0.0,0.0,0.0
1753180916.746116,1.8541820685016077,-1.3146557968905945,0.9992332458496094,-2.110429903069967,-1.5709074179278772,-3.7890341917621058,-0.0,-0.0,0.0,0.0,0.0,0.0
1753180916.7478936,1.8541062513934534,-1.3147093218616028,0.9991912841796875,-2.110441823998922,-1.570878807698385,-3.7890880743609827,-0.0,-0.0,0.0,0.0,0.0,0.0
1753180916.7504408,1.8541019598590296,-1.314643220310547,0.9991993308067322,-2.110476156274313,-1.570862118397848,-3.789062563573019,-0.0,-0.0,0.0,0.0,0.0,0.0
1753180916.751887,1.8541467825519007,-1.3146476608565827,0.9992614388465881,-2.110499998132223,-1.570862118397848,-3.789016310368673,-0.0,-0.0,0.0,0.0,0.0,0.0
1753180916.754388,1.8541606108294886,-1.314643220310547,0.9991750121116638,-2.1104799709715785,-1.570862118397848,-3.7890806833850306,-0.0,-0.0,0.0,0.0,0.0,0.0
1753180916.757682,1.8542030493365687,-1.3146224480918427,0.9992245435714722,-2.110467096368307,-1.5708454290973108,-3.7890432516681116,-0.0,-0.0,0.0,0.0,0.0,0.0
1753180916.7582664,1.8542030493365687,-1.3146224480918427,0.9992245435714722,-2.110467096368307,-1.5708454290973108,-3.7890432516681116,-0.0,-0.0,0.0,0.0,0.0,0.0
1753180916.7628477,1.8541267553912562,-1.314692960386612,0.9991912841796875,-2.110458036462301,-1.5708487669574183,-3.789029661809103,-0.0,-0.0,0.0,0.0,0.0,0.0
1753180916.763869,1.854168717061178,-1.314681039457657,0.9992331266403198,-2.110438962975973,-1.5708501974688929,-3.7890341917621058,-0.0,-0.0,0.0,0.0,0.0,0.0
1753180916.766315,1.8541367689715784,-1.3146312993815918,0.9992036819458008,-2.110455175439352,-1.5708220640765589,-3.7890506426440638,-0.0,-0.0,0.0,0.0,0.0,0.0
1753180916.7676344,1.8540666739093226,-1.3146692973426362,0.999183714389801,-2.110471864739889,-1.57086688676943,-3.789067093526022,-0.0,-0.0,0.0,0.0,0.0,0.0
1753180916.7699912,1.854135815297262,-1.3146765989116211,0.9992112517356873,-2.110438962975973,-1.570862118397848,-3.7890341917621058,-0.0,-0.0,0.0,0.0,0.0,0.0
1753180916.7717655,1.8541320005999964,-1.3146476608565827,0.9992125630378723,-2.11041321376943,-1.57086688676943,-3.789037052785055,-0.0,-0.0,0.0,0.0,0.0,0.0
1753180916.7738438,1.8541234175311487,-1.314664677982666,0.9992613196372986,-2.110467096368307,-1.570862118397848,-3.7890716234790247,-0.0,-0.0,0.0,0.0,0.0,0.0
1753180916.7757678,1.8541186491595667,-1.314718411569931,0.9991661310195923,-2.1104799709715785,-1.570878807698385,-3.7890341917621058,-0.0,-0.0,0.0,0.0,0.0,0.0
1753180916.7820902,1.8541410605060022,-1.314635918741562,0.9992125630378723,-2.110434671441549,-1.570824925099508,-3.7890761534320276,-0.0,-0.0,0.0,0.0,0.0,0.0
1753180916.7837226,1.8541491667376917,-1.3146721583655854,0.9991704821586609,-2.1104465923705042,-1.570878807698385,-3.789029661809103,-0.0,-0.0,0.0,0.0,0.0,0.0
1753180916.7857213,1.8541320005999964,-1.3146692973426362,0.9991993308067322,-2.110499998132223,-1.5708993116961878,-3.7890341917621058,-0.0,-0.0,0.0,0.0,0.0,0.0
1753180916.788047,1.854119602833883,-1.3146602374366303,0.9992082118988037,-2.110441823998922,-1.570862118397848,-3.7890506426440638,-0.0,-0.0,0.0,0.0,0.0,0.0
1753180916.7901154,1.8541820685016077,-1.314634309416153,0.9991912841796875,-2.110438962975973,-1.570841137562887,-3.789020601903097,-0.0,-0.0,0.0,0.0,0.0,0.0
1753180916.7927144,1.8541234175311487,-1.314681039457657,0.9992244243621826,-2.110443731347555,-1.57086688676943,-3.7890341917621058,-0.0,-0.0,0.0,0.0,0.0,0.0
1753180916.7956977,1.8541234175311487,-1.314681039457657,0.9992244243621826,-2.110443731347555,-1.57086688676943,-3.7890341917621058,-0.0,-0.0,0.0,0.0,0.0,0.0
1753180916.7961426,1.8541234175311487,-1.314681039457657,0.9992244243621826,-2.110443731347555,-1.57086688676943,-3.7890341917621058,-0.0,-0.0,0.0,0.0,0.0,0.0
1753180916.8007152,1.8541515509234827,-1.314635918741562,0.9992437958717346,-2.110450883904928,-1.5708702246295374,-3.7889962832080286,-0.0,-0.0,0.0,0.0,0.0,0.0
1753180916.801106,1.8540790716754358,-1.31467820823703,0.9992125630378723,-2.110441823998922,-1.5708454290973108,-3.7890053431140345,-0.0,-0.0,0.0,0.0,0.0,0.0
1753180916.801957,1.8541110197650355,-1.314730094080307,0.9991993308067322,-2.110401769677633,-1.570895020161764,-3.789038960133688,-0.0,-0.0,0.0,0.0,0.0,0.0
1753180916.8037157,1.8541234175311487,-1.3146721583655854,0.9991674423217773,-2.110467096368307,-1.5708745161639612,-3.7890341917621058,-0.0,-0.0,0.0,0.0,0.0,0.0
1753180916.8057623,1.8541773001300257,-1.3146060866168519,0.9992275238037109,-2.1104842625060023,-1.57086688676943,-3.7890082041369837,-0.0,-0.0,0.0,0.0,0.0,0.0
1753180916.8085365,1.854119602833883,-1.314681039457657,0.999163031578064,-2.110438962975973,-1.570845905934469,-3.789038960133688,-0.0,-0.0,0.0,0.0,0.0,0.0
1753180916.811372,1.854119602833883,-1.314681039457657,0.999163031578064,-2.110438962975973,-1.570845905934469,-3.789038960133688,-0.0,-0.0,0.0,0.0,0.0,0.0
1753180916.8117282,1.8540905157672327,-1.3146885198405762,0.9991999268531799,-2.110443731347555,-1.570890251790182,-3.7889679113971155,-0.0,-0.0,0.0,0.0,0.0,0.0
1753180916.814081,1.8541234175311487,-1.3146513265422364,0.9992570877075195,-2.110462804833883,-1.5708578268634241,-3.7890217939959925,-1.3420333743852098e-05,-0.003266122192144394,0.0030074561946094036,0.015824217349290848,0.00019533657177817076,0.0
1753180916.815987,1.8540623823748987,-1.3146885198405762,0.9991867542266846,-2.110373159448141,-1.57086688676943,-3.789058033620016,-0.008882036432623863,-0.011305355466902256,0.011401207186281681,0.0301499180495739,0.009053593501448631,0.0
1753180916.817951,1.8541320005999964,-1.314713792209961,0.9992643594741821,-2.1103717289366664,-1.570813004170553,-3.7890506426440638,-0.007375484798103571,-0.015479630790650845,0.016416797414422035,0.029888488352298737,0.011468308977782726,0.0
1753180916.8200128,1.8540800253497522,-1.314753995542862,0.9992795586585999,-2.1102215252318324,-1.5708101431476038,-3.7890053431140345,-0.005399796180427074,-0.015099257230758667,0.01745564676821232,0.03174963220953941,0.009151583537459373,0.0019628519657999277
1753180916.8225331,1.8541243712054651,-1.3147695821574708,0.9993008375167847,-2.110216280023092,-1.5708144346820276,-3.789038960133688,-0.006329641677439213,-0.01376405544579029,0.016816044226288795,0.0337960347533226,0.01014710869640112,0.0040163081139326096
1753180916.8241138,1.8540800253497522,-1.3147362035563965,0.9992632269859314,-2.1101185284056605,-1.5708306471454065,-3.7889724413501185,-0.008333028294146061,-0.012183042243123055,0.016137946397066116,0.036171384155750275,0.011735117994248867,0.004029587376862764
1753180916.8289113,1.8540123144732874,-1.3147263687900086,0.9993277192115784,-2.1100546322264613,-1.5708277861224573,-3.7889843622790735,-0.007049735635519028,-0.010389601811766624,0.01372229028493166,0.03762287274003029,0.008880509994924068,0.0036575053818523884
1753180916.8294659,1.8540123144732874,-1.3147263687900086,0.9993277192115784,-2.1100546322264613,-1.5708277861224573,-3.7889843622790735,-0.007049735635519028,-0.010389601811766624,0.01372229028493166,0.03762287274003029,0.008880509994924068,0.0036575053818523884
1753180916.8318667,1.8540757338153284,-1.3149070602706452,0.9994205236434937,-2.109798093835348,-1.57072621980776,-3.7889979521380823,-0.009443525224924088,-0.011456022039055824,0.01402113027870655,0.04683349281549454,0.01787101849913597,0.006971023045480251
1753180916.8338194,1.854065243397848,-1.3148981791785737,0.9994603991508484,-2.109603067437643,-1.5706976095782679,-3.788974110280172,-0.009652569890022278,-0.01314070075750351,0.016430163756012917,0.05123122036457062,0.018462475389242172,0.008425465784966946
1753180916.8359368,1.853999439870016,-1.3149129313281556,0.9994387030601501,-2.109549661675924,-1.5706422964679163,-3.788983170186178,-0.009453230537474155,-0.014937079511582851,0.018737822771072388,0.05478544905781746,0.01878293603658676,0.008103795349597931
1753180916.837816,1.8540084997760218,-1.314961091881134,0.9995161294937134,-2.1094328365721644,-1.5705598036395472,-3.788950268422262,-0.010600325651466846,-0.015665456652641296,0.02017378993332386,0.05751849710941315,0.018910786136984825,0.008176639676094055
1753180916.8395505,1.8539722601519983,-1.3149657410434266,0.9995150566101074,-2.1093131504454554,-1.570524040852682,-3.788943115864889,-0.011313308961689472,-0.016725970432162285,0.021402020007371902,0.0635066032409668,0.01926393248140812,0.009663944132626057
1753180916.8417432,1.8539722601519983,-1.3149755460074921,0.9996076822280884,-2.109251638452047,-1.5705669561969202,-3.7888720671283167,-0.012079465202987194,-0.017510617151856422,0.022577576339244843,0.06665611267089844,0.01989779993891716,0.011112901382148266
1753180916.843916,1.853938404713766,-1.3150982719710846,0.9996516704559326,-2.1090737781920375,-1.5705025831805628,-3.7888618151294153,-0.012738880701363087,-0.018215980380773544,0.023843375965952873,0.0695476084947586,0.01969088241457939,0.010963043197989464
1753180916.8456655,1.8539112249957483,-1.3150684100440522,0.9997122287750244,-2.10894312481069,-1.5704787413226526,-3.7888663450824183,-0.012658506631851196,-0.019013239070773125,0.025295069441199303,0.07585789263248444,0.018329599872231483,0.010874593630433083
1753180916.8478696,1.853874985371725,-1.3151076895049592,0.999750554561615,-2.108800073663229,-1.5703895727740687,-3.788816515599386,-0.01398260984569788,-0.01922420971095562,0.026689833030104637,0.07883504033088684,0.018923211842775345,0.011571495793759823
1753180916.8497493,1.8538926283465784,-1.3151450020125885,0.9998531341552734,-2.1086064777769984,-1.57037860551943,-3.788832728062765,-0.014998785220086575,-0.020057540386915207,0.027784937992691994,0.0824001356959343,0.018719123676419258,0.011655418202280998
1753180916.851735,1.8537943998919886,-1.315204457645752,0.9999038577079773,-2.1085006199278773,-1.570329491292135,-3.7887852827655237,-0.016730425879359245,-0.021519768983125687,0.02883869968354702,0.08728682994842529,0.018992353230714798,0.012899799272418022
1753180916.8603647,1.8537047545062464,-1.3153514725020905,1.0001287460327148,-2.1079498730101527,-1.5702150503741663,-3.78870135942568,-0.01894504949450493,-0.025509702041745186,0.03202150762081146,0.0999675989151001,0.021259864792227745,0.01339603029191494
1753180916.8619936,1.8536232153521937,-1.3154600125602265,1.0002192258834839,-2.1075407467284144,-1.570151154194967,-3.7886248270617884,-0.020914122462272644,-0.027015378698706627,0.03498482704162598,0.11017395555973053,0.022333534434437752,0.013742734678089619
1753180916.8656166,1.8535707632647913,-1.3155204516700287,1.0002623796463013,-2.1073299847044886,-1.5701029936419886,-3.7885635534869593,-0.02136504091322422,-0.027789656072854996,0.03491517901420593,0.11428319662809372,0.02246825583279133,0.014204774983227253
1753180916.867546,1.8535297552691858,-1.315639929180481,1.000438928604126,-2.1068207226195277,-1.5700143019305628,-3.7885616461383265,-0.020983120426535606,-0.03010554425418377,0.03667072579264641,0.12310568988323212,0.02392144314944744,0.014301427640020847
1753180916.8704863,1.8534696737872522,-1.3156747680953522,1.000548005104065,-2.1065694294371546,-1.5699332396136683,-3.7885454336749476,-0.022304369136691093,-0.03149595111608505,0.03771650046110153,0.12945331633090973,0.02475021407008171,0.0134362718090415
1753180916.8714325,1.8534506003009241,-1.3157558602145691,1.0006067752838135,-2.1063033543028773,-1.569911305104391,-3.788523260747091,-0.02366618439555168,-0.032734859734773636,0.040328383445739746,0.13576865196228027,0.026618022471666336,0.014121156185865402
1753180916.873743,1.8533857504474085,-1.3158152860454102,1.00067138671875,-2.106047292748922,-1.5698631445514124,-3.7885142008410853,-0.02330770157277584,-0.03377571329474449,0.041191309690475464,0.14008237421512604,0.027296792715787888,0.012442142702639103
1753180916.8756673,1.8533323446856897,-1.3158898216537018,1.0006927251815796,-2.105705877343649,-1.569843594227926,-3.788499418889181,-0.02319207787513733,-0.034788183867931366,0.041005611419677734,0.14373984932899475,0.026724983006715775,0.013385155238211155
1753180916.8777068,1.853264633809225,-1.315975384121277,1.00088369846344,-2.1054517231383265,-1.5697782675372522,-3.788445059453146,-0.024027913808822632,-0.03565140813589096,0.04224073141813278,0.14640016853809357,0.027250388637185097,0.012336823157966137
1753180916.879766,1.853253189717428,-1.3160338264754792,1.000942587852478,-2.105159421960348,-1.5697100798236292,-3.7884557882892054,-0.024772776290774345,-0.03688093274831772,0.04379478469491005,0.15230341255664825,0.030012933537364006,0.011994192376732826
1753180916.8831077,1.8532136122332972,-1.3161431711963196,1.001025915145874,-2.104873319665426,-1.56964618364443,-3.7884064356433313,-0.024491017684340477,-0.0377553254365921,0.04520830139517784,0.15970218181610107,0.03048810176551342,0.012552185915410519
1753180916.8837764,1.853156868611471,-1.3162196439555665,1.0011337995529175,-2.1044918499388636,-1.5695951620685022,-3.788381878529684,-0.025169502943754196,-0.03872894495725632,0.046361908316612244,0.16251197457313538,0.031509701162576675,0.011889845132827759
1753180916.8858466,1.8531392256366175,-1.3162745994380494,1.0011851787567139,-2.104222436944479,-1.5695589224444788,-3.788332764302389,-0.024980764836072922,-0.040174394845962524,0.04753146693110466,0.16762293875217438,0.03394071012735367,0.012806957587599754
1753180916.8876345,1.8530829588519495,-1.3163536053946991,1.0012973546981812,-2.103851934472555,-1.5694869200335901,-3.7883344332324427,-0.02573229745030403,-0.04137630760669708,0.048611223697662354,0.17223377525806427,0.03426111117005348,0.01245550811290741
1753180916.8895464,1.8529775778399866,-1.3164872986129303,1.0013929605484009,-2.103501935998434,-1.5694196859942835,-3.788286034260885,-0.02728414535522461,-0.04237233102321625,0.04983047768473625,0.17669013142585754,0.034653473645448685,0.012965136207640171
1753180916.8915827,1.8529332319842737,-1.3165333730033417,1.0014880895614624,-2.103159566918844,-1.5693019072162073,-3.788304154072897,-0.02750544808804989,-0.043672531843185425,0.0513603538274765,0.1791582703590393,0.03466318920254707,0.013125189580023289
1753180916.8943598,1.8528936545001429,-1.3166128259948273,1.0015960931777954,-2.102800031701559,-1.5693243185626429,-3.7882347742663782,-0.027820657938718796,-0.044703543186187744,0.05285177752375603,0.18337276577949524,0.03724303096532822,0.013164512813091278
1753180916.895896,1.8528245131122034,-1.3167042893222352,1.001728892326355,-2.1023570499815882,-1.56915790239443,-3.7882185618029993,-0.028364356607198715,-0.0455637201666832,0.0540594644844532,0.18811224400997162,0.03838127851486206,0.013000492937862873
1753180916.8976915,1.8527973333941858,-1.3168173891356965,1.0018447637557983,-2.102032323876852,-1.5691307226764124,-3.788211170827047,-0.02892003394663334,-0.046595584601163864,0.055816758424043655,0.19267091155052185,0.039638448506593704,0.012825427576899529
1753180916.90104,1.8527129332171839,-1.3169883352569123,1.0020467042922974,-2.1012612781920375,-1.5689600149737757,-3.788147274647848,-0.030287709087133408,-0.048569947481155396,0.059744901955127716,0.20477966964244843,0.04131161794066429,0.014097293838858604
1753180916.9015155,1.8527129332171839,-1.3169883352569123,1.0020467042922974,-2.1012612781920375,-1.5689600149737757,-3.788147274647848,-0.030287709087133408,-0.048569947481155396,0.059744901955127716,0.20477966964244843,0.04131161794066429,0.014097293838858604
1753180916.9035747,1.8525727430926722,-1.3170544368079682,1.0021750926971436,-2.1008688412108363,-1.5688465277301233,-3.7881396452533167,-0.031332336366176605,-0.04962126910686493,0.0603630505502224,0.20800688862800598,0.04257611185312271,0.015403058379888535
1753180916.9056802,1.852572266255514,-1.3171995443156739,1.0023072957992554,-2.1004330120482386,-1.5687788168536585,-3.788123432789938,-0.032481804490089417,-0.05063318833708763,0.06095605343580246,0.21006493270397186,0.044018980115652084,0.01500252727419138
1753180916.9077847,1.8524907271014612,-1.3173252207091828,1.002480149269104,-2.1000191173949183,-1.5687158743487757,-3.7880311647998255,-0.032326120883226395,-0.05049009621143341,0.06217357516288757,0.21399955451488495,0.045156609266996384,0.015704484656453133
1753180916.9098315,1.8524134794818323,-1.3173837524703522,1.0025628805160522,-2.0995923481383265,-1.5686290899859827,-3.7880590597735804,-0.032859016209840775,-0.05225110426545143,0.0652579814195633,0.21929597854614258,0.04661443829536438,0.01524033397436142
1753180916.9115646,1.8523548285113733,-1.3175243002227326,1.0027719736099243,-2.099168916741842,-1.5684869925128382,-3.7879870573626917,-0.034495819360017776,-0.055025070905685425,0.06503033638000488,0.225606307387352,0.04717808589339256,0.01627318002283573
1753180916.9135787,1.8523009459124964,-1.317599133854248,1.0028386116027832,-2.0987278423705042,-1.5684164206134241,-3.787971798573629,-0.03487163782119751,-0.05429023504257202,0.06669241189956665,0.23112770915031433,0.04939201474189758,0.016722483560442924
1753180916.9181473,1.8521855513202112,-1.3177064222148438,1.0030471086502075,-2.0983320675291957,-1.5682833830462855,-3.788003985081808,-0.034368835389614105,-0.054694920778274536,0.06825554370880127,0.233945831656456,0.0504048615694046,0.016385486349463463
1753180916.9198356,1.852032486592428,-1.3179626029780884,1.003293514251709,-2.097348829308981,-1.5680630842791956,-3.787813965474264,-0.03680332005023956,-0.05878520384430885,0.07037942111492157,0.2430604249238968,0.05184217914938927,0.017355574294924736
1753180916.9216092,1.8519986311541956,-1.3180814546397706,1.0034406185150146,-2.09684481243276,-1.5680044333087366,-3.78778583208193,-0.03786952793598175,-0.05835358798503876,0.07137094438076019,0.24859115481376648,0.053119730204343796,0.018239958211779594
1753180916.9236856,1.851931397114889,-1.318190113907196,1.0036143064498901,-2.0963837109007777,-1.5679424444781702,-3.787795368825094,-0.040080513805150986,-0.05968935787677765,0.07277562469244003,0.2521776556968689,0.054255496710538864,0.019027085974812508
1753180916.9259245,1.851835076008932,-1.318358675842621,1.003761649131775,-2.0958382091917933,-1.5677602926837366,-3.7877514998065394,-0.03919379413127899,-0.06115606427192688,0.07367808371782303,0.2573068141937256,0.055256787687540054,0.018449610099196434
1753180916.927936,1.8517511526690882,-1.3184575003436585,1.0039408206939697,-2.0953685245909632,-1.5676596800433558,-3.787686888371603,-0.03955737501382828,-0.0623217336833477,0.0751374140381813,0.2594611346721649,0.054933782666921616,0.01945379190146923
1753180916.9334428,1.8515332380877894,-1.3189139825156708,1.0044358968734741,-2.093736787835592,-1.5672887007342737,-3.78760797182192,-0.043655507266521454,-0.06541167944669724,0.07972999662160873,0.27655670046806335,0.05697617307305336,0.020207803696393967
1753180916.9337072,1.8515332380877894,-1.3189139825156708,1.0044358968734741,-2.093736787835592,-1.5672887007342737,-3.78760797182192,-0.043655507266521454,-0.06541167944669724,0.07972999662160873,0.27655670046806335,0.05697617307305336,0.020207803696393967
1753180916.9352832,1.8514707724200647,-1.3190453809550782,1.0045963525772095,-2.0932070217528285,-1.5672138373004358,-3.7875545660602015,-0.044642381370067596,-0.0658160075545311,0.07950939238071442,0.2807830274105072,0.059178221970796585,0.02094687521457672
1753180916.9389784,1.8513191382037562,-1.319107399587967,1.0047751665115356,-2.092631002465719,-1.5670936743365687,-3.7875359694110315,-0.04577438533306122,-0.06865306198596954,0.08012541383504868,0.2825339436531067,0.06007051467895508,0.021321961656212807
1753180916.940517,1.8512452284442347,-1.3193048995784302,1.0049551725387573,-2.0920688114561976,-1.5669902006732386,-3.7874706427203577,-0.0469784140586853,-0.06912626326084137,0.08254408836364746,0.2851398289203644,0.05812479555606842,0.022060247138142586
1753180916.9419956,1.8511818091021937,-1.3194313210299988,1.0051186084747314,-2.091489931146139,-1.5668585936175745,-3.7874155680285853,-0.047233808785676956,-0.06959521770477295,0.08319082111120224,0.2916138172149658,0.05980965122580528,0.023442840203642845
1753180916.9438193,1.8510249296771448,-1.3195961278728028,1.005318522453308,-2.09091915706777,-1.5667226950274866,-3.7874119917498987,-0.048827238380908966,-0.07095034420490265,0.0850624069571495,0.2959594428539276,0.06392481178045273,0.02360113151371479
1753180916.9455798,1.8509615103351038,-1.319739745264389,1.0054614543914795,-2.0903107128539027,-1.5665724913226526,-3.787372414265768,-0.049705419689416885,-0.07205246388912201,0.08645446598529816,0.2971716523170471,0.06106409803032875,0.024488111957907677
1753180916.947611,1.8508456389056605,-1.319866881971695,1.0056700706481934,-2.089691301385397,-1.5665033499347132,-3.787283245717184,-0.049835413694381714,-0.07362505793571472,0.08777056634426117,0.3007426857948303,0.06333982944488525,0.0248250849545002
1753180916.9495792,1.850745979939596,-1.3200021547130127,1.0058248043060303,-2.089097639123434,-1.5663254896747034,-3.787243191395895,-0.05112556368112564,-0.07469327747821808,0.08857019245624542,0.30722281336784363,0.0653180256485939,0.02421525865793228
1753180916.9515448,1.8506596724139612,-1.3201575142196198,1.006012201309204,-2.088426252404684,-1.5661819616900843,-3.7871509234057825,-0.051565803587436676,-0.07566190510988235,0.08981490135192871,0.3113131821155548,0.06644131243228912,0.024807875975966454
1753180916.9538481,1.8505829016314905,-1.3203544181636353,1.006232738494873,-2.087832113305563,-1.5660703817950647,-3.7871764341937464,-0.05280957370996475,-0.0768992155790329,0.09102906286716461,0.31491154432296753,0.06798747926950455,0.024941155686974525
1753180916.9554584,1.8504522482501429,-1.3205103737166901,1.0064070224761963,-2.0872231922545375,-1.5659626165973108,-3.787112061177389,-0.05419071018695831,-0.07770820707082748,0.0914706215262413,0.3154103755950928,0.06832702457904816,0.02560644969344139
1753180916.957705,1.8503554503070276,-1.320607916717865,1.0066355466842651,-2.086513181725973,-1.5658233801471155,-3.787011210118429,-0.05449940264225006,-0.07860884070396423,0.09301884472370148,0.32009661197662354,0.06949477642774582,0.026365995407104492
1753180916.960092,1.850203816090719,-1.320800395017006,1.0068022012710571,-2.0859228573241175,-1.5657127539264124,-3.786931101475851,-0.055520787835121155,-0.07959344238042831,0.0925569087266922,0.3255753517150879,0.07208503782749176,0.025934960693120956
1753180916.9621062,1.8501241842852991,-1.3210536402514954,1.0070109367370605,-2.08520044902944,-1.5655272642718714,-3.786919418965475,-0.056104592978954315,-0.08052852004766464,0.0962345227599144,0.32713642716407776,0.07012983411550522,0.026752416044473648
1753180916.9651859,1.8499863783465784,-1.3211363714984437,1.0072470903396606,-2.0845962963499964,-1.5653460661517542,-3.7869043985949915,-0.056847065687179565,-0.08171579986810684,0.09619086980819702,0.329144686460495,0.07259190082550049,0.027487393468618393
1753180916.9655337,1.849860970173971,-1.3212785434773942,1.0073562860488892,-2.083897729913229,-1.5652435461627405,-3.7868364492999476,-0.05768764764070511,-0.08229587227106094,0.0977197214961052,0.33360451459884644,0.07553941011428833,0.02746274694800377
1753180916.9674413,1.8497832457171839,-1.32146272182975,1.0076080560684204,-2.0831734142699183,-1.5650580565081995,-3.786797348652975,-0.0582088939845562,-0.08284865319728851,0.09928068518638611,0.3390740752220154,0.07362385094165802,0.027775678783655167
1753180916.9728093,1.8496511618243616,-1.3216432195952912,1.007788062095642,-2.082473417321676,-1.5649192968951624,-3.7867210547076624,-0.06017274782061577,-0.08404512703418732,0.10022516548633575,0.3428170680999756,0.07661470770835876,0.02770950086414814
1753180916.9735289,1.8493884245501917,-1.3219959449819108,1.0081939697265625,-2.0810820064940394,-1.5646241346942347,-3.7866132895099085,-0.05915938690304756,-0.08431068062782288,0.10254444181919098,0.34739965200424194,0.07785429060459137,0.02854018472135067
1753180916.9755561,1.8492892424212855,-1.3221001637033005,1.0084874629974365,-2.080348630944723,-1.5644939581500452,-3.78652006784548,-0.06129021197557449,-0.08725816011428833,0.1041221022605896,0.35500580072402954,0.0792621299624443,0.02888510935008526
1753180916.9776042,1.8492100874530237,-1.3223264825395127,1.0086380243301392,-2.0795566044249476,-1.564324204121725,-3.78648025194277,-0.06499898433685303,-0.08652050793170929,0.10561949014663696,0.3562069833278656,0.07996633648872375,0.029465286061167717
1753180916.97964,1.849138085042135,-1.3225131195834656,1.0088725090026855,-2.0788637600340785,-1.5641863981830042,-3.786445442830221,-0.06195427104830742,-0.08742772787809372,0.10637190192937851,0.35733333230018616,0.07967846840620041,0.03016025945544243
1753180916.981435,1.8489673773394983,-1.3226765406182786,1.0090886354446411,-2.0781451664366664,-1.564038101826803,-3.7863531748401087,-0.06406018882989883,-0.0886998102068901,0.10790762305259705,0.3640170097351074,0.08096776902675629,0.03039274737238884
1753180916.983611,1.8488648573504847,-1.3228862893632432,1.0093486309051514,-2.0773736439146937,-1.5638073126422327,-3.78629714647402,-0.0655069351196289,-0.08895374834537506,0.10876546055078506,0.3692786991596222,0.08253048360347748,0.030849236994981766
1753180916.985521,1.8486951033221644,-1.3230447483113785,1.0095847845077515,-2.076625486413473,-1.5636933485614222,-3.7862656752215784,-0.06537938863039017,-0.09178692102432251,0.1099703311920166,0.3680332601070404,0.0838652029633522,0.03070128709077835
1753180916.9876199,1.848581616078512,-1.3232169610312958,1.0097990036010742,-2.0758749447264613,-1.5634902159320276,-3.7861486116992396,-0.06656153500080109,-0.0908665582537651,0.11131812632083893,0.3744354248046875,0.08472353219985962,0.03057035617530346
1753180916.9897778,1.8484228293048304,-1.3234062951854249,1.0100233554840088,-2.0751534901061,-1.5633490721331995,-3.7861173788653772,-0.06730935722589493,-0.09300363063812256,0.11245916038751602,0.38029661774635315,0.08572627604007721,0.030971482396125793
1753180916.992017,1.8483174482928675,-1.323574499492981,1.0102907419204712,-2.0744201145567835,-1.5631573835956019,-3.7860901991473597,-0.06708471477031708,-0.09256937354803085,0.11399967968463898,0.3849785029888153,0.08781592547893524,0.0313866101205349
1753180916.9941761,1.848161522542135,-1.3237960946610947,1.010560154914856,-2.073656221429342,-1.5629566351519983,-3.785952631627218,-0.07029536366462708,-0.09366921335458755,0.11508158594369888,0.38789623975753784,0.08839672058820724,0.031774286180734634
1753180916.9962807,1.848048512135641,-1.323966385131218,1.0107207298278809,-2.0728665790953578,-1.562777344380514,-3.785933319722311,-0.06717945635318756,-0.09466631710529327,0.11758877336978912,0.3941231667995453,0.08702943474054337,0.03174806013703346
1753180916.998671,1.8478806654559534,-1.3241715294173737,1.0109816789627075,-2.072054525414938,-1.562610928212301,-3.7858617941485804,-0.06947970390319824,-0.09537666290998459,0.11691653728485107,0.39867228269577026,0.09210941940546036,0.0325857512652874
1753180916.9995484,1.8477829138385218,-1.3243989211371918,1.0112038850784302,-2.0712720356383265,-1.5624435583697718,-3.7857933680163782,-0.07350137084722519,-0.09639288485050201,0.11973480135202408,0.40084201097488403,0.08897501975297928,0.033415600657463074
1753180917.0016038,1.8476126829730433,-1.3245250147632142,1.0114437341690063,-2.0704504452147425,-1.5622342268573206,-3.7856889406787317,-0.070297971367836,-0.09694697707891464,0.11981448531150818,0.40577980875968933,0.09102561324834824,0.03372248262166977
1753180917.0037239,1.8474867979632776,-1.3247160923532029,1.0117322206497192,-2.069667478600973,-1.5620673338519495,-3.7856577078448694,-0.07331430166959763,-0.09737741947174072,0.12087506800889969,0.41359496116638184,0.09261933714151382,0.034528255462646484
1753180917.0056581,1.847358528767721,-1.3248914790204545,1.011959195137024,-2.0688487492003382,-1.561883274708883,-3.785590473805563,-0.07397235929965973,-0.0983051061630249,0.12256159633398056,0.41566067934036255,0.09258230030536652,0.036454204469919205
1753180917.0075674,1.8471782843219202,-1.3251323860934754,1.0121976137161255,-2.067995687524313,-1.5617154280291956,-3.7854982058154505,-0.07492365688085556,-0.09894788265228271,0.12418248504400253,0.42235785722732544,0.09227917343378067,0.035946186631917953
1753180917.0096993,1.8469999472247522,-1.3253356975368042,1.0124212503433228,-2.067172189752096,-1.5615485350238245,-3.7854092756854456,-0.07604505866765976,-0.10005028545856476,0.12541469931602478,0.429460346698761,0.09685374796390533,0.034813735634088516
1753180917.0115652,1.8468831221209925,-1.3255771857551117,1.0127286911010742,-2.0663472614684046,-1.5613520781146448,-3.785325590764181,-0.07670458406209946,-0.10126326978206635,0.12705138325691223,0.432513028383255,0.09475945681333542,0.036068279296159744
1753180917.0135841,1.8466904799090784,-1.3257098358920594,1.0129972696304321,-2.0654007397093714,-1.5611651579486292,-3.7852986494647425,-0.077481210231781,-0.10204796493053436,0.12883342802524567,0.43926844000816345,0.09799373149871826,0.03606156259775162
1753180917.0156631,1.8466551939593714,-1.325937644844391,1.0132373571395874,-2.0645719967284144,-1.5609810988055628,-3.7851694265948694,-0.07811102271080017,-0.10198928415775299,0.12922999262809753,0.4450870156288147,0.09733051061630249,0.03596116974949837
1753180917.0209663,1.8463628927813929,-1.3261502099088212,1.0134674310684204,-2.063674112359518,-1.5607321898089808,-3.7851584593402308,-0.07955583184957504,-0.10298975557088852,0.13139620423316956,0.4475044310092926,0.0977722555398941,0.03804925084114075
1753180917.0215495,1.8460925261126917,-1.3265728515437623,1.0139704942703247,-2.061918874780172,-1.5603421370135706,-3.7849252859698694,-0.08071397244930267,-0.10432295501232147,0.13382506370544434,0.46006518602371216,0.1015261858701706,0.03487592190504074
1753180917.0237398,1.84593373933901,-1.326838643555977,1.014249563217163,-2.060986658135885,-1.5601218382464808,-3.7849510351764124,-0.08156377822160721,-0.10584565252065659,0.1352926343679428,0.46175676584243774,0.101981982588768,0.03560273349285126
1753180917.0256414,1.8457930723773401,-1.3270116758397599,1.0145258903503418,-2.060098787347311,-1.5599091688739222,-3.784842316304342,-0.08252418041229248,-0.10608242452144623,0.1371588557958603,0.46569663286209106,0.10374388098716736,0.03729007765650749
1753180917.0276926,1.845642391835348,-1.3272226315787812,1.0148082971572876,-2.059089799920553,-1.5597379843341272,-3.7847259680377405,-0.08633344620466232,-0.10928202420473099,0.13961832225322723,0.47537317872047424,0.10355076938867569,0.037751052528619766
1753180917.0299413,1.8454912344561976,-1.3273882281831284,1.0150485038757324,-2.0581699810423792,-1.5595267454730433,-3.784653965626852,-0.08414899557828903,-0.10850439220666885,0.13913463056087494,0.4755079448223114,0.10563021153211594,0.03696371242403984
1753180917.0339332,1.845301930104391,-1.3276702028563996,1.0153309106826782,-2.057187696496481,-1.5593188444720667,-3.784619156514303,-0.08578742295503616,-0.11157107353210449,0.1413036584854126,0.4825132489204407,0.10659383982419968,0.037490326911211014
1753180917.0357606,1.844938103352682,-1.3281430912068863,1.0158699750900269,-2.0551725826659144,-1.558899227772848,-3.784447256718771,-0.08896142244338989,-0.11202994734048843,0.14412525296211243,0.4861997961997986,0.10754813998937607,0.037393148988485336
1753180917.037773,1.8447836081134241,-1.3283361059478302,1.0161687135696411,-2.05422367672109,-1.5586956183062952,-3.784353796635763,-0.08872424811124802,-0.11300016939640045,0.1449442058801651,0.4918264150619507,0.10892079025506973,0.039076801389455795
1753180917.0400996,1.8445480505572718,-1.3285560619882126,1.016465187072754,-2.0532051525511683,-1.558504883443014,-3.7842446009265345,-0.08993199467658997,-0.11421842873096466,0.14648748934268951,0.4925960898399353,0.11101852357387543,0.03986847400665283
1753180917.041985,1.8443506399737757,-1.3287581366351624,1.0167810916900635,-2.0521918735899867,-1.5582273642169397,-3.7842140833484095,-0.09115689247846603,-0.1154160350561142,0.14816199243068695,0.49640876054763794,0.1109132319688797,0.03757815435528755
1753180917.0436616,1.8441670576678675,-1.3290064942887803,1.0170522928237915,-2.051131864587301,-1.5580361525165003,-3.784121338521139,-0.09094655513763428,-0.11674012243747711,0.14968208968639374,0.5023349523544312,0.11485128849744797,0.03830505907535553
1753180917.045617,1.8440263907061976,-1.3292668622783204,1.0173143148422241,-2.0501448116698207,-1.5578206221209925,-3.7839956919299524,-0.09563450515270233,-0.11788643896579742,0.14995872974395752,0.5013390779495239,0.1153523400425911,0.040002837777137756
1753180917.0475774,1.8438833395587366,-1.3294958782247086,1.0176217555999756,-2.0490900478758753,-1.5576308409320276,-3.7840121428119105,-0.09164552390575409,-0.11916301399469376,0.15217943489551544,0.5085206627845764,0.11592691391706467,0.03936704620718956
1753180917.0495517,1.8436124960528772,-1.3296813678792496,1.0179089307785034,-2.0480996570982875,-1.5573495070086878,-3.7839117685901087,-0.0950046181678772,-0.11891168355941772,0.1542886644601822,0.5085458755493164,0.12088850140571594,0.042187049984931946
1753180917.0515773,1.843400780354635,-1.3299326610616227,1.0182578563690186,-2.047004838983053,-1.5571587721454065,-3.783786121998922,-0.09263283014297485,-0.12046106159687042,0.1564347743988037,0.5103495121002197,0.11763177067041397,0.04136670380830765
1753180917.0535908,1.8432982603656214,-1.330164448623993,1.0185434818267822,-2.0459939442076625,-1.5568745771991175,-3.7837887446032923,-0.0949815958738327,-0.11986403167247772,0.15820102393627167,0.5162108540534973,0.12145431339740753,0.04013141244649887
1753180917.0556915,1.8430445829974573,-1.3304280054620286,1.0188875198364258,-2.0449301205077113,-1.5566495100604456,-3.783576790486471,-0.09594972431659698,-0.12119744718074799,0.1604270339012146,0.5180491209030151,0.12124231457710266,0.04234909638762474
1753180917.0576885,1.8429015318499964,-1.3306641292623063,1.01912522315979,-2.043892046014303,-1.5564067999469202,-3.7834673563586634,-0.09617101401090622,-0.12151842564344406,0.16241852939128876,0.5221924185752869,0.12267882376909256,0.042582541704177856
1753180917.0598252,1.8426430861102503,-1.330824838285782,1.0194898843765259,-2.042846818963522,-1.5561955610858362,-3.783495012913839,-0.09738755971193314,-0.1213778629899025,0.16322137415409088,0.524430513381958,0.12267758697271347,0.041803523898124695
1753180917.0620728,1.8424680868731897,-1.331129716043808,1.0198498964309692,-2.041800638238424,-1.5558865706073206,-3.783396307622091,-0.09900318086147308,-0.12213121354579926,0.16544334590435028,0.5271998643875122,0.12338871508836746,0.043546076864004135
1753180917.0656252,1.8422711531268519,-1.3313357842019578,1.02019464969635,-2.040741582910055,-1.555617634450094,-3.7832661310779017,-0.09955200552940369,-0.12375170737504959,0.16638723015785217,0.5345105528831482,0.12437406927347183,0.043351344764232635
1753180917.0658813,1.8421257177936,-1.3316041094115754,1.0204510688781738,-2.039685388604635,-1.5554526487933558,-3.7832239309894007,-0.10142460465431213,-0.12220250815153122,0.16765353083610535,0.534570574760437,0.1252557337284088,0.04290413483977318
1753180917.071519,1.841834847127096,-1.331852452164032,1.0208923816680908,-2.038654943505758,-1.5551894346820276,-3.7830775419818323,-0.10236740857362747,-0.1238093450665474,0.169295996427536,0.5448746085166931,0.1245507001876831,0.043441131711006165
1753180917.07183,1.8414934317218226,-1.3323882979205628,1.021461009979248,-2.036494871179098,-1.5546558539019983,-3.7829068342791956,-0.10733803361654282,-0.12345091998577118,0.17156672477722168,0.552131175994873,0.12707090377807617,0.04344387724995613
1753180917.0735087,1.8412440458880823,-1.332618610267975,1.0218451023101807,-2.035408159295553,-1.5544293562518519,-3.7828636805163782,-0.1033545583486557,-0.12332220375537872,0.17338837683200836,0.5580330491065979,0.13033929467201233,0.04362427815794945
1753180917.0756018,1.8410523573504847,-1.3328864586404343,1.0221964120864868,-2.0342804394164027,-1.554107968007223,-3.782780472432272,-0.10883531719446182,-0.12307627499103546,0.17460404336452484,0.5616099834442139,0.13025371730327606,0.044187262654304504
1753180917.0776389,1.8407953421222132,-1.3331328940442582,1.0225880146026611,-2.033114572564596,-1.5538738409625452,-3.782663885747091,-0.10212364047765732,-0.12052547186613083,0.17303386330604553,0.5610994100570679,0.12796975672245026,0.04314866289496422
1753180917.0795362,1.840654198323385,-1.3333641749671479,1.022865891456604,-2.0320493183531703,-1.553638760243551,-3.7826176325427454,-0.10109644383192062,-0.11655010282993317,0.16868071258068085,0.5587342381477356,0.12300543487071991,0.043609704822301865
1753180917.0815425,1.840400520955221,-1.3335777682117005,1.0232011079788208,-2.031020303765768,-1.55334979692568,-3.782454315816061,-0.10092955082654953,-0.11427691578865051,0.16361743211746216,0.5639069676399231,0.12156934291124344,0.04278147965669632
1753180917.0835207,1.8402469793902796,-1.333868296151497,1.0235698223114014,-2.0298997364439906,-1.55312425294985,-3.7824321428882044,-0.10312741249799728,-0.11380580812692642,0.162754625082016,0.5617550611495972,0.12704336643218994,0.04309288039803505
1753180917.0855403,1.8399580160724085,-1.3341319125941773,1.023884892463684,-2.0288197002806605,-1.5528553167926233,-3.782311741505758,-0.10132715851068497,-0.11699998378753662,0.16511161625385284,0.5619836449623108,0.12472809106111526,0.04335919767618179
1753180917.0875897,1.8397563139544886,-1.3343499910882493,1.0242197513580322,-2.027675767938131,-1.5525835196124476,-3.7822731176959437,-0.10622134804725647,-0.11907267570495605,0.16864734888076782,0.5635713338851929,0.12731480598449707,0.0438745878636837
1753180917.089518,1.8395383993731897,-1.3346268099597474,1.0245749950408936,-2.026518007318014,-1.5523164908038538,-3.782140080128805,-0.10451186448335648,-0.12248067557811737,0.17333674430847168,0.5652236938476562,0.13018570840358734,0.04320326820015907
1753180917.091546,1.8392823378192347,-1.334859923725464,1.0249223709106445,-2.0253755054869593,-1.5520437399493616,-3.782093350087301,-0.11012818664312363,-0.12492761760950089,0.17747558653354645,0.5680948495864868,0.13285177946090698,0.04346300661563873
1753180917.0950224,1.8390715757953089,-1.3351749044707795,1.025261640548706,-2.0242778263487757,-1.5518000761615198,-3.7819767634021204,-0.10705748945474625,-0.12616150081157684,0.17910464107990265,0.5659695863723755,0.13309766352176666,0.042653247714042664
1753180917.096031,1.8388684431659144,-1.335379422908165,1.0255712270736694,-2.0231267414488734,-1.5515735785113733,-3.7819419542895716,-0.10780902206897736,-0.12493748962879181,0.17740611732006073,0.5686107873916626,0.13161534070968628,0.04343227297067642
1753180917.0981374,1.8387263456927698,-1.3356644970229645,1.025913953781128,-2.0219503841795863,-1.551269833241598,-3.7818461100207728,-0.10849260538816452,-0.12429700046777725,0.17574748396873474,0.565012514591217,0.13098526000976562,0.0428990013897419
1753180917.101898,1.8384116331683558,-1.335927666430809,1.026297926902771,-2.020820280114645,-1.5510628859149378,-3.781741205845968,-0.10788300633430481,-0.12210790067911148,0.17380468547344208,0.5648714900016785,0.12929123640060425,0.04314832761883736
1753180917.102167,1.8382414023028772,-1.3361295473626633,1.026617407798767,-2.019675394097799,-1.5507538954364222,-3.781658713017599,-0.10806453973054886,-0.12350380420684814,0.17308014631271362,0.5648554563522339,0.1308126598596573,0.04329342022538185
1753180917.1039262,1.8379672209369105,-1.3364253801158448,1.0269558429718018,-2.0184995136656703,-1.5505483786212366,-3.7815776507007044,-0.10854098945856094,-0.12177719175815582,0.17383702099323273,0.5642895698547363,0.1296250969171524,0.042816080152988434
1753180917.1060245,1.8378217856036585,-1.3366721731475373,1.0273487567901611,-2.0173660717406214,-1.5502341429339808,-3.7815526167498987,-0.10886962711811066,-0.12140122056007385,0.17400498688220978,0.5650340914726257,0.12958166003227234,0.04328520596027374
1753180917.107877,1.8376110235797327,-1.336933122282364,1.0276843309402466,-2.01616968731069,-1.5499542395221155,-3.78141433397402,-0.10922131687402725,-0.12168021500110626,0.1731915920972824,0.5611417293548584,0.13023130595684052,0.04512347653508186
1753180917.10991,1.8373444716082972,-1.3372128021768113,1.0280431509017944,-2.015104909936422,-1.5497306028949183,-3.781330410634176,-0.10921194404363632,-0.12181389331817627,0.1735558956861496,0.5623173117637634,0.13207027316093445,0.042180825024843216
1753180917.1136262,1.8371432463275355,-1.3374147874167939,1.0283739566802979,-2.013989110986227,-1.5494673887835901,-3.7812212149249476,-0.10679541528224945,-0.12150799483060837,0.17284847795963287,0.5596829652786255,0.13129574060440063,0.0427180640399456
1753180917.1142645,1.8369100729571741,-1.3377279353192826,1.0287091732025146,-2.012848516503805,-1.5492051283465784,-3.7811506430255335,-0.11057934165000916,-0.12101547420024872,0.17278078198432922,0.5582823753356934,0.13169364631175995,0.04334287717938423
1753180917.1159306,1.8367274443255823,-1.3378848892501374,1.0290648937225342,-2.011768480340475,-1.5489829222308558,-3.781045977269308,-0.10792321711778641,-0.12121529877185822,0.17319685220718384,0.5562952160835266,0.13498537242412567,0.04431818425655365
1753180917.117898,1.836520020161764,-1.3382110309651871,1.0294121503829956,-2.010613103906149,-1.5487435499774378,-3.780947987233297,-0.10868217796087265,-0.12153640389442444,0.17291758954524994,0.5548802614212036,0.13103143870830536,0.04544855281710625
1753180917.1205785,1.83630878130068,-1.3384668093970795,1.0297492742538452,-2.0095511875548304,-1.548396412526266,-3.7808857599841517,-0.10897715389728546,-0.12125702947378159,0.17407558858394623,0.5599361658096313,0.13129672408103943,0.04228181019425392
1753180917.1218927,1.8360675016986292,-1.3386698824218293,1.0300606489181519,-2.0084077320494593,-1.5481584707843226,-3.7807942072497767,-0.10919759422540665,-0.12248432636260986,0.17474085092544556,0.5535406470298767,0.13194911181926727,0.042821142822504044
1753180917.1280525,1.83563739458193,-1.3391883385232468,1.0308111906051636,-2.006197591821188,-1.5475977102862757,-3.780651632939474,-0.10949331521987915,-0.12039835751056671,0.17442820966243744,0.5563941597938538,0.13148654997348785,0.0440421961247921
1753180917.130179,1.83563739458193,-1.3391883385232468,1.0308111906051636,-2.006197591821188,-1.5475977102862757,-3.780651632939474,-0.10949331521987915,-0.12039835751056671,0.17442820966243744,0.5563941597938538,0.13148654997348785,0.0440421961247921
1753180917.130852,1.8353789488421839,-1.3393897277167817,1.0311588048934937,-2.0051714382567347,-1.5473645369159144,-3.7805588881122034,-0.10884501785039902,-0.12060155719518661,0.17369723320007324,0.5587485432624817,0.13186922669410706,0.04329540207982063
1753180917.1320148,1.8349641005145472,-1.3398691427758713,1.0318546295166016,-2.0029641590514125,-1.5467742125140589,-3.780379120503561,-0.10989577323198318,-0.12025671452283859,0.17341694235801697,0.5610257983207703,0.1331799030303955,0.04401922598481178
1753180917.1354558,1.8347237745868128,-1.3401201975396653,1.032212495803833,-2.001871248284811,-1.5465553442584437,-3.780299488698141,-0.11356769502162933,-0.11993186175823212,0.17352871596813202,0.5603623390197754,0.1308853179216385,0.043026745319366455
1753180917.135758,1.8344948927508753,-1.3403520447066803,1.0325270891189575,-2.0007134876646937,-1.5462606588946741,-3.780187431965963,-0.11196856200695038,-0.120230533182621,0.17372570931911469,0.5613572001457214,0.13502034544944763,0.043941326439380646
1753180917.137599,1.8342884222613733,-1.3406079870513459,1.0329163074493408,-1.9995843372740687,-1.545959774647848,-3.7801228205310267,-0.11216337233781815,-0.11966592073440552,0.17400754988193512,0.5653373003005981,0.13434721529483795,0.0456731803715229
1753180917.1400237,1.8340604940997522,-1.3407936108163376,1.0332670211791992,-1.9985233745970667,-1.5456650892840784,-3.7800431887256067,-0.11287696659564972,-0.11940708011388779,0.17427371442317963,0.5608745813369751,0.13455830514431,0.042267195880413055
1753180917.1415346,1.8337667624102991,-1.3410865527442475,1.0335878133773804,-1.9973694286742152,-1.5453980604754847,-3.779940191899435,-0.11300680041313171,-0.11921680718660355,0.17391912639141083,0.5660771131515503,0.13408999145030975,0.04239889234304428
1753180917.1442964,1.8335545698748987,-1.341285840874054,1.0339962244033813,-1.9961902103819789,-1.5451744238482874,-3.779860560094015,-0.11343574523925781,-0.11873498558998108,0.1747681051492691,0.5637331604957581,0.1323179304599762,0.04117901623249054
1753180917.14573,1.8333404699908655,-1.3415345710567017,1.0343530178070068,-1.9950858555235804,-1.5448945204364222,-3.7797511259662073,-0.11214441061019897,-0.1183290109038353,0.17536118626594543,0.5627367496490479,0.13113398849964142,0.04378562793135643
1753180917.147595,1.8330910841571253,-1.3417863708785553,1.0346906185150146,-1.993894716302389,-1.5446189085589808,-3.7797046343432825,-0.11489865928888321,-0.11769284307956696,0.17534445226192474,0.5656859874725342,0.1322350800037384,0.0441303588449955
1753180917.1496274,1.8329079786883753,-1.3419391077807923,1.0350884199142456,-1.9927932224669398,-1.5443795363055628,-3.779599730168478,-0.11136806756258011,-0.11719368398189545,0.17408199608325958,0.5636732578277588,0.1288781315088272,0.04222578927874565
1753180917.151802,1.8326261679278772,-1.3421829801848908,1.035374641418457,-1.991634031335348,-1.544119660054342,-3.77952486673464,-0.11468926072120667,-0.11716152727603912,0.17320531606674194,0.5642651319503784,0.13115549087524414,0.04130079597234726
1753180917.1538522,1.832437817250387,-1.3424253028682251,1.0357916355133057,-1.9905153713622035,-1.5438116232501429,-3.7794230620013636,-0.11311984062194824,-0.11672502756118774,0.1735011786222458,0.5601903200149536,0.1323627084493637,0.04277550429105759
1753180917.1557055,1.8321998755084437,-1.3426313561252137,1.0361545085906982,-1.9893776379027308,-1.5435641447650355,-3.779397789631979,-0.1136244386434555,-0.11625777930021286,0.17325790226459503,0.5601798295974731,0.13421931862831116,0.0427071638405323
1753180917.1577237,1.8319605032550257,-1.3429203790477295,1.0365179777145386,-1.9881826839842738,-1.54326039949526,-3.77926475206484,-0.1135125458240509,-0.11522465944290161,0.1731976866722107,0.5567805767059326,0.13494329154491425,0.04301882162690163
1753180917.1597004,1.8316667715655726,-1.3431158673814316,1.0368601083755493,-1.9870592556395472,-1.5430462996112269,-3.7792418638812464,-0.11388128250837326,-0.11481065303087234,0.1730983853340149,0.5584197640419006,0.13225074112415314,0.042445410043001175
1753180917.1619937,1.8315580526935022,-1.3433593672565003,1.0372029542922974,-1.9858628712096156,-1.5427125136004847,-3.7790804545031946,-0.11329517513513565,-0.11456958949565887,0.1728045791387558,0.5568525195121765,0.13230907917022705,0.0429813452064991
1753180917.163972,1.831259552632467,-1.3435619634440918,1.0375744104385376,-1.9847570858397425,-1.542490307484762,-3.779032055531637,-0.11663763225078583,-0.1144474446773529,0.17291055619716644,0.5537286996841431,0.1346098631620407,0.0431831032037735
1753180917.1659777,1.8309839407550257,-1.343798355465271,1.0379055738449097,-1.9836460552611292,-1.5421984831439417,-3.778973642979757,-0.11206238716840744,-0.11514053493738174,0.17226117849349976,0.5556728839874268,0.13141678273677826,0.04301435500383377
1753180917.1696029,1.8308842817889612,-1.3440354031375428,1.0382765531539917,-1.9825355015196742,-1.541915241871969,-3.7788687388049524,-0.11744070798158646,-0.11448998749256134,0.17258653044700623,0.5493977069854736,0.1326400637626648,0.04331750050187111
1753180917.1699102,1.8306573073016565,-1.3443129819682618,1.0386720895767212,-1.9814382992186488,-1.5416563192950647,-3.7787683645831507,-0.11202774196863174,-0.11468714475631714,0.17273443937301636,0.5516422986984253,0.132223978638649,0.04355478659272194
1753180917.1715822,1.830362621937887,-1.3444443059018631,1.038994550704956,-1.9803639851012171,-1.5414207617389124,-3.7786815802203577,-0.11280793696641922,-0.1148570328950882,0.17157456278800964,0.5469862222671509,0.13371877372264862,0.04339398443698883
1753180917.1740472,1.830134693776266,-1.3446976703456421,1.0393712520599365,-1.9792195759215296,-1.541128937398092,-3.778576676045553,-0.11306371539831161,-0.11436568945646286,0.17101846635341644,0.5495368242263794,0.13491567969322205,0.04374793916940689
1753180917.1756065,1.8298943678485315,-1.3449284595302125,1.0397717952728271,-1.978154798547262,-1.540865723286764,-3.7784720102893274,-0.11242273449897766,-0.11436991393566132,0.17070135474205017,0.5508451461791992,0.1331753134727478,0.04322963207960129
1753180917.1776478,1.8297041098224085,-1.3451621246388932,1.0401136875152588,-1.977044244805807,-1.5405524412738245,-3.7784679571734827,-0.11247356981039047,-0.11428003013134003,0.1711561232805252,0.5472651124000549,0.13812527060508728,0.043487273156642914
1753180917.179628,1.8294513861285608,-1.3453557950309296,1.0404654741287231,-1.976060529748434,-1.540297810231344,-3.778336826954977,-0.1130652204155922,-0.11402370780706406,0.1713765263557434,0.5514604449272156,0.13511094450950623,0.04330955073237419
1753180917.185995,1.8292220274554651,-1.3456313026002427,1.0407838821411133,-1.9749094448485316,-1.5399969259845179,-3.778261963521139,-0.11188461631536484,-0.11388951539993286,0.17142528295516968,0.5469175577163696,0.1361706703901291,0.043292827904224396
1753180917.1878834,1.8285186926471155,-1.3462234002402802,1.0418857336044312,-1.971673151055807,-1.539149586354391,-3.7779818216906946,-0.11544694006443024,-0.11338259279727936,0.17142990231513977,0.5530539155006409,0.13303057849407196,0.04227621853351593
1753180917.1896565,1.8282964865313929,-1.3465051513961335,1.0422567129135132,-1.9705525837340296,-1.5389307180987757,-3.777931276951925,-0.1141432672739029,-0.11234224587678909,0.17072953283786774,0.5553756356239319,0.13317057490348816,0.04245826601982117
1753180917.1915627,1.8280304113971155,-1.34670706213031,1.042572259902954,-1.9694997272887171,-1.5386837164508265,-3.777884546910421,-0.11515706777572632,-0.11216206848621368,0.1714799404144287,0.5555699467658997,0.13469305634498596,0.04219747334718704
1753180917.1938875,1.827799145375387,-1.3469111782363434,1.0428775548934937,-1.96842684368276,-1.5384123961078089,-3.777733866368429,-0.11567143350839615,-0.11063338816165924,0.1718144565820694,0.5628538131713867,0.13492704927921295,0.04155511036515236
1753180917.195826,1.827550236378805,-1.3471429508975525,1.043265700340271,-1.9673177204527796,-1.5380876700030726,-3.777695957814352,-0.1160053089261055,-0.11019971966743469,0.17020633816719055,0.5571240186691284,0.13658730685710907,0.04148545116186142
1753180917.1977103,1.8273566404925745,-1.3473303031972428,1.0435642004013062,-1.9661842785277308,-1.5378325621234339,-3.7775893847094935,-0.11653532087802887,-0.10995423048734665,0.1702452152967453,0.560340940952301,0.13908810913562775,0.040041256695985794
1753180917.2016375,1.8270838896380823,-1.347582609658577,1.0439329147338867,-1.9650441608824671,-1.5375526587115687,-3.7774863878833216,-0.11604781448841095,-0.10984555631875992,0.1710251122713089,0.5590184330940247,0.13708901405334473,0.04200424626469612
1753180917.2019243,1.8270838896380823,-1.347582609658577,1.0439329147338867,-1.9650441608824671,-1.5375526587115687,-3.7774863878833216,-0.11604781448841095,-0.10984555631875992,0.1710251122713089,0.5590184330940247,0.13708901405334473,0.04200424626469612
1753180917.2034578,1.8265755812274378,-1.3480305534652253,1.0445863008499146,-1.9627858601012171,-1.537025276814596,-3.777313772832052,-0.11750331521034241,-0.10962694138288498,0.17070932686328888,0.5614044070243835,0.13495022058486938,0.041582778096199036
1753180917.205582,1.8263619581805628,-1.3482505244067688,1.0449668169021606,-1.9616004429259242,-1.5367468039142054,-3.77730375925173,-0.1171756237745285,-0.11130773276090622,0.170864537358284,0.561505138874054,0.1348932832479477,0.0395558625459671
1753180917.207887,1.8261101881610315,-1.3484694224647065,1.0452940464019775,-1.9605208835997523,-1.5364459196673792,-3.7771697680102747,-0.11881805956363678,-0.11017150431871414,0.17100265622138977,0.5632357597351074,0.13577108085155487,0.04100790247321129
1753180917.209914,1.8259246985064905,-1.348701388841011,1.0455313920974731,-1.9593836269774378,-1.536149803792135,-3.7771268526660364,-0.11844948679208755,-0.11163593828678131,0.17122884094715118,0.55930495262146,0.13497905433177948,0.040297653526067734
1753180917.2116542,1.8256776968585413,-1.3489412528327485,1.045903205871582,-1.95827116588735,-1.5359075705157679,-3.7770398298846644,-0.11832909286022186,-0.11000598967075348,0.17176063358783722,0.5605098605155945,0.13937430083751678,0.04293026402592659
1753180917.2136414,1.8253982702838343,-1.3491619390300293,1.0462517738342285,-1.9571334324278773,-1.535640064870016,-3.7769187132464808,-0.11880209296941757,-0.1099833995103836,0.17171147465705872,0.5581821203231812,0.1394384205341339,0.042059145867824554
1753180917.2155733,1.8251684347735804,-1.3493524503758927,1.0465489625930786,-1.9559718571104945,-1.5353806654559534,-3.776871983204977,-0.11918909102678299,-0.10990473628044128,0.1727735549211502,0.5626201629638672,0.14158964157104492,0.03905003145337105
1753180917.2176282,1.8249629179583948,-1.3496224296144028,1.046893835067749,-1.9547859630980433,-1.5351088682757776,-3.7767909208880823,-0.11812076717615128,-0.11009212583303452,0.17269155383110046,0.5576208233833313,0.14052850008010864,0.04056427627801895
1753180917.2195456,1.824686352406637,-1.3498096031001587,1.0472500324249268,-1.9536267719664515,-1.5348652044879358,-3.7767069975482386,-0.11940270662307739,-0.11002647876739502,0.17260341346263885,0.5552317500114441,0.1384473294019699,0.041003599762916565
1753180917.2217426,1.8244627157794397,-1.350053296690323,1.0475852489471436,-1.9525710544981898,-1.5345657507525843,-3.776618544255392,-0.12025163322687149,-0.10992003977298737,0.17285621166229248,0.5568546056747437,0.13749665021896362,0.040606625378131866
1753180917.2236252,1.8242676893817347,-1.350243867640831,1.0478547811508179,-1.9514576397337855,-1.5343025366412562,-3.7765384356128138,-0.1193031296133995,-0.10926299542188644,0.17390623688697815,0.551745593547821,0.1367013156414032,0.041311442852020264
1753180917.2258515,1.8239949385272425,-1.3505039823106308,1.0482224225997925,-1.9503628216185511,-1.5340145269977015,-3.776442829762594,-0.12086091190576553,-0.11097569763660431,0.17370031774044037,0.5522895455360413,0.13951267302036285,0.040341559797525406
1753180917.2279842,1.8238042036639612,-1.3507129561952134,1.0485583543777466,-1.9492927990355433,-1.5337627569781702,-3.7764161268817347,-0.12130390107631683,-0.10845798254013062,0.172709122300148,0.5491250157356262,0.13814683258533478,0.040213923901319504
1753180917.2302914,1.823493782673971,-1.3508609992316742,1.048872947692871,-1.9481579265990199,-1.5334590117083948,-3.776262108479635,-0.12124505639076233,-0.10985183715820312,0.17215116322040558,0.5500046014785767,0.13784748315811157,0.04019596427679062
1753180917.232161,1.8232258001910608,-1.3511443001082917,1.0491913557052612,-1.9470726452269496,-1.5332329908954065,-3.77619439760317,-0.12128650397062302,-0.107796810567379,0.17193563282489777,0.553043007850647,0.1400771588087082,0.04017551988363266
1753180917.2335637,1.823059384022848,-1.3513321441463013,1.0495589971542358,-1.9460064373412074,-1.532952610646383,-3.7761479059802454,-0.12004629522562027,-0.10753737390041351,0.17144356667995453,0.5478733777999878,0.14236730337142944,0.0401330403983593
1753180917.2396333,1.8225887457477015,-1.3517749470523377,1.0502225160598755,-1.9438430271544398,-1.5323932806598108,-3.775950018559591,-0.12112238258123398,-0.10777167230844498,0.17230641841888428,0.5506256222724915,0.1442684829235077,0.04258916527032852
1753180917.2415843,1.8220580259906214,-1.3521481913379212,1.0509085655212402,-1.941671987573141,-1.5317848364459437,-3.7758122126208704,-0.12231317162513733,-0.1068398728966713,0.17404119670391083,0.5509949326515198,0.14151418209075928,0.03978565335273743
1753180917.2434874,1.8218391577350062,-1.352419139151909,1.0512564182281494,-1.940599103967184,-1.5315220991717737,-3.775794569646017,-0.12459535151720047,-0.10799330472946167,0.1739017516374588,0.5552563667297363,0.14127007126808167,0.0401294119656086
1753180917.2455328,1.821613613759176,-1.3525716972402115,1.051599144935608,-1.9394518337645472,-1.5312956015216272,-3.7757180372821253,-0.12208584696054459,-0.10634219646453857,0.1748209446668625,0.5540653467178345,0.1417856365442276,0.04023299738764763
1753180917.2474806,1.821306053792135,-1.352851302628853,1.051925539970398,-1.9383884869017542,-1.530970875416891,-3.7755640188800257,-0.12316985428333282,-0.10665469616651535,0.1769140511751175,0.5551120042800903,0.14215099811553955,0.042125239968299866
1753180917.2494671,1.8211196104632776,-1.3530173760703583,1.0522394180297852,-1.9372626743712367,-1.530670468007223,-3.7754753271686,-0.12367694079875946,-0.10546015948057175,0.17656674981117249,0.5598853826522827,0.14429621398448944,0.039839502424001694
1753180917.2514217,1.8208473364459437,-1.353224368100502,1.0526243448257446,-1.9361721477904261,-1.5304120222674769,-3.775424305592672,-0.12267082184553146,-0.10500730574131012,0.17698605358600616,0.5554671287536621,0.14645305275917053,0.03882675990462303
1753180917.253513,1.8206117788897913,-1.3534325075200577,1.0529476404190063,-1.9350234470763148,-1.5300949255572718,-3.7753613630877894,-0.12581481039524078,-0.10469075292348862,0.17769475281238556,0.5617277026176453,0.1459289789199829,0.04068249091506004
1753180917.2556746,1.8203519026385706,-1.3536599290421982,1.053297996520996,-1.9339062176146449,-1.5298603216754358,-3.7752774397479456,-0.12269806861877441,-0.10465703159570694,0.17759296298027039,0.5569760203361511,0.14580611884593964,0.040032368153333664
1753180917.2583294,1.8201783339129847,-1.3538305026343842,1.0536980628967285,-1.9327742062010707,-1.5294631163226526,-3.775179926549093,-0.1242440864443779,-0.10416416078805923,0.1781976968050003,0.5585910081863403,0.14643853902816772,0.040029026567935944
1753180917.2598655,1.8199127356158655,-1.3540602189353486,1.053992748260498,-1.9316870174803675,-1.529196564351217,-3.7751086393939417,-0.1261884719133377,-0.10404098778963089,0.17857880890369415,0.5595541000366211,0.14438596367835999,0.039549823850393295
1753180917.26218,1.8196318785296839,-1.3542638284019013,1.0543856620788574,-1.9305411777892054,-1.5289786497699183,-3.77504545847048,-0.12562377750873566,-0.10399775952100754,0.1797204464673996,0.5583857893943787,0.14340566098690033,0.03961624577641487
1753180917.2639537,1.819366757069723,-1.3544970911792298,1.0546904802322388,-1.9294268093504847,-1.5287154356585901,-3.774936024342672,-0.12673160433769226,-0.10317252576351166,0.1775159239768982,0.5586867332458496,0.14381295442581177,0.039570823311805725
1753180917.2677329,1.8188536802874964,-1.354887531404831,1.0554134845733643,-1.927166601220602,-1.5280855337726038,-3.774860207234518,-0.1279391497373581,-0.10282736271619797,0.17910094559192657,0.5550647377967834,0.14427410066127777,0.039113402366638184
1753180917.269653,1.8186553160296839,-1.3550911408713837,1.055765151977539,-1.9260369739928187,-1.5277980009662073,-3.774717156087057,-0.1236763596534729,-0.1044294685125351,0.17898105084896088,0.5531810522079468,0.14624352753162384,0.03938252478837967
1753180917.2717419,1.8183983008014124,-1.355307326917984,1.0561643838882446,-1.9248653850951136,-1.5275266806231897,-3.774633232747213,-0.12791521847248077,-0.10329249501228333,0.17944425344467163,0.5533499717712402,0.14743205904960632,0.03849228098988533
1753180917.273627,1.8181045691119593,-1.3554688853076478,1.056453824043274,-1.923776765862936,-1.5272181669818323,-3.774590078984396,-0.12513816356658936,-0.10284138470888138,0.17981821298599243,0.553326427936554,0.1478944718837738,0.038801491260528564
1753180917.2759242,1.817824665700094,-1.3557472091964264,1.056878685951233,-1.9226747951903285,-1.5269306341754358,-3.774501625691549,-0.12689965963363647,-0.10319887101650238,0.1790793389081955,0.5506643652915955,0.1465357095003128,0.038724761456251144
1753180917.2777755,1.8176472822772425,-1.3559134614518662,1.0571929216384888,-1.9215241871275843,-1.5266478697406214,-3.774414841328756,-0.1266321837902069,-0.10349790006875992,0.1791447103023529,0.5522809028625488,0.1453719437122345,0.03793996572494507
1753180917.2798076,1.8174760977374476,-1.356145904665329,1.0575357675552368,-1.9204136333861292,-1.5264208952533167,-3.7743921915637415,-0.12653422355651855,-0.10261842608451843,0.17934919893741608,0.5464240312576294,0.14369994401931763,0.03896038979291916
1753180917.2818854,1.8171914259540003,-1.356321634059288,1.057911992073059,-1.9193164310851039,-1.5260828177081507,-3.774266306553976,-0.12688519060611725,-0.10116639733314514,0.17900489270687103,0.5487847924232483,0.14334535598754883,0.038243118673563004
1753180917.2838,1.8169806639300745,-1.3565252435258408,1.0582904815673828,-1.918187757531637,-1.5257743040667933,-3.7741897741900843,-0.12649282813072205,-0.10286931693553925,0.17900040745735168,0.5472328066825867,0.14665788412094116,0.03716075047850609
1753180917.2861311,1.816714111958639,-1.3567322355559845,1.0586267709732056,-1.917138238946432,-1.5255191961871546,-3.7741437594043177,-0.1258375197649002,-0.10062055289745331,0.17971782386302948,0.5455154180526733,0.14466959238052368,0.03754984959959984
1753180917.2901883,1.8165248076068323,-1.3569283497384568,1.0590109825134277,-1.9160720310606898,-1.525243107472555,-3.7740300337420862,-0.1255485564470291,-0.10219131410121918,0.18039152026176453,0.5464878678321838,0.14697802066802979,0.03807031363248825
1753180917.2919803,1.8159621397601526,-1.3573773962310334,1.0596705675125122,-1.9139319858946742,-1.5246599356280726,-3.7738786379443567,-0.12649261951446533,-0.09963707625865936,0.17897789180278778,0.547319233417511,0.14987657964229584,0.038107503205537796
1753180917.2937808,1.8157561461078089,-1.3575318616679688,1.0600422620773315,-1.9128414593138636,-1.5243929068194788,-3.773794237767355,-0.12671709060668945,-0.0992419570684433,0.1782127469778061,0.5425309538841248,0.1495407372713089,0.038084402680397034
1753180917.2964673,1.8154590765582483,-1.3577313435128708,1.0603976249694824,-1.9117614231505335,-1.5240801016436976,-3.773722473775045,-0.12675003707408905,-0.09897571802139282,0.1779046356678009,0.5498717427253723,0.14466062188148499,0.0375630147755146
1753180917.298374,1.8152435461627405,-1.357956514959671,1.0607609748840332,-1.9106251202025355,-1.5237839857684534,-3.7736673990832728,-0.12665586173534393,-0.09878405183553696,0.17798878252506256,0.5475044846534729,0.14531318843364716,0.03802859038114548
1753180917.3015854,1.8149779478656214,-1.358159900908806,1.0611613988876343,-1.9095679722227992,-1.5235169569598597,-3.773623768483297,-0.12773463129997253,-0.09855280071496964,0.17740999162197113,0.5480867624282837,0.14553940296173096,0.038357872515916824
1753180917.3051696,1.814512077962057,-1.3585104954293747,1.0618505477905273,-1.9074436626830042,-1.5229037443744105,-3.7734232584582728,-0.1296825408935547,-0.0983109325170517,0.1775779128074646,0.5509374737739563,0.14774979650974274,0.03890756517648697
1753180917.3056092,1.814512077962057,-1.3585104954293747,1.0618505477905273,-1.9074436626830042,-1.5229037443744105,-3.7734232584582728,-0.1296825408935547,-0.0983109325170517,0.1775779128074646,0.5509374737739563,0.14774979650974274,0.03890756517648697
1753180917.3090217,1.8140085379229944,-1.3589363557151337,1.0625677108764648,-1.9052945576109828,-1.5223405996905726,-3.7733169237719935,-0.12973201274871826,-0.09869775921106339,0.17872105538845062,0.5533959269523621,0.15011541545391083,0.03620915487408638
1753180917.3095481,1.8137601057635706,-1.3590934735587616,1.0629265308380127,-1.904203554193014,-1.5220416227923792,-3.7731621901141565,-0.13136762380599976,-0.09751355648040771,0.1782197803258896,0.5541017055511475,0.1502578854560852,0.037071507424116135
1753180917.3115432,1.813418213521139,-1.3593061578324814,1.0633150339126587,-1.9031182728209437,-1.5217574278460901,-3.773128334675924,-0.13158276677131653,-0.09881627559661865,0.17744553089141846,0.5564987063407898,0.148732990026474,0.03844815120100975
1753180917.3135786,1.8131616751300257,-1.3595471543124695,1.0636208057403564,-1.901994367639059,-1.521426026021139,-3.7731009165393274,-0.13191553950309753,-0.09748890995979309,0.1772063970565796,0.5549248456954956,0.14583727717399597,0.037032339721918106
1753180917.3158875,1.8128727118121546,-1.3597065222314377,1.064056396484375,-1.9008976421751917,-1.5211451689349573,-3.7730141321765345,-0.13233813643455505,-0.09717774391174316,0.17716193199157715,0.5589043498039246,0.14592275023460388,0.03964902088046074
1753180917.3178504,1.812664810811178,-1.3599106085351487,1.0643829107284546,-1.8997036419310511,-1.5208576361285608,-3.772928539906637,-0.13112100958824158,-0.0974157527089119,0.1768469512462616,0.5587396025657654,0.14681068062782288,0.038271643221378326
1753180917.3196304,1.812347714100973,-1.3600687396577378,1.0647670030593872,-1.8986059627928675,-1.520557705556051,-3.7728524843799036,-0.13381427526474,-0.09808347374200821,0.1763048768043518,0.5581939220428467,0.14759859442710876,0.035780470818281174
1753180917.321727,1.812122646962301,-1.3602803212455292,1.0651527643203735,-1.8974977932372035,-1.5202739874469202,-3.772773090993063,-0.129365012049675,-0.0980452448129654,0.17671704292297363,0.5545247793197632,0.15112870931625366,0.036368224769830704
1753180917.3235047,1.8118513266192835,-1.3604946297458191,1.065453290939331,-1.896412035027975,-1.519961182271139,-3.772722069417135,-0.1320345550775528,-0.09872250258922577,0.1767391711473465,0.5554050207138062,0.14794297516345978,0.03776706010103226
1753180917.3256013,1.8115842978106897,-1.3606562328389664,1.065842628479004,-1.8952022991576136,-1.51965839067568,-3.7726126352893274,-0.13249526917934418,-0.09916642308235168,0.17675891518592834,0.5543331503868103,0.1475292295217514,0.0371275469660759
1753180917.3276613,1.81126577058901,-1.3608522576144715,1.066145420074463,-1.8940826855101527,-1.5193288961993616,-3.7725029627429407,-0.13225647807121277,-0.09745558351278305,0.17632849514484406,0.5532339811325073,0.14845746755599976,0.03639058396220207
1753180917.3299904,1.8109801451312464,-1.361064837580063,1.0665454864501953,-1.892895837823385,-1.5190990606891077,-3.77246863046755,-0.1324968785047531,-0.09978099167346954,0.17546357214450836,0.5538949966430664,0.14883629977703094,0.036694422364234924
1753180917.331793,1.8107641378985804,-1.3612883698991318,1.066938877105713,-1.8917705021300257,-1.5187614599811,-3.7723801771747034,-0.13539814949035645,-0.09787333756685257,0.17541010677814484,0.5505658984184265,0.14723151922225952,0.036935798823833466
1753180917.3356478,1.810478989277975,-1.3614779722741623,1.0673164129257202,-1.8906756840147914,-1.5185111204730433,-3.772320810948507,-0.13121166825294495,-0.09727141261100769,0.17552396655082703,0.5510795712471008,0.14657078683376312,0.03631499409675598
1753180917.3392394,1.8098958174334925,-1.3618208330920716,1.068010926246643,-1.8884741268553675,-1.5179274717914026,-3.7721691767321985,-0.13321824371814728,-0.09605910629034042,0.17543889582157135,0.5462003946304321,0.14786170423030853,0.03582599014043808
1753180917.3409927,1.8096964995013636,-1.3619870406440278,1.0684083700180054,-1.8873597584166468,-1.5176356474505823,-3.7720964590655726,-0.13369399309158325,-0.09582704305648804,0.1756698489189148,0.5449906587600708,0.14628545939922333,0.03589828684926033
1753180917.3426013,1.8094270865069788,-1.3622203779271622,1.0687472820281982,-1.8862902126707972,-1.5172937552081507,-3.772012774144308,-0.1337932050228119,-0.09498134255409241,0.17625492811203003,0.5436194539070129,0.14821822941303253,0.035574160516262054
1753180917.343566,1.8091838995562952,-1.3623704028180619,1.0691146850585938,-1.8851872883238734,-1.5170076529132288,-3.7719650904284876,-0.13322220742702484,-0.09486734867095947,0.1754768341779709,0.5462586283683777,0.15135447680950165,0.03447134047746658
1753180917.3456695,1.808875862752096,-1.3626202803901215,1.0694819688796997,-1.8841282329955042,-1.516719166432516,-3.771902147923605,-0.13171745836734772,-0.09469770640134811,0.17577454447746277,0.5415521860122681,0.15039628744125366,0.03570501506328583
1753180917.355304,1.8086026350604456,-1.362737388615944,1.0698555707931519,-1.8830496273436488,-1.5164125601397913,-3.771809164677755,-0.13376633822917938,-0.09394317120313644,0.1755535751581192,0.5458163022994995,0.1494716852903366,0.03695119544863701
1753180917.3559654,1.8083880583392542,-1.3629289877465744,1.070242166519165,-1.8819757900633753,-1.5160630385028284,-3.7717235724078577,-0.13240961730480194,-0.09449590742588043,0.1751585453748703,0.5434786081314087,0.1497030258178711,0.034516092389822006
1753180917.3592525,1.8075478712665003,-1.3634732824615021,1.071331262588501,-1.878772874871725,-1.51516038576235,-3.77156645456423,-0.13315951824188232,-0.09181997925043106,0.17383348941802979,0.5460745096206665,0.1468687504529953,0.034979164600372314
1753180917.3617368,1.8067134062396448,-1.3640454870513459,1.0723907947540283,-1.8754917583861292,-1.5142610708819788,-3.771334473286764,-0.1364152878522873,-0.08991016447544098,0.17409458756446838,0.5535933375358582,0.14982560276985168,0.03367575630545616
1753180917.3637826,1.806424919758932,-1.364216299062111,1.072755217552185,-1.874436994592184,-1.5140112082110804,-3.7712698618518274,-0.13176582753658295,-0.09005475044250488,0.17390653491020203,0.5485807657241821,0.14928334951400757,0.0331970639526844
1753180917.3661592,1.806145493184225,-1.3644004178098221,1.0731481313705444,-1.8733803234496058,-1.5136783758746546,-3.7711978594409388,-0.13620281219482422,-0.08943264931440353,0.17455898225307465,0.5491927266120911,0.14747780561447144,0.0351698137819767
1753180917.3680887,1.8058975378619593,-1.3645757299712677,1.0734753608703613,-1.87223543743276,-1.5133417288409632,-3.7710629145251673,-0.1339646577835083,-0.08984756469726562,0.17364007234573364,0.5511346459388733,0.14529819786548615,0.0351964570581913
1753180917.372788,1.8053181807147425,-1.3649177116206666,1.0741506814956665,-1.8700272045531214,-1.5127790609942835,-3.770982329045431,-0.12824678421020508,-0.08174698799848557,0.1634785681962967,0.538390040397644,0.13667500019073486,0.033511046320199966
1753180917.3737013,1.8050406614886683,-1.3651109051755448,1.074508786201477,-1.8689710102477015,-1.5125272909747522,-3.7709503809558313,-0.1269606351852417,-0.08063525706529617,0.15806277096271515,0.53223717212677,0.1352788656949997,0.03380607068538666
1753180917.3755474,1.804847542439596,-1.3652507674745102,1.074808120727539,-1.8678776226439417,-1.5122349897967737,-3.770853821431295,-0.1281050592660904,-0.07829396426677704,0.15622076392173767,0.5288726687431335,0.13702329993247986,0.03339160978794098
1753180917.3778596,1.8045457045184534,-1.365463287835457,1.0751529932022095,-1.866890092889303,-1.5119312445269983,-3.7707861105548304,-0.12661920487880707,-0.07926198095083237,0.15622420608997345,0.5238163471221924,0.1410195529460907,0.03223995864391327
1753180917.3796232,1.8042848745929163,-1.365626649265625,1.0754517316818237,-1.8658915958800257,-1.5116713682757776,-3.7707441488849085,-0.12685872614383698,-0.08086327463388443,0.1593332439661026,0.5147164463996887,0.13712860643863678,0.03375602141022682
1753180917.3821678,1.8040722052203577,-1.365818278198578,1.0757803916931152,-1.8647781811156214,-1.5113838354693812,-3.770684067402975,-0.12520498037338257,-0.08333124965429306,0.16147945821285248,0.5156744122505188,0.13886989653110504,0.03299364820122719
1753180917.3846197,1.803765598927633,-1.3659861844829102,1.0761247873306274,-1.8637296162047328,-1.5110591093646448,-3.7705817858325403,-0.12845230102539062,-0.08516936004161835,0.1638938933610916,0.5069929361343384,0.14133742451667786,0.0322159118950367
1753180917.3857272,1.8035391012774866,-1.3661794525435944,1.0764079093933105,-1.8627387485899867,-1.510759178792135,-3.770534340535299,-0.12732607126235962,-0.08555565029382706,0.16491298377513885,0.5045385360717773,0.13954029977321625,0.03158608078956604
1753180917.38764,1.803307835255758,-1.3663637054017563,1.0767320394515991,-1.8616682491698207,-1.5104878584491175,-3.7704713980304163,-0.12471184134483337,-0.084450863301754,0.16308923065662384,0.5006716251373291,0.1358201950788498,0.03126126900315285
1753180917.3898063,1.802943531666891,-1.36650903642688,1.077048659324646,-1.8606425724425257,-1.5102360884295862,-3.77040678659548,-0.1252167969942093,-0.08285853266716003,0.15995101630687714,0.4940505027770996,0.13206057250499725,0.031080961227416992
1753180917.3915813,1.802779499684469,-1.366690845494606,1.077297568321228,-1.8597127399840296,-1.5099437872516077,-3.77028996149172,-0.12401823699474335,-0.08094063401222229,0.15845893323421478,0.49105438590049744,0.1318340301513672,0.0310059767216444
1753180917.3936136,1.8025062719928187,-1.366879941230156,1.0775998830795288,-1.8587233028807582,-1.5096882025348108,-3.7702916304217737,-0.1250314563512802,-0.07965465635061264,0.15763114392757416,0.48377808928489685,0.13055673241615295,0.030964892357587814
1753180917.3960288,1.802258316670553,-1.367021383052208,1.0779367685317993,-1.8577553234496058,-1.5094321409808558,-3.7702179590808313,-0.12021015584468842,-0.0783650130033493,0.15480606257915497,0.4790717661380768,0.13033777475357056,0.031122785061597824
1753180917.3980684,1.8020489851581019,-1.3672148001245041,1.078200340270996,-1.8568016491331996,-1.5092008749591272,-3.7701645533191126,-0.12210135906934738,-0.07660894095897675,0.15413376688957214,0.47695043683052063,0.12825879454612732,0.03034277632832527
1753180917.4034083,1.801844898854391,-1.3673079770854493,1.0784906148910522,-1.8558932743468226,-1.5089243094073694,-3.770135466252462,-0.11906573176383972,-0.07766372710466385,0.15227551758289337,0.4695204794406891,0.13046707212924957,0.030364209786057472
1753180917.4039226,1.8015740553485315,-1.3675058496049424,1.078749656677246,-1.8549672565855921,-1.5086725393878382,-3.7700732390033167,-0.11959421634674072,-0.07463110238313675,0.15063461661338806,0.46706682443618774,0.12451998889446259,0.0299777090549469
1753180917.4041462,1.8013504187213343,-1.3676254016212006,1.0790376663208008,-1.8540545902647914,-1.5084293524371546,-3.769968334828512,-0.11726044863462448,-0.07266765087842941,0.14927227795124054,0.4654025733470917,0.12634536623954773,0.029986422508955002
1753180917.4058728,1.8010571638690394,-1.367758886223175,1.0793300867080688,-1.8530870876707972,-1.5081008116351526,-3.7699320952044886,-0.11648981273174286,-0.07414505630731583,0.14814481139183044,0.4572853147983551,0.12621279060840607,0.029222792014479637
1753180917.407669,1.8008301893817347,-1.3679566544345398,1.079577922821045,-1.8522058926024378,-1.5078437964068812,-3.769864622746603,-0.11528851836919785,-0.0716213583946228,0.1467839777469635,0.45627009868621826,0.12483910471200943,0.029065994545817375
1753180917.4096556,1.8006113211261194,-1.3680672657540818,1.0798330307006836,-1.851332803765768,-1.5076573530780237,-3.7698124090777796,-0.11423583328723907,-0.07058430463075638,0.14659655094146729,0.45129477977752686,0.12670959532260895,0.028574414551258087
1753180917.4115252,1.8004120031939905,-1.3682321322015305,1.0801703929901123,-1.8504568539061488,-1.5074451605426233,-3.769755188618795,-0.11398150771856308,-0.06954487413167953,0.14469532668590546,0.4459560215473175,0.12108268588781357,0.02824699692428112
1753180917.4177964,1.80017596880068,-1.3683297497085114,1.0804129838943481,-1.8495589695372523,-1.5071681181537073,-3.769728485737936,-0.11327403783798218,-0.06880680471658707,0.1433153599500656,0.44780564308166504,0.12245287001132965,0.02788090519607067
1753180917.4181387,1.7999265829669397,-1.3684755128673096,1.0806770324707031,-1.848743577996725,-1.5069125334369105,-3.7696355024920862,-0.1128511130809784,-0.06795017421245575,0.14198461174964905,0.4416424334049225,0.12199987471103668,0.027573447674512863
1753180917.4195008,1.799434010182516,-1.3687630903771897,1.0812458992004395,-1.84696688274526,-1.5064213911639612,-3.7695322672473353,-0.1104174256324768,-0.06577622145414352,0.13947877287864685,0.4363088309764862,0.12111596018075943,0.0269957035779953
1753180917.4215186,1.7992757002459925,-1.3688663107207795,1.0815143585205078,-1.8461672268309535,-1.5061729590045374,-3.769512955342428,-0.1121116653084755,-0.06782473623752594,0.1398763358592987,0.4307287633419037,0.11983020603656769,0.026456385850906372
1753180917.423581,1.7989943663226526,-1.3690386277488251,1.0817807912826538,-1.8453012905516566,-1.5059626738177698,-3.7694245020495813,-0.10682997107505798,-0.06552863121032715,0.13811169564723969,0.42773371934890747,0.11906959861516953,0.025477372109889984
1753180917.4254284,1.7987764517413538,-1.3691464227489014,1.0820780992507935,-1.8444677791991175,-1.5057089964496058,-3.7693718115436,-0.10768409073352814,-0.06427256762981415,0.1380918323993683,0.42834171652793884,0.11752153933048248,0.0256173238158226
1753180917.427873,1.7986090818988245,-1.369311348800995,1.0823166370391846,-1.8436089954771937,-1.505486313496725,-3.7693496386157435,-0.10585056245326996,-0.06525656580924988,0.13657088577747345,0.42008882761001587,0.11554526537656784,0.025689298287034035
1753180917.4300072,1.7984197775470179,-1.3694221389344712,1.082594394683838,-1.8427916965880335,-1.5052626768695276,-3.769308630620138,-0.10744153708219528,-0.06478414684534073,0.13593384623527527,0.4175538420677185,0.11501912772655487,0.025498725473880768
1753180917.432207,1.798138443623678,-1.3695869606784363,1.0828496217727661,-1.8419953785338343,-1.5050018469439905,-3.7692232767688196,-0.10237874835729599,-0.06278989464044571,0.13553830981254578,0.41406846046447754,0.11337687075138092,0.0244714617729187
1753180917.4367192,1.797760311757223,-1.369871438746788,1.0833802223205566,-1.8402892551817835,-1.504620377217428,-3.769127432500021,-0.10078031569719315,-0.06186414510011673,0.13346603512763977,0.40579062700271606,0.11065266281366348,0.023978516459465027
1753180917.4375987,1.7975147406207483,-1.3699658078006287,1.0836982727050781,-1.8395005665221156,-1.5043557325946253,-3.7690916697131556,-0.1012464389204979,-0.06114143878221512,0.13297365605831146,0.40334632992744446,0.11171479523181915,0.024100419133901596
1753180917.439418,1.7973035017596644,-1.3700275880149384,1.083901286125183,-1.8387071094908656,-1.5041106382953089,-3.7690449396716517,-0.10046453028917313,-0.060658350586891174,0.13249783217906952,0.3988965153694153,0.10939066112041473,0.02312922291457653
1753180917.4416919,1.7971809546100062,-1.370210663681366,1.084223985671997,-1.8379188976683558,-1.5039365927325647,-3.7690349260913294,-0.09692484885454178,-0.060231152921915054,0.13071012496948242,0.3927003741264343,0.10959842056035995,0.02341480553150177
1753180917.4438403,1.7969325224505823,-1.3702884924462815,1.0844001770019531,-1.8370782337584437,-1.5036910215960901,-3.768949333821432,-0.09844323992729187,-0.05929435417056084,0.12953975796699524,0.3902095854282379,0.10881829261779785,0.02369394712150097
1753180917.4455552,1.7967408339129847,-1.3704578441432496,1.0847052335739136,-1.836367746392721,-1.503472153340475,-3.76890474954714,-0.09678897261619568,-0.05885302275419235,0.12913867831230164,0.3856378197669983,0.11157406121492386,0.023137791082262993
1753180917.4475899,1.796582047139303,-1.3705492627671738,1.0849570035934448,-1.8355847797789515,-1.5032528082477015,-3.7688353697406214,-0.09569227695465088,-0.058116279542446136,0.12762288749217987,0.3793528974056244,0.10705716907978058,0.022565720602869987
1753180917.4497337,1.7963851133929651,-1.370701791053154,1.0852510929107666,-1.834834714929098,-1.5030234495746058,-3.768855158482687,-0.09500295668840408,-0.057260286062955856,0.1271304488182068,0.37519851326942444,0.10774108022451401,0.020887739956378937
1753180917.4516098,1.796192471181051,-1.3707630199244996,1.0855028629302979,-1.8340450725951136,-1.5028570334063929,-3.7687857786761683,-0.09364756941795349,-0.0570245198905468,0.12501424551010132,0.3719952404499054,0.10438128560781479,0.020890560001134872
1753180917.4536238,1.7959397474872034,-1.3708843302777787,1.0857268571853638,-1.833311220208639,-1.5025790373431605,-3.768729273472921,-0.09271620959043503,-0.05608526989817619,0.12347934395074844,0.3671746253967285,0.1037110835313797,0.021496210247278214
1753180917.4556417,1.7958090941058558,-1.3709792357734223,1.0860029458999634,-1.8325611553587855,-1.5023835341082972,-3.7686901728259485,-0.0920255035161972,-0.05546465143561363,0.12214116007089615,0.3599920868873596,0.10287606716156006,0.021064428612589836
1753180917.4578197,1.7956612745868128,-1.3711497497609635,1.0861808061599731,-1.831813474694723,-1.50218373933901,-3.7686498800860804,-0.09145990759134293,-0.05510445684194565,0.12124894559383392,0.3594039976596832,0.10210389643907547,0.021278943866491318
1753180917.4596572,1.7954610029803675,-1.3711946320584794,1.0863995552062988,-1.8310724697508753,-1.5019925276385706,-3.768618647252218,-0.09575407207012177,-0.056383974850177765,0.1221751719713211,0.35974761843681335,0.10361853986978531,0.024174943566322327
1753180917.4619062,1.7952850500689905,-1.371351571088173,1.0866773128509521,-1.830379148522848,-1.5017965475665491,-3.7685495058642786,-0.09361232817173004,-0.060050416737794876,0.12639476358890533,0.362634539604187,0.10665438324213028,0.026143893599510193
1753180917.4639418,1.7950361410724085,-1.371430130009987,1.086950659751892,-1.8295794926085414,-1.5016420523272913,-3.768564764653341,-0.09631050378084183,-0.06429871171712875,0.13125650584697723,0.3623976409435272,0.10861305147409439,0.025862665846943855
1753180917.4685721,1.7946913878070276,-1.3716947895339509,1.0874048471450806,-1.828111310998434,-1.501213852559225,-3.768398110066549,-0.09240705519914627,-0.06492871791124344,0.13038067519664764,0.36166465282440186,0.10463686287403107,0.025077085942029953
1753180917.469737,1.7945120970355433,-1.3718036127141495,1.0877071619033813,-1.8273712597289027,-1.50098163286318,-3.768357817326681,-0.09252529591321945,-0.06205987557768822,0.12798768281936646,0.3570532500743866,0.10318854451179504,0.024804815649986267
1753180917.4745498,1.7943232695208948,-1.3719369185021897,1.087910532951355,-1.8266126118102015,-1.5007975737201136,-3.7683139483081263,-0.0899515450000763,-0.06020824611186981,0.12107018381357193,0.36012721061706543,0.10235776752233505,0.024922562763094902
1753180917.4748673,1.79417592683901,-1.3720054787448426,1.0881084203720093,-1.8259064159789027,-1.5006263891803187,-3.768233124409811,-0.08944346010684967,-0.05736221745610237,0.11756853759288788,0.3591131567955017,0.09630057960748672,0.025121266022324562
1753180917.4757392,1.793976132069723,-1.372172163133957,1.0883532762527466,-1.825280328790182,-1.500408951436178,-3.7682393232928675,-0.08535604178905487,-0.054215073585510254,0.11367614567279816,0.3553418517112732,0.0997784361243248,0.02469419315457344
1753180917.477693,1.7938244978534144,-1.372246505027153,1.0885733366012573,-1.8245693645873011,-1.5002096335040491,-3.768179718648092,-0.090248703956604,-0.054739613085985184,0.11356763541698456,0.3535332977771759,0.09793617576360703,0.02471592091023922
1753180917.4796965,1.7936204115497034,-1.3723921489766617,1.0888136625289917,-1.8238588772215785,-1.4999731222735804,-3.7681196371661585,-0.08530990779399872,-0.056394219398498535,0.1153482049703598,0.35474807024002075,0.09954727441072464,0.024982115253806114
1753180917.4814556,1.7934659163104456,-1.3725073498538514,1.0890421867370605,-1.8231245479979457,-1.4997976461993616,-3.768041435872213,-0.08682702481746674,-0.058038800954818726,0.11712045222520828,0.35739845037460327,0.10003156960010529,0.02433396875858307
1753180917.4837146,1.7932632605182093,-1.3725821536830445,1.0892611742019653,-1.82238831142568,-1.4995892683612269,-3.7680402437793177,-0.08727328479290009,-0.05902698636054993,0.1175987496972084,0.3523176610469818,0.09839187562465668,0.024117734283208847
1753180917.4855583,1.7931111494647425,-1.3726927799037476,1.0895264148712158,-1.8217488727965296,-1.499430004750387,-3.767938200627462,-0.08635811507701874,-0.05956131964921951,0.11866959184408188,0.3535624146461487,0.09803120791912079,0.02358892560005188
1753180917.487624,1.7929976622210901,-1.3728430283120652,1.0897589921951294,-1.82098450283193,-1.499152962361471,-3.767852846776144,-0.08650550991296768,-0.0590713694691658,0.11778236925601959,0.3554878234863281,0.09860416501760483,0.023835517466068268
1753180917.489599,1.7927630583392542,-1.372920737867691,1.089990258216858,-1.820296426812643,-1.4989970366107386,-3.7678869406329554,-0.08488515019416809,-0.06110113859176636,0.11781059950590134,0.35619497299194336,0.09492260217666626,0.023865072056651115
1753180917.4916673,1.7925999800311487,-1.3730738323977967,1.0901955366134644,-1.8195930920042933,-1.498854939137594,-3.76784855524172,-0.08638191968202591,-0.0603654682636261,0.11795192211866379,0.35388821363449097,0.10008630901575089,0.023570287972688675
1753180917.4938018,1.79242450395693,-1.3731980484775086,1.0904818773269653,-1.8188511333861292,-1.4986217657672327,-3.7677910963641565,-0.08629895001649857,-0.06017628312110901,0.11707407236099243,0.35597488284111023,0.0957651361823082,0.02300184592604637
1753180917.4962935,1.7922666708575647,-1.3733340066722413,1.0907223224639893,-1.8181363544859828,-1.49847919145693,-3.7677646319018763,-0.08578858524560928,-0.060864415019750595,0.11665531247854233,0.35721033811569214,0.09692547470331192,0.023861490190029144
1753180917.4981012,1.792109791432516,-1.3734252464822312,1.0909321308135986,-1.817442079583639,-1.498227898274557,-3.7676621119128626,-0.0857311487197876,-0.0628281831741333,0.11637422442436218,0.3545771539211273,0.09758178889751434,0.02447628043591976
1753180917.5026994,1.7919023672686976,-1.373541609649994,1.0911569595336914,-1.8167616329588832,-1.4980996290790003,-3.7676218191729944,-0.0856333076953888,-0.06164795160293579,0.11680836230516434,0.3560682237148285,0.09638893604278564,0.023421093821525574
1753180917.503059,1.7916339079486292,-1.3737844687751313,1.0917084217071533,-1.815350194970602,-1.4976566473590296,-3.7675090471850794,-0.08505486696958542,-0.0623808279633522,0.1163465604186058,0.3557690680027008,0.09753244370222092,0.023088492453098297
1753180917.50368,1.7916339079486292,-1.3737844687751313,1.0917084217071533,-1.815350194970602,-1.4976566473590296,-3.7675090471850794,-0.08505486696958542,-0.0623808279633522,0.1163465604186058,0.3557690680027008,0.09753244370222092,0.023088492453098297
1753180917.5055013,1.7913830916034144,-1.3739623439363022,1.0918651819229126,-1.8146301708617152,-1.4974735418902796,-3.76748234430422,-0.08646208792924881,-0.06278738379478455,0.1178031787276268,0.3563092350959778,0.09583466500043869,0.023802142590284348
1753180917.5076537,1.791243855153219,-1.374051959519722,1.0921430587768555,-1.8139296970763148,-1.4973028341876429,-3.7674437204944056,-0.08332373946905136,-0.06305335462093353,0.11556901037693024,0.35914695262908936,0.09637898951768875,0.023867888376116753
1753180917.509562,1.7911575476275843,-1.3742185694030304,1.0923619270324707,-1.8132397137083949,-1.4971359411822718,-3.767412010823385,-0.08254551887512207,-0.06381925195455551,0.11669770628213882,0.36205238103866577,0.09542803466320038,0.023331977427005768
1753180917.511517,1.790903393422262,-1.374299244289734,1.0925732851028442,-1.8125158749022425,-1.4969638029681605,-3.76737624803652,-0.08753900974988937,-0.06452532112598419,0.11621903628110886,0.3587052822113037,0.09361797571182251,0.024240458384156227
1753180917.5135698,1.7908013502704065,-1.3745105874589463,1.0927847623825073,-1.8118182621397914,-1.496702019368307,-3.7672606150256556,-0.0833175852894783,-0.06485448032617569,0.11579712480306625,0.35782626271247864,0.09544579684734344,0.024737877771258354
1753180917.5155945,1.7905963102923792,-1.3745838564685364,1.0930250883102417,-1.811047216454977,-1.496509853993551,-3.76725942293276,-0.08459906280040741,-0.06519640237092972,0.11582604795694351,0.3615606427192688,0.09266969561576843,0.024600429460406303
1753180917.517707,1.790429417287008,-1.3747012627175828,1.0933234691619873,-1.8103610477843226,-1.4963682333575647,-3.7672067324267786,-0.08394887298345566,-0.06534885615110397,0.1161922961473465,0.3647138476371765,0.09717581421136856,0.023497121408581734
1753180917.5195062,1.7902181784259241,-1.374828280215599,1.0935256481170654,-1.8096777401366175,-1.496176544819967,-3.7671948114978235,-0.08323008567094803,-0.06585466861724854,0.11350623518228531,0.360582560300827,0.09194600582122803,0.023369649425148964
