mathias31415/evaluate_motion_primitives_from_trajectory_controller/data/trajectory_20250715_114409_executed.csv
timestamp,elbow_joint_pos,shoulder_lift_joint_pos,shoulder_pan_joint_pos,wrist_1_joint_pos,wrist_2_joint_pos,wrist_3_joint_pos,elbow_joint_vel,shoulder_lift_joint_vel,shoulder_pan_joint_vel,wrist_1_joint_vel,wrist_2_joint_vel,wrist_3_joint_vel,pose_x,pose_y,pose_z,pose_qx,pose_qy,pose_qz,pose_qw
1752572683.5405352,-1.9547259779903257,-1.7141903503528295,-1.0687974635880657,-1.0535135669563127,1.604856707975275,0.501259854180198,0.0,0.0,0.0,0.0,0.0,0.0,0.1877079844581294,-0.6956460053422652,0.3818149998298029,-0.00028395152222740667,0.9998423524988354,0.012589831464642747,0.01251741446224934
1752572683.5412123,-1.9547259779903257,-1.7141903503528295,-1.0687974635880657,-1.0535135669563127,1.604856707975275,0.501259854180198,0.0,0.0,0.0,0.0,0.0,0.0,0.1877079844581294,-0.6956460053422652,0.3818149998298029,-0.00028395152222740667,0.9998423524988354,0.012589831464642747,0.01251741446224934
1752572683.5417943,-1.9547259779903257,-1.7141903503528295,-1.0687974635880657,-1.0535135669563127,1.604856707975275,0.501259854180198,0.0,0.0,0.0,0.0,0.0,0.0,0.1877079844581294,-0.6956460053422652,0.3818149998298029,-0.00028395152222740667,0.9998423524988354,0.012589831464642747,0.01251741446224934
1752572683.5433955,-1.9547259779903257,-1.7141903503528295,-1.0687974635880657,-1.0535135669563127,1.604856707975275,0.501259854180198,0.0,0.0,0.0,0.0,0.0,0.0,0.1877079844581294,-0.6956460053422652,0.3818149998298029,-0.00028395152222740667,0.9998423524988354,0.012589831464642747,0.01251741446224934
1752572683.5454216,-1.9547259779903257,-1.7141903503528295,-1.0687974635880657,-1.0535135669563127,1.604856707975275,0.501259854180198,0.0,0.0,0.0,0.0,0.0,0.0,0.1877079844581294,-0.6956460053422652,0.3818149998298029,-0.00028395152222740667,0.9998423524988354,0.012589831464642747,0.01251741446224934
1752572683.5473485,-1.9547259779903257,-1.7141903503528295,-1.0687974635880657,-1.0535135669563127,1.604856707975275,0.501259854180198,0.0,0.0,0.0,0.0,0.0,0.0,0.1877079844581294,-0.6956460053422652,0.3818149998298029,-0.00028395152222740667,0.9998423524988354,0.012589831464642747,0.01251741446224934
1752572683.549356,-1.9547259779903257,-1.7141903503528295,-1.0687974635880657,-1.0535135669563127,1.604856707975275,0.501259854180198,0.0,0.0,0.0,0.0,0.0,0.0,0.1877079844581294,-0.6956460053422652,0.3818149998298029,-0.00028395152222740667,0.9998423524988354,0.012589831464642747,0.01251741446224934
1752572683.5513785,-1.9547259779903257,-1.7141903503528295,-1.0687974635880657,-1.0535135669563127,1.604856707975275,0.501259854180198,0.0,0.0,0.0,0.0,0.0,0.0,0.1877079844581294,-0.6956460053422652,0.3818149998298029,-0.00028395152222740667,0.9998423524988354,0.012589831464642747,0.01251741446224934
1752572683.5533164,-1.9547259779903257,-1.7141903503528295,-1.0687974635880657,-1.0535135669563127,1.604856707975275,0.501259854180198,0.0,0.0,0.0,0.0,0.0,0.0,0.1877079844581294,-0.6956460053422652,0.3818149998298029,-0.00028395152222740667,0.9998423524988354,0.012589831464642747,0.01251741446224934
1752572683.5558667,-1.9547259779903257,-1.7141903503528295,-1.0687974635880657,-1.0535135669563127,1.604856707975275,0.501259854180198,0.0,0.0,0.0,0.0,0.0,0.0,0.1877079844581294,-0.6956460053422652,0.3818149998298029,-0.00028395152222740667,0.9998423524988354,0.012589831464642747,0.01251741446224934
1752572683.559413,-1.9547259779903257,-1.7141903503528295,-1.0687974635880657,-1.0535135669563127,1.604856707975275,0.501259854180198,0.0,0.0,0.0,0.0,0.0,0.0,0.1877079844581294,-0.6956460053422652,0.3818149998298029,-0.00028395152222740667,0.9998423524988354,0.012589831464642747,0.01251741446224934
1752572683.5601497,-1.9547259779903257,-1.7141903503528295,-1.0687974635880657,-1.0535135669563127,1.604856707975275,0.501259854180198,0.0,0.0,0.0,0.0,0.0,0.0,0.1877079844581294,-0.6956460053422652,0.3818149998298029,-0.00028395152222740667,0.9998423524988354,0.012589831464642747,0.01251741446224934
1752572683.5688806,-1.9547259779903257,-1.7141903503528295,-1.0687974635880657,-1.0535135669563127,1.604856707975275,0.501259854180198,0.0,0.0,0.0,0.0,0.0,0.0,0.1877079844581294,-0.6956460053422652,0.3818149998298029,-0.00028395152222740667,0.9998423524988354,0.012589831464642747,0.01251741446224934
1752572683.572334,-1.9547259779903257,-1.7141903503528295,-1.0687974635880657,-1.0535135669563127,1.604856707975275,0.501259854180198,0.0,0.0,0.0,0.0,0.0,0.0,0.1877079844581294,-0.6956460053422652,0.3818149998298029,-0.00028395152222740667,0.9998423524988354,0.012589831464642747,0.01251741446224934
1752572683.5786295,-1.9547259779903257,-1.7141903503528295,-1.0687974635880657,-1.0535135669563127,1.604856707975275,0.501259854180198,0.0,0.0,0.0,0.0,0.0,0.0,0.1877079844581294,-0.6956460053422652,0.3818149998298029,-0.00028395152222740667,0.9998423524988354,0.012589831464642747,0.01251741446224934
1752572683.5791106,-1.9547259779903257,-1.7141903503528295,-1.0687974635880657,-1.0535135669563127,1.604856707975275,0.501259854180198,0.0,0.0,0.0,0.0,0.0,0.0,0.1877079844581294,-0.6956460053422652,0.3818149998298029,-0.00028395152222740667,0.9998423524988354,0.012589831464642747,0.01251741446224934
1752572683.5797298,-1.9547259779903257,-1.7141903503528295,-1.0687974635880657,-1.0535135669563127,1.604856707975275,0.501259854180198,0.0,0.0,0.0,0.0,0.0,0.0,0.1877079844581294,-0.6956460053422652,0.3818149998298029,-0.00028395152222740667,0.9998423524988354,0.012589831464642747,0.01251741446224934
1752572683.580284,-1.9547259779903257,-1.7141903503528295,-1.0687974635880657,-1.0535135669563127,1.604856707975275,0.501259854180198,0.0,0.0,0.0,0.0,0.0,0.0,0.1877079844581294,-0.6956460053422652,0.3818149998298029,-0.00028395152222740667,0.9998423524988354,0.012589831464642747,0.01251741446224934
1752572683.581393,-1.9547259779903257,-1.7141903503528295,-1.0687974635880657,-1.0535135669563127,1.604856707975275,0.501259854180198,0.0,0.0,0.0,0.0,0.0,0.0,0.1877079844581294,-0.6956460053422652,0.3818149998298029,-0.00028395152222740667,0.9998423524988354,0.012589831464642747,0.01251741446224934
1752572683.5833657,-1.9547259779903257,-1.7141903503528295,-1.0687974635880657,-1.0535135669563127,1.604856707975275,0.501259854180198,0.0,0.0,0.0,0.0,0.0,0.0,0.1877079844581294,-0.6956460053422652,0.3818149998298029,-0.00028395152222740667,0.9998423524988354,0.012589831464642747,0.01251741446224934
1752572683.5852642,-1.9547259779903257,-1.7141903503528295,-1.0687974635880657,-1.0535135669563127,1.604856707975275,0.501259854180198,0.0,0.0,0.0,0.0,0.0,0.0,0.1877079844581294,-0.6956460053422652,0.3818149998298029,-0.00028395152222740667,0.9998423524988354,0.012589831464642747,0.01251741446224934
1752572683.587364,-1.9547251232403244,-1.7141908553492191,-1.0687990537680658,-1.0535139369213304,1.6048566626112586,0.5012582644353965,0.0008547500015235,-0.0005049963898237,-0.00159018,-0.0003699650180539,-4.536401608251761e-05,-0.0015897448015464,0.1877070682357139,-0.6956466609240703,0.38181512578171234,-0.0002839512465521675,0.999842352834446,0.012589809517985547,0.012517409734833274
1752572683.5892837,-1.95472255899032,-1.714192370338389,-1.0688038243080662,-1.0535150468163843,1.6048565265192103,0.5012534952009918,0.0017095000030471,-0.0010099927796475,-0.00318036,-0.0007399300361079,-9.072803216503522e-05,-0.0031794896030928,0.18770431955856662,-0.6956486276621214,0.38181550363672534,-0.00028395041952913126,0.9998423538412742,0.012589743678295748,0.012517395552356198
1752572683.5913594,-1.954718285240312,-1.714194895320338,-1.068811775208066,-1.053516896641475,1.60485629969913,0.5012455464769842,0.0025642500045707,-0.0015149891694713,-0.00477054,-0.0011098950541619,-0.0001360920482475,-0.0047692344046392,0.18769973839698478,-0.6956519055343244,0.3818161333926978,-0.000283949041166896,0.9998423555193091,0.012589633946416455,0.012517371914131537
1752572683.5935802,-1.9547123019903017,-1.7141984302950668,-1.068822906468066,-1.0535194863966018,1.604855982151017,0.5012344182633733,0.0034190000060942,-0.0020199855592951,-0.00636072,-0.0014798600722159,-0.00018145606433,-0.0063589792061856,0.1876933247014625,-0.6956564945038546,0.38181701504605314,-0.000283947111478825,0.999842357868532,0.012589480323753729,0.012517338819014184
1752572683.5955832,-1.954704609240288,-1.714202975262575,-1.0688372180880652,-1.053522816081764,1.6048555738748729,0.5012201105601594,0.0042737500076178,-0.0025249819491188,-0.0079509,-0.0018498250902699,-0.0002268200804125,-0.007948724007732,0.18768507840269497,-0.6956623945191563,0.38181814859178687,-0.00028394463048486506,0.9998423608889171,0.012589282812275372,0.012517296265402742
1752572683.5973375,-1.9546952069902712,-1.7142085302228631,-1.0688547100680656,-1.0535268856969626,1.6048550748706958,0.5012026233673423,0.0051285000091414,-0.0030299783389426,-0.00954108,-0.0022197901083239,-0.0002721840964951,-0.0095384688092785,0.1876749994115733,-0.6956696055139413,0.38181953402346286,-0.0002839415982085068,0.999842364580431,0.012589041414512161,0.01251724425123614
1752572683.5993285,-1.954684095240252,-1.7142150951759314,-1.0688753824080657,-1.0535316952421976,1.6048544851384867,0.5011819566849223,0.0059832500106649,-0.0035349747287664,-0.01113126,-0.0025897551263779,-0.0003175481125776,-0.0111282136108249,0.18766308761919231,-0.6956781274071862,0.3818211713332149,-0.0002839380146807539,0.999842368943033,0.012588756133557715,0.01251718277399679
1752572683.6022966,-1.954671273990228,-1.714222670121778,-1.0688992351080655,-1.053537244717468,1.6048538046782457,0.501158110512899,0.0068380000121885,-0.0040399711185902,-0.01272144,-0.0029597201444319,-0.0003629121286601,-0.0127179584123713,0.18764934289684687,-0.6956879601031302,0.38182306051174997,-0.0002839338799375284,0.9998423739766749,0.012588426973065246,0.012517111830710621
1752572683.6039,-1.9546567432402029,-1.7142312550604055,-1.0689262681680658,-1.0535435341227748,1.604853033489972,0.5011310848512728,0.0076927500137121,-0.0045449675084139,-0.01431162,-0.0033296851624859,-0.0004082761447426,-0.0143077032139177,0.18763376509603347,-0.6956991034912717,0.3818252015483379,-0.0002839291940193918,0.9998423796813014,0.012588053937255619,0.012517031417942926
1752572683.6059809,-1.9546405029901732,-1.7142408499918125,-1.0689564815880654,-1.053550563458118,1.6048521715736663,0.5011008797000434,0.0085475000152356,-0.0050499638982377,-0.0159018,-0.0036996501805399,-0.0004536401608251,-0.0158974480154641,0.18761635404845525,-0.695711557446367,0.3818275944308255,-0.0002839239569738506,0.9998423860568496,0.01258763703090743,0.012516941531805081
1752572683.6077504,-1.9546405029901732,-1.7142408499918125,-1.0689564815880654,-1.053550563458118,1.6048521715736663,0.5011008797000434,0.0085475000152356,-0.0050499638982377,-0.0159018,-0.0036996501805399,-0.0004536401608251,-0.0158974480154641,0.18761635404845525,-0.695711557446367,0.3818275944308255,-0.0002839239569738506,0.9998423860568496,0.01258763703090743,0.012516941531805081
1752572683.609876,-1.9546225532401411,-1.7142514549159982,-1.0689898753680662,-1.0535583327234974,1.6048512189293287,0.5010674950592109,0.0094022500167592,-0.0055549602880615,-0.01749198,-0.0040696151985939,-0.0004990041769076,-0.0174871928170105,0.1875971095660179,-0.6957253218284232,0.38183023914562597,-0.000283918168852177,0.9998423931032488,0.012587176259364365,0.012516842167949562
1752572683.6127002,-1.9546028939901063,-1.7142630698329642,-1.0690264495080657,-1.0535668419189124,1.6048501755569589,0.5010309309287754,0.0102570000182828,-0.0060599566778853,-0.01908216,-0.0044395802166479,-0.0005443681929902,-0.019076937618557,0.18757603144083881,-0.6957403964826966,0.3818331356777219,-0.00028391182971318376,0.9998424008204219,0.01258667162853253,0.012516733321571851
1752572683.613819,-1.9545815252400685,-1.7142756947427102,-1.0690662040080658,-1.0535760910443637,1.6048490414565568,0.5009911873087367,0.0111117500198064,-0.006564953067709,-0.02067234,-0.0048095452347019,-0.0005897322090727,-0.0206666824201034,0.18755311944524178,-0.6957567812396872,0.3818362840106668,-0.0002839049396191726,0.9998424092082833,0.012586123144880649,0.012516614987410782
1752572683.6153128,-1.954558446990028,-1.7142893296452355,-1.0691091388680656,-1.053586080099851,1.6048478166281226,0.5009482641990949,0.0119665000213299,-0.0070699494575328,-0.02226252,-0.0051795102527559,-0.0006350962251552,-0.0222564272216498,0.1875283733317647,-0.695774475915133,0.3818396841265844,-0.0002838974986394862,0.9998424182667406,0.01258553081543998,0.012516487159748721
1752572683.6173108,-1.9545336592399831,-1.71430397454054,-1.0691552540880656,-1.0535968090853751,1.6048465010716562,0.5009021615998501,0.0128212500228535,-0.0075749458473566,-0.0238527,-0.0055494752708099,-0.0006804602412377,-0.0238461720231962,0.1875017928331594,-0.6957934803100055,0.38184333600616827,-0.00028388950684781627,0.9998424279956939,0.012584894647804556,0.01251634983241171
1752572683.6195135,-1.954507161989936,-1.7143196294286245,-1.0692045496680658,-1.0536082780009348,1.6048450947871575,0.5008528795110021,0.0136760000243771,-0.0080799422371804,-0.02544288,-0.0059194402888639,-0.0007258242573202,-0.0254359168247426,0.18747337766239505,-0.6958137942105025,0.3818472396286796,-0.0002838809643241047,0.9998424383950358,0.01258421465013288,0.012516202998768789
1752572683.6215262,-1.9544789552398851,-1.714336294309489,-1.0692570256080651,-1.0536204868465306,1.604843597774627,0.5008004179325511,0.0145307500259006,-0.0085849386270041,-0.02703306,-0.0062894053069179,-0.0007711882734027,-0.0270256616262891,0.1874431275126623,-0.6958354173880426,0.3818513949719513,-0.0002838718711538077,0.9998424494646518,0.01258349083114544,0.012516046651733786
1752572683.623649,-1.954449038989832,-1.7143539691831329,-1.069312681908066,-1.053633435622162,1.604842010034064,0.500744776864497,0.0153855000274242,-0.0090899350168279,-0.02862324,-0.0066593703249719,-0.0008165522894853,-0.0286154064278355,0.18741104205737186,-0.6958583495992569,0.38185580201238567,-0.0002838622274266477,0.9998424612044197,0.012582723200126175,0.01251588078376433
1752572683.6256354,-1.954417413239776,-1.714372654049556,-1.0693715185680652,-1.0536471243278305,1.604840331565469,0.5006859563068398,0.0162402500289478,-0.0095949314066517,-0.03021342,-0.0070293353430259,-0.0008619163055678,-0.0302051512293819,0.18737712095016568,-0.6958825905859826,0.38186046072495433,-0.00028385203324034566,0.9998424736142097,0.012581911766923547,0.012515705386862497
1752572683.627668,-1.954384077989716,-1.7143923489087598,-1.0694335355880655,-1.0536615529635345,1.6048385623688417,0.5006239562595795,0.0170950000304714,-0.0100999277964755,-0.0318036,-0.0073993003610799,-0.0009072803216503,-0.0317948960309283,0.1873413638249117,-0.6959081400752569,0.381865371083199,-0.00028384128869516706,0.9998424866938853,0.012581056541947805,0.012515520452575838
1752572683.62928,-1.9543490332396545,-1.714413053760742,-1.069498732968066,-1.0536767215292748,1.6048367024441823,0.5005587767227161,0.0179497500319949,-0.0106049241862992,-0.03339378,-0.0077692653791339,-0.0009526443377328,-0.0333846408324747,0.18730377029571352,-0.6959349977793039,0.3818705330592308,-0.0002838299938987799,0.999842500443302,0.012580157536174653,0.012515325971996153
1752572683.6314054,-1.9543122789895888,-1.7144347686055044,-1.069567110708066,-1.0536926300250506,1.6048347517914907,0.5004904176962496,0.0188045000335185,-0.011109920576123,-0.03498396,-0.0081392303971879,-0.0009980083538153,-0.0349743856340211,0.1872643399569133,-0.6959631633955318,0.3818759466237311,-0.0002838181489641862,0.9998425148623079,0.012579214761141962,0.012515121935761661
1752572683.6332746,-1.95427381523952,-1.7144574934430468,-1.069638668808066,-1.0537092784508637,1.6048327104107671,0.50041887918018,0.0196592500350421,-0.0116149169659468,-0.03657414,-0.0085091954152419,-0.0010433723698979,-0.0365641304355676,0.18722307238309358,-0.6959926366065184,0.3818816117459494,-0.00028380575400940275,0.9998425299507441,0.012578228228954066,0.012514908334055181
1752572683.6352012,-1.9542336419894488,-1.7144812282733684,-1.0697134072680656,-1.0537266668067122,1.6048305783020111,0.5003441611745073,0.0205140000365656,-0.0121199133557706,-0.03816432,-0.0088791604332959,-0.0010887363859804,-0.038153875237114,0.18717996712908316,-0.6960234170800049,0.38188752839370654,-0.00028379280915812814,0.9998425457084439,0.012577197952277035,0.012514685156606604
1752572683.637255,-1.9541917592393732,-1.71450597309647,-1.0697913260880654,-1.0537447950925962,1.6048283554652232,0.5002662636792315,0.0213687500380892,-0.0126249097455943,-0.0397545,-0.0092491254513499,-0.0011341004020629,-0.0397436200386604,0.18713502372996227,-0.6960555044688855,0.38189369653339234,-0.0002837793145393112,0.9998425621352335,0.012576123944342073,0.012514452392692436
1752572683.6393456,-1.954148166989296,-1.7145317279123509,-1.0698724252680665,-1.0537636633085177,1.604826041900403,0.5001851866943526,0.0222235000396128,-0.0131299061354181,-0.04134468,-0.0096190904694039,-0.0011794644181454,-0.0413333648402068,0.18708824170106417,-0.696088898411194,0.38190011612996483,-0.00028376527028718,0.9998425792309314,0.012575006218947015,0.012514210031134626
1752572683.6411755,-1.9541028652392152,-1.714558492721011,-1.0699567048080656,-1.053783271454474,1.6048236376075504,0.5001009302198707,0.0230782500411363,-0.0136349025252419,-0.04293486,-0.0099890554874579,-0.0012248284342279,-0.0429231096417532,0.18703962053798706,-0.6961235985300971,0.38190678714695425,-0.0002837506765434201,0.999842596995349,0.012573844790450693,0.012513958060304451
1752572683.6433704,-1.9540558539891315,-1.714586267522452,-1.0700441647080652,-1.0538036195304672,1.604821142586666,0.5000134942557857,0.0239330000426599,-0.0141398989150657,-0.04452504,-0.0103590205055119,-0.0012701924503104,-0.0445128544432997,0.18698915971658964,-0.6961596044338797,0.3819137095464568,-0.00028373553345238634,0.9998426154282903,0.012572639673781156,0.012513696468119053
1752572683.6503787,-1.9540071332390443,-1.7146150523166712,-1.070134804968066,-1.0538247075364957,1.604818556837749,0.4999228788020975,0.0247877500441835,-0.0146448953048894,-0.04611522,-0.0107289855235659,-0.001315556466393,-0.0461025992448461,0.1869368586930028,-0.6961969157159353,0.38192088328914253,-0.00028371984116512815,0.9998426345295515,0.012571390884427113,0.012513425242045382
1752572683.6509445,-1.9539567029889549,-1.7146448471036706,-1.070228625588066,-1.0538465354725617,1.6048158803608004,0.4998290838588062,0.0256425000457071,-0.0151498916947132,-0.0477054,-0.0110989505416199,-0.0013609204824755,-0.0476923440463925,0.186882716903635,-0.6962355319547509,0.3819283083342463,-0.0002837035998389867,0.9998426542989218,0.012570098438447573,0.012513144369097277
1752572683.6532056,-1.9539045632388612,-1.71467565188345,-1.0703256265680654,-1.053869103338663,1.6048131131558194,0.4997321094259119,0.0264972500472306,-0.015654888084537,-0.04929558,-0.0114689155596739,-0.001406284498558,-0.0492820888479389,0.18682673376517603,-0.6962754527138973,0.38193598463957584,-0.00028368680963617945,0.9998426747361828,0.012568762352462657,0.012512853835839404
1752572683.6552088,-1.953850713988766,-1.7147074666560096,-1.070425807908066,-1.0538924111348005,1.6048102552228063,0.4996319555034145,0.0273520000487542,-0.0161598844743608,-0.05088576,-0.0118388805777279,-0.0014516485146405,-0.0508718336494853,0.1867689086746014,-0.6963166775420141,0.3819439121615054,-0.0002836694707233696,0.9998426958411087,0.012567382643662025,0.012512553628384155
1752572683.6571126,-1.9537951552386668,-1.7147402914213483,-1.070529169608066,-1.0539164588609733,1.6048073065617607,0.499528622091314,0.0282067500502778,-0.0166648808641846,-0.05247594,-0.0122088455957819,-0.001497012530723,-0.0524615784510318,0.18670924100918398,-0.6963592059727972,0.38195209085498205,-0.00028365158327476144,0.9998427176134665,0.01256595932979773,0.012512243732395952
1752572683.659303,-1.9537378869885649,-1.7147741261794662,-1.070635711668066,-1.0539412465171836,1.6048042671726832,0.4994221091896104,0.0290615000518013,-0.0171698772540083,-0.05406612,-0.0125788106138359,-0.0015423765468055,-0.0540513232525782,0.18664773012649444,-0.6964030375249821,0.3819605206735192,-0.0002836331474685472,0.9998427400530157,0.012564492429191844,0.012511924133088095
1752572683.6610446,-1.95367890923846,-1.714808970930363,-1.0707454340880656,-1.053966774103429,1.6048011370555737,0.4993124167983037,0.0299162500533249,-0.0176748736438321,-0.0556563,-0.0129487756318899,-0.0015877405628881,-0.0556410680541246,0.18658437536441164,-0.6964481717023333,0.38196920156920117,-0.00028361416348907206,0.9998427631595082,0.012562981960730238,0.012511594815226398
1752572683.6630063,-1.953618221988352,-1.7148448256740414,-1.0708583368680653,-1.0539930416197103,1.6047979162104318,0.4991995449173939,0.0307710000548485,-0.0181798700336559,-0.05724648,-0.0133187406499439,-0.0016331045789706,-0.057230812855671,0.1865191760411275,-0.6964946079936272,0.38197813349267895,-0.0002835946315257519,0.9998427869326885,0.01256142794386772,0.012511255763126809
1752572683.6652763,-1.95355582523824,-1.7148816904104986,-1.0709744200080653,-1.054020049066029,1.6047946046372576,0.499083493546881,0.031625750056372,-0.0186848664234797,-0.05883666,-0.0136887056679979,-0.0016784685950531,-0.0588205576572174,0.18645213145515413,-0.6965423458726353,0.3819873163931767,-0.00028357455177360004,0.9998428113722941,0.01255983039862469,0.012510906960658794
1752572683.6668935,-1.9534917189881256,-1.714919565139735,-1.0710936835080656,-1.054047796442383,1.6047912023360515,0.498964262686765,0.0324805000578956,-0.0191898628133034,-0.06042684,-0.0140586706860519,-0.0017238326111356,-0.0604103024587638,0.18638324088533195,-0.6965913847981107,0.38199675021848434,-0.0002835539244332558,0.999842836478055,0.012558189345589514,0.012510548391244351
1752572683.6690662,-1.953425903238008,-1.7149584498617516,-1.071216127368066,-1.0540762837487732,1.6047877093068132,0.4988418523370459,0.0333352500594192,-0.0196948592031272,-0.06201702,-0.0144286357041059,-0.0017691966272181,-0.0620000472603103,0.18631250359083645,-0.6966417242137708,0.38200643491496195,-0.0002835327497108591,0.9998428622496932,0.012556504805918684,0.012510180037858401
1752572683.670959,-1.953358377987888,-1.7149983445765482,-1.071341751588066,-1.054105510985199,1.6047841255495428,0.4987162624977238,0.0341900000609428,-0.020199855592951,-0.0636072,-0.0147986007221599,-0.0018145606433007,-0.0635897920618567,0.18623991881118623,-0.6966933635482807,0.38201637042753844,-0.000283511027818342,0.9998428886869242,0.012554776801336268,0.012509801883030223
1752572683.6729872,-1.9532891432377648,-1.715039249284123,-1.071470556168066,-1.054135478151661,1.60478045106424,0.4985874931687985,0.0350447500624663,-0.0207048519827748,-0.06519738,-0.0151685657402139,-0.0018599246593832,-0.0651795368634031,0.1861654857662495,-0.6967463022152355,0.38202655669971336,-0.0002834887589727072,0.9998429157894554,0.012553005354133796,0.01250941390884425
1752572683.6765158,-1.9532891432377648,-1.715039249284123,-1.071470556168066,-1.054135478151661,1.60478045106424,0.4985874931687985,0.0350447500624663,-0.0207048519827748,-0.06519738,-0.0151685657402139,-0.0018599246593832,-0.0651795368634031,0.1861654857662495,-0.6967463022152355,0.38202655669971336,-0.0002834887589727072,0.9998429157894554,0.012553005354133796,0.01250941390884425
1752572683.6791446,-1.953071181987376,-1.7151680233635282,-1.071876052068066,-1.0542298192312654,1.604768883240139,0.4981821082444042,0.037609000067037,-0.0222198411522461,-0.06996792,-0.0162784607943759,-0.0019960167076307,-0.0699487712680424,0.18593108894383514,-0.6969129081203067,0.38205861948733805,-0.00028341867297004814,0.9998430010858155,0.012547430588264805,0.012508190884310875
1752572683.6810234,-1.952995109237241,-1.7152129680422226,-1.0720175780880652,-1.054262746117872,1.6047648458427075,0.4980406209570665,0.0384637500685606,-0.0227248375420699,-0.0715581,-0.0166484258124299,-0.0020413807237132,-0.0715385160695888,0.18584925464373442,-0.6969710379509763,0.38206980820426234,-0.0002833942185928975,0.999843030846476,0.01254548560488469,0.012507763444648738
1752572683.683176,-1.9529173269871016,-1.715258922713697,-1.0721622844680656,-1.054296412934515,1.604760717717244,0.4978959541801258,0.0393185000700842,-0.0232298339318936,-0.07314828,-0.0170183908304839,-0.0020867447397958,-0.0731282608711352,0.18576556788323492,-0.6970304639553908,0.38208124737680893,-0.00028336921843001323,0.999843061270864,0.012543497298881668,0.01250732608939222
1752572683.6849666,-1.95283783523696,-1.7153058873779503,-1.0723101712080665,-1.0543308196811942,1.6047564988637484,0.497748107913582,0.0401732500716078,-0.0237348303217174,-0.07473846,-0.0173883558485379,-0.0021321087558783,-0.0747180056726816,0.1856800277644838,-0.697091185456341,0.38209293693988794,-0.00028334367273186016,0.9998430923586427,0.012541465695964817,0.012506878797967334
1752572683.6870184,-1.952756633986816,-1.7153538620349842,-1.0724612383080654,-1.054365966357909,1.6047521892822203,0.4975970821574351,0.0410280000731313,-0.0242398267115412,-0.07632864,-0.0177583208665919,-0.0021774727719608,-0.076307750474228,0.18559263337004067,-0.6971532017614155,0.38210487682697847,-0.00028331758175501455,0.9998431241094677,0.012539390822413675,0.012506421549359678
1752572683.6891403,-1.952673723236668,-1.715402846684796,-1.0726154857680656,-1.0544018529646602,1.6047477889726605,0.4974428769116851,0.0418827500746549,-0.024744823101365,-0.07791882,-0.0181282858846459,-0.0022228367880433,-0.0778974952757745,0.18550338376288192,-0.6972165121629804,0.38211706697013176,-0.0002832909457591795,0.9998431565229877,0.012537272705076956,0.012505954322116736
1752572683.6912005,-1.9525891029865168,-1.715452841327389,-1.072772913588066,-1.0544384795014476,1.6047432979350684,0.497285492176332,0.0427375000761785,-0.0252498194911887,-0.079509,-0.0184982509026999,-0.0022682008041258,-0.0794872400773209,0.18541227798641705,-0.6972811159381571,0.38212950729996137,-0.0002832637650114327,0.9998431895988438,0.012535111371378197,0.012505477094344585
1752572683.693241,-1.9525891029865168,-1.715452841327389,-1.072772913588066,-1.0544384795014476,1.6047432979350684,0.497285492176332,0.0427375000761785,-0.0252498194911887,-0.079509,-0.0184982509026999,-0.0022682008041258,-0.0794872400773209,0.18541227798641705,-0.6972811159381571,0.38212950729996137,-0.0002832637650114327,0.9998431895988438,0.012535111371378197,0.012505477094344585
1752572683.695177,-1.952502773236363,-1.7155038459627612,-1.072933521768066,-1.0544758459682717,1.604738716169444,0.4971249279513758,0.043592250077702,-0.0257548158810125,-0.08109918,-0.0188682159207539,-0.0023135648202084,-0.0810769848788673,0.18531931506449437,-0.6973470123487998,0.3821421977456539,-0.0002832360397840196,0.9998432233366694,0.0125329068493097,0.012504989843712903
1752572683.6971705,-1.952414733986206,-1.7155558605909134,-1.073097310308066,-1.0545139523651308,1.6047340436757875,0.4969611842368165,0.0444470000792256,-0.0262598122708363,-0.08268936,-0.0192381809388079,-0.0023589288362909,-0.0826667296804137,0.18522449400141278,-0.6974142006414756,0.38215513823496317,-0.000283207770354436,0.999843257736091,0.012530659167436384,0.012504492547454229
1752572683.699085,-1.9523249852360465,-1.7156088852118447,-1.0732642792080656,-1.0545527986920264,1.604729280454099,0.4967942610326541,0.0453017500807492,-0.0267648086606601,-0.08427954,-0.0196081459568619,-0.0024042928523734,-0.0842564744819601,0.18512781378193158,-0.6974826800474396,0.382168328694211,-0.00028317895700603993,0.9998432927967269,0.012528368354896634,0.012503985182363805
1752572683.7009754,-1.952233526985883,-1.7156629198255562,-1.0734344284680652,-1.0545923849489585,1.604724426504378,0.4966241583388887,0.0461565000822727,-0.0272698050504838,-0.08586972,-0.0199781109749159,-0.0024496568684559,-0.0858462192835065,0.18502927337128083,-0.697552449782615,0.3821817690482883,-0.00028314960002692583,0.9998433285181892,0.012526034441400482,0.012503467724802046
1752572683.7030537,-1.9521403592357167,-1.7157179644320468,-1.073607758088066,-1.054632711135926,1.604719481826625,0.4964508761555201,0.0470112500837963,-0.0277748014403076,-0.0874599,-0.0203480759929699,-0.0024950208845384,-0.087435964085053,0.18492887171517172,-0.6976235090475662,0.3821954592206537,-0.0002831196997107588,0.9998433649000816,0.012523657457231463,0.012502940150694546
1752572683.7060907,-1.9520454819855484,-1.7157740190313169,-1.0737842680680654,-1.0546737772529298,1.6047144464208398,0.4962744144825484,0.0478660000853199,-0.0282797978301314,-0.08905008,-0.0207180410110239,-0.0025403849006209,-0.0890257088865994,0.1848266077398109,-0.697695857027476,0.3822093991333334,-0.00028308925635848103,0.9998434019420007,0.012521237433247852,0.012502402435532516
1752572683.7079804,-1.9519488952353756,-1.7158310836233674,-1.0739639584080658,-1.05471558329997,1.6047093202870226,0.4960947733199737,0.0487207500868435,-0.0287847942199552,-0.09064026,-0.0210880060290779,-0.0025857489167035,-0.0906154536881458,0.18472248035190603,-0.6977694928921245,0.3822235887069227,-0.00028305827027368965,0.9998434396435358,0.012518774400880735,0.012501854554375108
1752572683.7092311,-1.9518505989852004,-1.7158891582081974,-1.0741468291080656,-1.0547581292770465,1.604704103425173,0.4959119526677958,0.049575500088367,-0.0292897906097789,-0.09223044,-0.0214579710471319,-0.002631112932786,-0.0922051984896922,0.18461648843868225,-0.6978444157958585,0.38223802786058414,-0.0002830267417679396,0.9998434780042685,0.0125162683921363,0.01250129648184873
1752572683.7110562,-1.9517505932350223,-1.7159482427858066,-1.0743328801680656,-1.0548014151841585,1.6046987958352914,0.4957259525260149,0.0504302500898906,-0.0297947869996027,-0.09382062,-0.0218279360651859,-0.0026764769488685,-0.0937949432912386,0.18450863086789066,-0.6979206248775716,0.3822527165120497,-0.0002829946711567037,0.9998435170237737,0.01251371943959495,0.01250072819214964
1752572683.7132142,-1.9516488779848409,-1.716008337356195,-1.074522111588066,-1.0548454410213068,1.6046933975173776,0.4955367728946309,0.0512850000914142,-0.0302997833894265,-0.0954108,-0.0221979010832399,-0.002721840964951,-0.0953846880927851,0.18439890648782176,-0.6979981192606757,0.3822676545776179,-0.0002829620587616636,0.999843556701618,0.01251112757641306,0.012500149659043362
1752572683.7151115,-1.9515454532346563,-1.7160694419193645,-1.0747145233680655,-1.0548902067884915,1.6046879084714316,0.4953444137736438,0.0521397500929377,-0.0308047797792503,-0.09700098,-0.0225678661012939,-0.0027672049810335,-0.0969744328943315,0.18428731412731839,-0.6980768980530755,0.3822828419721542,-0.00028292890491037607,0.9998435970373611,0.01250849283632372,0.012499560855865836
1752572683.7170465,-1.951440318984469,-1.7161315564753128,-1.0749101155080665,-1.0549357124857126,1.6046823286974534,0.4951488751630536,0.0529945000944613,-0.0313097761690741,-0.09859116,-0.0229378311193479,-0.002812568997116,-0.0985641776958779,0.18417385259578353,-0.6981569603471423,0.3822982786090946,-0.0002828952099342191,0.9998436380305553,0.012505815253634337,0.012498961755526
1752572683.719181,-1.9513334752342784,-1.7161946810240405,-1.0751088880080657,-1.0549819581129691,1.6046766581954433,0.4949501570628603,0.0538492500959849,-0.0318147725588978,-0.10018134,-0.0233077961374019,-0.0028579330131986,-0.1001539224974243,0.18405852068320064,-0.6982383052196868,0.38231396440044113,-0.00028286097417283334,0.9998436796807454,0.012503094863229739,0.012498352330505266
1752572683.7210371,-1.9512249219840851,-1.7162588155655474,-1.0753108408680658,-1.055028943670262,1.6046708969654009,0.4947482594730639,0.0547040000975084,-0.0323197689487216,-0.10177152,-0.0236777611554559,-0.0029032970292811,-0.1017436672989707,0.18394131716013762,-0.6983209317319318,0.3823298992567637,-0.00028282619796834795,0.9998437219874687,0.012500331700572664,0.01249773255285844
1752572683.7231607,-1.9511146592338893,-1.7163239600998352,-1.0755159740880655,-1.0550766691575912,1.604665045007326,0.4945431823936644,0.055558750099032,-0.0328247653385454,-0.1033617,-0.0240477261735099,-0.0029486610453636,-0.1033334121005171,0.18382224077776702,-0.6984048389294844,0.38234608308719814,-0.0002827908816706276,0.9998437649502554,0.01249752580170372,0.012497102394215026
1752572683.725011,-1.9510026869836892,-1.7163901146269025,-1.0757242876680655,-1.055125134574956,1.604659102321219,0.4943349258246618,0.0564135001005556,-0.0333297617283692,-0.10495188,-0.0244176911915639,-0.0029940250614461,-0.1049231569020636,0.18370129026787482,-0.6984900258423081,0.38236251579945174,-0.00028275502563377417,0.999843808568628,0.01249467720323912,0.012496461825782146
1752572683.7270806,-1.9508890052334864,-1.7164572791467485,-1.0759357816080657,-1.055174339922357,1.6046530689070804,0.4941234897660561,0.0572682501020792,-0.0338347581181929,-0.10654206,-0.0247876562096179,-0.0030393890775286,-0.10651290170361,0.18357846434287572,-0.6985764914846927,0.3823791972997963,-0.0002827186302178204,0.9998438528421016,0.01249178594237653,0.012495810818342536
1752572683.7304742,-1.950773613983281,-1.7165254536593748,-1.0761504559080652,-1.0552242851997944,1.6046469447649092,0.4939088742178474,0.0581230001036027,-0.0343397545080167,-0.10813224,-0.0251576212276719,-0.0030847530936111,-0.1081026465051564,0.18345376169582725,-0.6986642348552261,0.3823961274930704,-0.0002826816957886745,0.9998438977701842,0.012488852056892095,0.012495149342256791
1752572683.731097,-1.9506565132330724,-1.7165946381647803,-1.076368310568066,-1.055274970407268,1.604640729894706,0.4936910791800355,0.0589777501051263,-0.0348447508978405,-0.10972242,-0.0255275862457259,-0.0031301171096937,-0.1096923913067028,0.18332718100044082,-0.6987532549367655,0.38241330628268205,-0.0002826442227165515,0.9998439433523761,0.012485875585140575,0.012494477367465891
1752572683.7332845,-1.95053770298286,-1.716664832662966,-1.076589345588066,-1.0553263955447774,1.6046344242964703,0.4934701046526206,0.0598325001066499,-0.0353497472876643,-0.1113126,-0.0258975512637799,-0.0031754811257762,-0.1112821361082492,0.183198720911101,-0.6988435506964066,0.38243073357060525,-0.00028260621137883227,0.9998439895881704,0.012482856566057347,0.012493794863490258
1752572683.7350574,-1.9504171832326456,-1.7167360371539315,-1.0768135609680662,-1.055378560612323,1.6046280279702028,0.4932459506356025,0.0606872501081734,-0.035854743677488,-0.11290278,-0.0262675162818339,-0.0032208451418587,-0.1128718809097956,0.18306838006287418,-0.6989351210854514,0.38244840925738083,-0.0002825676621571216,0.9998440364770527,0.012479795039159183,0.012493101799432294
1752572683.7371464,-1.950294953982428,-1.7168082516376764,-1.077040956708066,-1.0554314656099049,1.6046215409159028,0.4930186171289814,0.061542000109697,-0.0363597400673118,-0.11449296,-0.0266374812998879,-0.0032662091579412,-0.1144616257113421,0.18293615707152705,-0.6990279650393806,0.3824663332421178,-0.0002825285754390799,0.9998440840185011,0.012476691044542737,0.012492398143976747
1752572683.7391582,-1.9501710152322067,-1.7168814761142004,-1.0772715328080658,-1.0554851105375225,1.6046149631335709,0.4927881041327571,0.0623967501112206,-0.0368647364571356,-0.11608314,-0.0270074463179419,-0.0033115731740237,-0.1160513705128885,0.18280205053354004,-0.6991220814778201,0.3824845054224918,-0.0002824889516178679,0.9998441322119864,0.012473544622886537,0.012491683865392839
1752572683.7411628,-1.9500453669819828,-1.7169557105835045,-1.077505289268066,-1.0555394953951769,1.6046082946232068,0.4925544116469298,0.0632515001127441,-0.0373697328469594,-0.11767332,-0.0273774113359959,-0.0033569371901063,-0.1176411153144349,0.1826660590261213,-0.6992174693045093,0.3825029256947441,-0.00028244879109127265,0.999844181056972,0.012470355815452847,0.012490958931533494
1752572683.7430625,-1.949918009231756,-1.717030955045589,-1.0777422260880662,-1.055594620182866,1.6046015353848104,0.4923175396714994,0.0641062501142677,-0.0378747292367831,-0.1192635,-0.0277473763540499,-0.0034023012061888,-0.1192308601159813,0.18252818110722516,-0.6993141274072698,0.3825215939536836,-0.0002824080942639833,0.9998442305529142,0.012467124664084615,0.01249022330983905
1752572683.7450602,-1.9497889419815253,-1.717107209500452,-1.077982343268066,-1.0556504849005923,1.604594685418382,0.4920774882064659,0.0649610001157913,-0.0383797256266069,-0.12085368,-0.0281173413721039,-0.0034476652222713,-0.1208206049175277,0.18238841531556463,-0.6994120546579717,0.3825405100926877,-0.00028236686154542624,0.9998442806992611,0.012463851211208864,0.01248947696733693
1752572683.7470443,-1.949658165231293,-1.7171844739480946,-1.078225640808066,-1.0557070895483545,1.6045877447239214,0.4918342572518293,0.0658157501173149,-0.0388847220164307,-0.12244386,-0.0284873063901579,-0.0034930292383538,-0.1224103497190742,0.18224676017062752,-0.699511249912501,0.3825596740036969,-0.0002823250933503479,0.9998443314954542,0.01246053549983745,0.012488719870642725
1752572683.7491312,-1.9495256789810569,-1.7172627483885172,-1.0784721187080653,-1.0557644341261536,1.6045807133014287,0.4915878468075896,0.0666705001188384,-0.0393897184062545,-0.12403404,-0.0288572714082119,-0.0035383932544363,-0.1240000945206206,0.18210321417269473,-0.6996117120107264,0.382579085577221,-0.0002822827900996058,0.9998443829409271,0.012457177573565558,0.012487951985962316
1752572683.7510808,-1.9493914832308172,-1.71734203282172,-1.0787217769680657,-1.0558225186339882,1.6045735911509036,0.4913382568737468,0.067525250120362,-0.0398947147960782,-0.1256242200000001,-0.0292272364262659,-0.0035837572705188,-0.125589839322167,0.18195777580285305,-0.6997134397764653,0.3825987447023351,-0.0002822399522183922,0.9998444350351064,0.01245377747657284,0.012487173279093046
1752572683.7530746,-1.9492555779805745,-1.7174223272477018,-1.0789746155880655,-1.0558813430718583,1.6045663782723465,0.4910854874503009,0.0683800001218856,-0.040399711185902,-0.1272144000000001,-0.0295972014443199,-0.0036291212866014,-0.1271795841237134,0.18181044352301537,-0.699816432017448,0.38261865126668165,-0.0002821965801391206,0.9998444877774112,0.012450335253625175,0.012486383715424697
1752572683.7580378,-1.9491179632303293,-1.7175036316664638,-1.0792306345680656,-1.0559409074397648,1.6045590746657572,0.490829538537252,0.0692347501234091,-0.0409047075757258,-0.12880458,-0.0299671664623739,-0.0036744853026839,-0.1287693289252598,0.18166121577593386,-0.6999206875252841,0.38263880515646725,-0.0002821526742981088,0.9998445411672527,0.01244685095007545,0.01248558325993998
1752572683.7597315,-1.94883760522983,-1.717669270482325,-1.0797522136080655,-1.0560622559656867,1.6045441952684822,0.4903081022423447,0.0709442501264563,-0.0419147003553733,-0.13198494,-0.0307070964984819,-0.0037652133348489,-0.1319488185283527,0.1813570675553577,-0.70013298342714,0.38267985445002217,-0.0002820632631071506,0.9998446498871558,0.012439756285510249,0.012483949531432744
1752572683.7611756,-1.94883760522983,-1.717669270482325,-1.0797522136080655,-1.0560622559656867,1.6045441952684822,0.4903081022423447,0.0709442501264563,-0.0419147003553733,-0.13198494,-0.0307070964984819,-0.0037652133348489,-0.1319488185283527,0.1813570675553577,-0.70013298342714,0.38267985445002217,-0.0002820632631071506,0.9998446498871558,0.012439756285510249,0.012483949531432744
1752572683.7632613,-1.9486948619795756,-1.7177536048794266,-1.0800177736680654,-1.0561240401237022,1.6045366194777964,0.4900426148604865,0.0717990001279799,-0.0424196967451971,-0.1335751200000001,-0.0310770615165359,-0.0038105773509314,-0.1335385633298991,0.18120214387172748,-0.7002410213234556,0.38270074961903655,-0.0002820177586585911,0.9998447052160037,0.012436146018135452,0.012483116186357194
1752572683.765248,-1.948550409229318,-1.7178389492693062,-1.0802865140880655,-1.0561865642117532,1.6045289529590785,0.4897739479890251,0.0726537501295034,-0.0429246931350209,-0.1351653000000001,-0.0314470265345899,-0.003855941367014,-0.1351283081314455,0.18104531830061676,-0.700350317491143,0.38272189164398546,-0.00028197172225134326,0.9998447611899608,0.012432493857437865,0.012482271805364167
1752572683.767007,-1.9484042469790577,-1.7179253036519668,-1.080558434868066,-1.0562498282298396,1.6045211957123284,0.4895021016279607,0.073508500131027,-0.0434296895248447,-0.1367554800000001,-0.0318169915526439,-0.0039013053830965,-0.1367180529329919,0.18088658918924222,-0.7004608706406696,0.3827432804039044,-0.0002819251543498101,0.9998448178084016,0.012428799851710484,0.012481416351425112
1752572683.769181,-1.9482563752287945,-1.7180126680274057,-1.0808335360080656,-1.0563138321779633,1.6045133477375462,0.4892270757772932,0.0743632501325506,-0.0439346859146684,-0.1383456600000001,-0.0321869565706979,-0.003946669399179,-0.1383077977345383,0.18072595486576712,-0.7005726794661631,0.38276491577639926,-0.00028187805542440834,0.9998448750706935,0.012425064049833977,0.012480549787114737
1752572683.7710595,-1.9481067939785277,-1.7181010423956256,-1.0811118175080656,-1.0563785760561224,1.6045054090347315,0.4889488704370225,0.0752180001340741,-0.0444396823044922,-0.1399358400000001,-0.0325569215887519,-0.0039920334152615,-0.1398975425360848,0.18056341363931885,-0.7006857426453756,0.3827867976376378,-0.00028183042595009725,0.9998449329761963,0.012421286501279799,0.012479672074610666
1752572683.773017,-1.9479555032282576,-1.7181904267566237,-1.0813932793680658,-1.0564440598643188,1.604497379603885,0.4886674856071488,0.0760727501355977,-0.044944678694316,-0.14152602,-0.0329268866068059,-0.004037397431344,-0.1414872873376312,0.18039896380000833,-0.7008000588396424,0.3828089258623569,-0.0002817822664079339,0.9998449915242621,0.012417467256110232,0.012478783175696074
1752572683.775083,-1.9478025029779849,-1.7182808211104028,-1.0816779215880654,-1.0565102836025506,1.6044892594450062,0.488382921287672,0.0769275001371213,-0.0454496750841398,-0.1431162000000001,-0.0332968516248599,-0.0040827614474265,-0.1430770321391776,0.18023260361894955,-0.7009156266938446,0.3828313003238551,-0.0002817335772846833,0.9998450507142361,0.012413606364979799,0.012477883051759233
1752572683.776961,-1.9476477932277088,-1.7183722254569602,-1.081965744168066,-1.056577247270818,1.6044810485580954,0.4880951774785921,0.0777822501386449,-0.0459546714739635,-0.1447063800000001,-0.0336668166429139,-0.0041281254635091,-0.144666776940724,0.18006433134827618,-0.7010324448363715,0.3828539208940002,-0.0002816843590716255,0.999845110545456,0.01240970387913334,0.012476971663797864
1752572683.7789807,-1.9474913739774309,-1.7184646397962986,-1.0822567471080653,-1.0566449508691216,1.6044727469431523,0.4878042541799091,0.0786370001401684,-0.0464596678637873,-0.1462965600000001,-0.0340367816609679,-0.0041734894795916,-0.1462565217422704,0.17989414522116565,-0.7011505118790774,0.38287678744322057,-0.00028163461226716504,0.9998451710172516,0.01240575985041218,0.012476048972416725
1752572683.780974,-1.9473332452271483,-1.7185580641284153,-1.0825509304080656,-1.0567133943974616,1.604464354600177,0.487510151391623,0.079491750141692,-0.0469646642536111,-0.1478867400000001,-0.0344067466790219,-0.0042188534956741,-0.1478462665438168,0.179722043451853,-0.7012698264172459,0.3828998998405158,-0.000281584337373291,0.9998452321289459,0.012401774331246312,0.012475114937833806
1752572683.7839398,-1.947173406976864,-1.718652498453313,-1.0828482940680662,-1.056782577855838,1.6044558715291697,0.4872128691137338,0.0803465001432156,-0.0474696606434349,-0.1494769200000001,-0.0347767116970759,-0.0042642175117566,-0.1494360113453633,0.17954802423565555,-0.7013903870295453,0.3829232579534441,-0.0002815335348986451,0.9998452938798542,0.01239774737466511,0.012474169519877275
1752572683.7853196,-1.947011859226576,-1.7187479427709889,-1.083148838088066,-1.0568525012442498,1.60444729773013,0.4869124073462416,0.0812012501447391,-0.0479746570332587,-0.1510671000000001,-0.0351466767151299,-0.0043095815278391,-0.1510257561469097,0.17937208574899186,-0.7015121922779902,0.38294686164813424,-0.0002814822053577162,0.9998453562692847,0.012393679034287553,0.012473212677991102
1752572683.7870965,-1.946848601976285,-1.7188443970814458,-1.0834525624680662,-1.0569231645626989,1.6044386332030582,0.4866087660891462,0.0820560001462627,-0.0484796534230824,-0.1526572800000001,-0.0355166417331839,-0.0043549455439216,-0.1526155009484561,0.17919422614940014,-0.7016352407078995,0.3829707107892751,-0.0002814303492693969,0.9998454192965376,0.0123895693643332,0.01247224437123253
1752572683.789184,-1.946683635225991,-1.718941861384682,-1.0837594672080657,-1.0569945678111825,1.6044298779479542,0.4863019453424477,0.0829107501477863,-0.0489846498129062,-0.1542474600000001,-0.0358866067512379,-0.0044003095600042,-0.1542052457500025,0.17901444357556198,-0.7017595308478547,0.38299480524012397,-0.0002813779671591768,0.9998454829609064,0.012385418419613239,0.012471264558278013
1752572683.791022,-1.9465169589756932,-1.7190403356806971,-1.0840695523080657,-1.0570667109897034,1.6044210319648182,0.4859919451061462,0.0837655001493098,-0.04948964620273,-0.1558376400000001,-0.0362565717692919,-0.0044456735760867,-0.155794990551549,0.1788327361473204,-0.7018850612096573,0.38301914486250166,-0.0002813250595568796,0.9998455472616766,0.012381226255538336,0.01247027319742146
1752572683.7933922,-1.946348573225393,-1.7191398199694925,-1.0843828177680654,-1.0571395940982595,1.60441209525365,0.4856787653802416,0.0846202501508334,-0.0499946425925538,-0.1574278200000001,-0.0366265367873459,-0.0044910375921692,-0.1573847353530954,0.17864910196570358,-0.7020118302882867,0.383043729516792,-0.0002812716269986482,0.9998456121981268,0.012376992928116483,0.012469270246576694
1752572683.7950096,-1.9461784779750904,-1.719240314251067,-1.0846992635880657,-1.0572132171368525,1.6044030678144494,0.4853624061647338,0.085475000152357,-0.0504996389823775,-0.1590180000000001,-0.0369965018053999,-0.0045364016082517,-0.1589744801546418,0.1784635391129443,-0.7021398365618565,0.3830685590619444,-0.00028121767002569573,0.9998456777695278,0.012372718493953676,0.012468255663279621
1752572683.7969851,-1.946006673224784,-1.7193418185254217,-1.0850188897680653,-1.0572875801054815,1.6043939496472168,0.485042867459623,0.0863297501538806,-0.0510046353722013,-0.1606081800000001,-0.0373664668234539,-0.0045817656243342,-0.1605642249561882,0.1782760456525046,-0.7022690784915722,0.38309363335547336,-0.0002811631891854292,0.9998457439751434,0.012368403010254183,0.012467229404690297
1752572683.7990892,-1.9458331589744748,-1.7194443327925564,-1.085341696308066,-1.057362683004147,1.6043847407519525,0.4847201492649091,0.0871845001554041,-0.0515096317620251,-0.1621983600000001,-0.0377364318415079,-0.0046271296404168,-0.1621539697577346,0.17808661962909336,-0.7023995545216859,0.3831189522534562,-0.00028110818502946546,0.9998458108142293,0.012364046534822868,0.012466191427593306
1752572683.8010125,-1.9456579352241616,-1.7195478570524705,-1.085667683208066,-1.0574385258328478,1.6043754411286553,0.4843942515805921,0.0880392501569277,-0.0520146281518489,-0.1637885400000001,-0.0381063968595619,-0.0046724936564993,-0.163743714559281,0.17789525906869383,-0.702531263079453,0.3831445156105361,-0.0002810526581164755,0.9998458782860348,0.012359649126062865,0.012465141688400386
1752572683.803023,-1.9454810019738469,-1.7196523913051642,-1.0859968504680657,-1.057515108591585,1.604366050777326,0.4840651744066719,0.0888940001584513,-0.0525196245416726,-0.1653787200000001,-0.0384763618776159,-0.0047178576725818,-0.1653334593608275,0.17770196197858124,-0.7026642025750856,0.38317032327991735,-0.0002809966090098122,0.9998459463898008,0.012355210842981723,0.012464080143151172
1752572683.8050485,-1.945302359223529,-1.7197579355506374,-1.086329198088066,-1.0575924312803575,1.604356569697965,0.4837329177431487,0.0897487501599748,-0.0530246209314964,-0.1669689000000001,-0.0388463268956699,-0.0047632216886643,-0.1669232041623739,0.1775067263473486,-0.7027983714017106,0.3831963751133714,-0.0002809400382778286,0.9998460151247615,0.012350731745185356,0.012463006747516808
1752572683.8072348,-1.9451220069732076,-1.7198644897888895,-1.086664726068066,-1.0576704938991677,1.6043469978905716,0.4833974815900224,0.0906035001614984,-0.0535296173213202,-0.1685590800000001,-0.0392162919137239,-0.0048085857047468,-0.1685129489639203,0.17730955014492988,-0.7029337679353213,0.38322267096123214,-0.000280882946495405,0.9998460844901434,0.012346211892884243,0.012461921456799259
1752572683.8136735,-1.9451220069732076,-1.7198644897888895,-1.086664726068066,-1.0576704938991677,1.6043469978905716,0.4833974815900224,0.0906035001614984,-0.0535296173213202,-0.1685590800000001,-0.0392162919137239,-0.0048085857047468,-0.1685129489639203,0.17730955014492988,-0.7029337679353213,0.38322267096123214,-0.000280882946495405,0.9998460844901434,0.012346211892884243,0.012461921456799259
1752572683.8140028,-1.944570693222224,-1.7201902124603263,-1.0876903921680654,-1.057909121335812,1.6043177381001985,0.482372096193025,0.0931677501660691,-0.0550446064907915,-0.1733296200000001,-0.0403261869678859,-0.0049446777529944,-0.1732821833685595,0.17670635753048344,-0.7033473072800408,0.38330302107304126,-0.0002807085506712495,0.999846296360971,0.012332408420101032,0.01245859376168921
1752572683.8151484,-1.944570693222224,-1.7201902124603263,-1.0876903921680654,-1.057909121335812,1.6043177381001985,0.482372096193025,0.0931677501660691,-0.0550446064907915,-0.1733296200000001,-0.0403261869678859,-0.0049446777529944,-0.1732821833685595,0.17670635753048344,-0.7033473072800408,0.38330302107304126,-0.0002807085506712495,0.999846296360971,0.012332408420101032,0.01245859376168921
1752572683.817156,-1.944383502971891,-1.7203008066696972,-1.0880386415880654,-1.0579901436747663,1.604307803380676,0.4820239420814863,0.0940225001675927,-0.0555496028806153,-0.1749198000000001,-0.0406961519859399,-0.0049900417690769,-0.174871928170106,0.17650139837027823,-0.703487598057252,0.38333029145313474,-0.0002806493805404604,0.9998463682401554,0.012327726163952866,0.01245746043636465
1752572683.8190413,-1.944194603221554,-1.7204124108718482,-1.0883900713680656,-1.0580719059437556,1.604297777933122,0.4816726084803446,0.0948772501691163,-0.0560545992704391,-0.1765099800000001,-0.0410661170039939,-0.0050354057851594,-0.1764616729716524,0.17629448820948282,-0.7036291081627991,0.38335780507775585,-0.0002805896923132627,0.9998464407457827,0.01232300346341051,0.012456314987011762
1752572683.82103,-1.9440039939712144,-1.7205250250667792,-1.088744681508066,-1.0581544081427818,1.6042876617575357,0.4813180953895997,0.0957320001706398,-0.0565595956602628,-0.1781001600000001,-0.0414360820220479,-0.0050807698012419,-0.1780514177731988,0.17608562490657137,-0.703771835868896,0.3833855617886177,-0.0002805294865973431,0.9998465138770349,0.012318240382315125,0.01245515736676107
1752572683.8229706,-1.9438116752208716,-1.7206386492544894,-1.089102472008066,-1.0582376502718445,1.604277454853917,0.4809604028092518,0.0965867501721634,-0.0570645920500866,-0.1796903400000001,-0.0418060470401019,-0.0051261338173244,-0.1796411625747452,0.17587480630152805,-0.7039157794302942,0.3834135614259982,-0.0002804687640056111,0.9998465876330873,0.012313436985113174,0.01245398752838958
1752572683.8249831,-1.9436176469705255,-1.7207532834349797,-1.089463442868066,-1.0583216323309426,1.6042671572222662,0.4805995307393008,0.097441500173687,-0.0575695884399104,-0.1812805200000001,-0.0421760120581559,-0.005171497833407,-0.1812309073762917,0.1756620302158717,-0.7040609370842319,0.3834418038287367,-0.00028040752515630965,0.9998466620131067,0.012308593336860562,0.012452805424320482
1752572683.8270218,-1.9434219092201763,-1.7208689276082492,-1.0898275940880655,-1.058406354320077,1.6042567688625833,0.4802354791797466,0.0982962501752105,-0.0580745848297342,-0.1828707000000001,-0.0425459770762099,-0.0052168618494895,-0.1828206521778381,0.1754472944526819,-0.704207307050385,0.38347028883423623,-0.000280345770673723,0.9998467370162534,0.012303709503222337,0.012451611006625042
1752572683.8289397,-1.943224461969825,-1.7209855817742987,-1.0901949256680652,-1.058491816239247,1.6042462897748684,0.4798682481305894,0.0991510001767341,-0.0585795812195579,-0.1844608800000001,-0.0429159420942639,-0.005262225865572,-0.1844103969793845,0.1752305967966232,-0.7043548875308169,0.38349901627846084,-0.00028028350118663623,0.9998468126416796,0.012298785550473798,0.012450404227024859
1752572683.8309247,-1.9430253052194697,-1.7211032459331277,-1.090565437608066,-1.058578018088454,1.604235719959121,0.479497837591829,0.1000057501782577,-0.0590845776093817,-0.1860510600000001,-0.0432859071123179,-0.0053075898816545,-0.1860001417809309,0.1750119350139733,-0.7045036767099293,0.3835279859959391,-0.00028022071732977845,0.9998468888885309,0.012293821545500147,0.012449185036893828
1752572683.8329592,-1.942824438969112,-1.7212219200847363,-1.0909391299080653,-1.0586649598676967,1.6042250594153418,0.4791242475634656,0.1008605001797812,-0.0595895739992055,-0.1876412400000001,-0.0436558721303719,-0.005352953897737,-0.1875898865824773,0.17479130685265054,-0.7046536727544087,0.3835571978197607,-0.0002801574197445034,0.9998469657559447,0.012288817555798475,0.012447953387260296
1752572683.8349438,-1.9426218632187504,-1.7213416042291243,-1.0913160025680655,-1.0587526415769757,1.60421430814353,0.4787474780454991,0.1017152501813048,-0.0600945703890293,-0.1892314200000001,-0.0440258371484259,-0.0053983179138195,-0.1891796313840237,0.17456871004223584,-0.7048048738131802,0.38358665158157856,-0.00028009360907552686,0.9998470432430513,0.012283773649477447,0.012446709228808589
1752572683.8370247,-1.9424175779683868,-1.7214622983662924,-1.0916960555880657,-1.05884106321629,1.6042034661436864,0.4783675290379295,0.1025700001828284,-0.060599566778853,-0.1908216000000001,-0.0443958021664799,-0.0054436819299021,-0.1907693761855702,0.17434414229400474,-0.7049572780173503,0.38361634711160575,-0.00028002928597474437,0.9998471213489738,0.01227868989526006,0.012445452511881002
1752572683.8394437,-1.9422115832180191,-1.7215840024962397,-1.0920792889680655,-1.058930224785641,1.6041925334158105,0.4779844005407569,0.103424750184352,-0.0611045631686768,-0.1924117800000001,-0.0447657671845339,-0.0054890459459846,-0.1923591209871166,0.17411760130095286,-0.7051108834801598,0.38364628423862024,-0.0002799644510991213,0.9998472000728277,0.012273566362481697,0.012444183186480303
1752572683.8413234,-1.9420038789676488,-1.721706716618967,-1.0924657027080658,-1.059020126285029,1.6041815099599024,0.4775980925539811,0.1042795001858755,-0.0616095595585006,-0.1940019600000001,-0.0451357322025879,-0.0055344099620671,-0.193948865788663,0.17388908473782205,-0.7052656882969277,0.3836764627899584,-0.00027989910511065077,0.9998472794137212,0.012268403121094076,0.012442901202270599
1752572683.8430357,-1.941794465217276,-1.7218304407344736,-1.0928552968080665,-1.0591107677144516,1.6041703957759623,0.4772086050776022,0.1051342501873991,-0.0621145559483244,-0.1955921400000001,-0.0455056972206419,-0.0055797739781496,-0.1955386105902094,0.17365859026113056,-0.7054216905450009,0.38370688259152164,-0.00027983324867720085,0.999847359370755,0.012263200241661866,0.01244160650858163
1752572683.8449562,-1.9415833419669,-1.7219551748427602,-1.093248071268066,-1.0592021490739114,1.6041591908639898,0.4768159381116202,0.1059890001889227,-0.0626195523381482,-0.1971823200000001,-0.0458756622386959,-0.0056251379942321,-0.1971283553917558,0.17342611550920164,-0.7055788882837001,0.3837375434677708,-0.0002797668824729168,0.9998474399430222,0.012257957795368273,0.012440299054407713
1752572683.8469863,-1.9413705092165203,-1.722080918943826,-1.0936440260880662,-1.0592942703634067,1.6041478952239854,0.4764200916560352,0.1068437501904462,-0.0631245487279719,-0.1987725000000001,-0.0462456272567499,-0.0056705020103147,-0.1987181001933022,0.17319165810218817,-0.7057372795542664,0.3837684452417299,-0.0002797000071755838,0.9998475211296091,0.012252675854011316,0.01243897878841309
1752572683.8489978,-1.9411559669661376,-1.722207673037672,-1.0940431612680657,-1.0593871315829375,1.6041365088559487,0.476021065710847,0.1076985001919698,-0.0636295451177957,-0.2003626800000001,-0.0466155922748039,-0.0057158660263972,-0.2003078449948487,0.17295521564210645,-0.7058968623798073,0.3837995877349829,-0.0002796326234704026,0.9998476029295937,0.01224735449000848,0.012437645658931169
1752572683.850978,-1.940939715215752,-1.722335437124297,-1.0944454768080654,-1.0594807327325055,1.60412503175988,0.4756188602760558,0.1085532501934934,-0.0641345415076195,-0.2019528600000001,-0.0469855572928579,-0.0057612300424797,-0.2018975897963951,0.1727167857128609,-0.7060576347652411,0.3838309707676758,-0.0002795647320466023,0.9998476853420479,0.012241993776395652,0.012436299613968218
1752572683.8529627,-1.940721753965364,-1.722464211203702,-1.0948509727080662,-1.059575073812109,1.6041134639357788,0.4752134753516615,0.1094080001950169,-0.0646395378974433,-0.2035430400000001,-0.0473555223109119,-0.0058065940585622,-0.2034873345979415,0.17247636588027604,-0.7062195946972438,0.38386259415851426,-0.0002794963335991897,0.9998477683660348,0.012236593786827876,0.012434940601204732
1752572683.8550088,-1.940502083214972,-1.7225939952758873,-1.0952596489680655,-1.0596701548217489,1.6041018053836456,0.4748049109376641,0.1102627501965405,-0.065144534287267,-0.2051332200000001,-0.0477254873289659,-0.0058519580746447,-0.2050770793994879,0.1722339536921284,-0.7063827401441938,0.38389445772476766,-0.00027942742883018437,0.9998478520006111,0.012231154595579776,0.01243356856799901
1752572683.856995,-1.9402807029645777,-1.7227247893408515,-1.095671505588066,-1.059765975761425,1.60409005610348,0.4743931670340635,0.1111175001980641,-0.0656495306770908,-0.2067234000000001,-0.0480954523470199,-0.0058973220907272,-0.2066668242010343,0.17198954667816926,-0.7065470690561133,0.3839265612822639,-0.00027935801844476005,0.9998479362448255,0.012225676277548107,0.01243218346138727
1752572683.859047,-1.9400576132141796,-1.722856593398595,-1.0960865425680657,-1.0598625366311376,1.604078216095283,0.4739782436408599,0.1119722501995876,-0.0661545270669146,-0.2083135800000001,-0.0484654173650739,-0.0059426861068098,-0.2082565690025807,0.17174314235016352,-0.7067125793646165,0.3839589046453934,-0.0002792881031554084,0.9998480210977194,0.012220158908250501,0.012430785228087679
1752572683.8610585,-1.939832813963779,-1.722989407449119,-1.0965047599080655,-1.0599598374308856,1.6040662853590528,0.4735601407580532,0.1128270002011112,-0.0666595234567384,-0.2099037600000001,-0.0488353823831279,-0.0059880501228923,-0.2098463138041272,0.17149473820191435,-0.7068792689828508,0.3839914876271044,-0.0002792176836792468,0.9998481065583273,0.012214602563828204,0.012429373814500311
1752572683.8629754,-1.939606305213376,-1.7231232314924227,-1.096926157608066,-1.06005787816067,1.604054263894791,0.4731388583856434,0.1136817502026348,-0.0671645198465621,-0.2114939400000001,-0.0492053474011819,-0.0060334141389748,-0.2114360586056736,0.17124433170929598,-0.7070471358054387,0.38402431003890775,-0.00027914676073875354,0.9998481926256757,0.01220900732104605,0.012427949166712027
1752572683.86508,-1.9393780869629689,-1.7232580655285057,-1.0973507356680656,-1.0601566588204907,1.604042151702497,0.4727143965236305,0.1145365002041584,-0.0676695162363859,-0.2130841200000001,-0.0495753124192359,-0.0060787781550573,-0.21302580340722,0.1709919203302875,-0.7072161777084234,0.3840573716908759,-0.0002790753350630309,0.999848279298784,0.01220337325729166,0.012426511230497272
1752572683.8705883,-1.939148159212559,-1.7233939095573678,-1.0977784940880655,-1.0602561794103469,1.6040299487821708,0.4722867551720145,0.1153912502056819,-0.0681745126262097,-0.2146743000000001,-0.0499452774372899,-0.0061241421711398,-0.2146155482087664,0.17073750150499947,-0.7073863925492085,0.38409067239163874,-0.0002790034073853347,0.9998483665766639,0.012197700450579253,0.012425059951320054
1752572683.8710077,-1.9389165219621451,-1.72353076357901,-1.0982094328680656,-1.0603564399302394,1.6040176551338123,0.4718559343307955,0.1162460002072055,-0.0686795090160335,-0.2162644800000001,-0.0503152424553439,-0.0061695061872223,-0.2162052930103128,0.17048107265570978,-0.7075577781665019,0.38412421194838775,-0.00027893097844486483,0.99984845445832,0.012191988979549153,0.012423595274336527
1752572683.8730469,-1.9386831752117295,-1.7236686275934323,-1.098643552008066,-1.0604574403801683,1.604005270757422,0.4714219339999733,0.1171007502087291,-0.0691845054058572,-0.2178546600000001,-0.0506852074733979,-0.0062148702033049,-0.2177950378118593,0.17022263118689418,-0.707730332380255,0.38415799016687224,-0.0002788580489865843,0.9998485429427496,0.012186238923469317,0.01242211714439714
1752572683.8750808,-1.9384481189613112,-1.7238075016006338,-1.0990808515080657,-1.0605591807601336,1.6039927956529991,0.470984754179548,0.1179555002102526,-0.069689501795681,-0.2194448400000001,-0.0510551724914519,-0.0062602342193874,-0.2193847826134057,0.1699621744852603,-0.7079040529916056,0.3841920068514041,-0.00027878461976112287,0.9998486320289423,0.012180450362233537,0.012420625506049764
1752572683.8770895,-1.9382113532108889,-1.7239473856006151,-1.0995213313680656,-1.0606616610701345,1.6039802298205443,0.4705443948695196,0.1188102502117762,-0.0701944981855048,-0.2210350200000001,-0.0514251375095059,-0.0063055982354699,-0.2209745274149521,0.1696996999197782,-0.7080789377828189,0.3842262618048546,-0.0002787106915239295,0.9998487217158805,0.01217462337636471,0.012419120303541595
1752572683.879054,-1.937972877960464,-1.724088279593376,-1.0999649915880658,-1.060764881310171,1.6039675732600571,0.4701008560698882,0.1196650002132998,-0.0706994945753286,-0.2226252000000001,-0.0517951025275599,-0.0063509622515524,-0.2225642722164985,0.16943520484171534,-0.7082549845172257,0.3842607548286524,-0.000278636265036203,0.999848812002539,0.012168758047015827,0.012417601480820543
1752572683.8810873,-1.937732693210036,-1.724230183578916,-1.1004118321680654,-1.0608688414802447,1.6039548259715382,0.4696541377806537,0.1205197502148234,-0.0712044909651523,-0.2242153800000001,-0.0521650675456139,-0.0063963262676349,-0.2241540170180449,0.16916868658467,-0.7084321909391629,0.38429548572278743,-0.0002785613410652665,0.9998489028878853,0.01216285445597049,0.012416068981538717
1752572683.8830636,-1.9374907989596049,-1.724373097557237,-1.100861853108066,-1.0609735415803536,1.6039419879549868,0.469204240001816,0.1213745002163469,-0.0717094873549761,-0.2258055600000001,-0.0525350325636679,-0.0064416902837175,-0.2257437618195913,0.16890014246460341,-0.7086105547739151,0.38433045428580753,-0.0002784859203824575,0.9998489943708795,0.012156912685642554,0.012414522749054184
1752572683.8850732,-1.9372471952091708,-1.724517021528336,-1.1013150544080652,-1.0610789816104989,1.6039290592104032,0.4687511627333753,0.1222292502178705,-0.0722144837447999,-0.2273957400000001,-0.0529049975817219,-0.0064870542998,-0.2273335066211378,0.16862956977987792,-0.70879007372765,0.38436566031482144,-0.0002784100037669036,0.9998490864504743,0.01215093281907793,0.012412962726434058
1752572683.8870618,-1.937001881958733,-1.7246619554922151,-1.1017714360680655,-1.0611851615706804,1.6039160397377876,0.4682949059753314,0.1230840002193941,-0.0727194801346237,-0.2289859200000001,-0.0532749625997759,-0.0065324183158825,-0.2289232514226842,0.16835696581128545,-0.7089707454873604,0.38440110360549523,-0.00027833359200071946,0.9998491791256152,0.012144914939956125,0.012411388856456127
1752572683.8890672,-1.9367548592082928,-1.7248078994488747,-1.102230998088066,-1.0612920814608984,1.6039029295371396,0.4678354697276846,0.1239387502209176,-0.0732244765244474,-0.2305761000000001,-0.0536449276178299,-0.006577782331965,-0.2305129962242306,0.16808232782208773,-0.7091525677207999,0.38443678395205316,-0.00027825668587274114,0.99984927239524,0.012138859132590869,0.012409801081610891
1752572683.89107,-1.9365061269578487,-1.7249548533983132,-1.102693740468066,-1.0613997412811518,1.6038897286084597,0.4673728539904345,0.1247935002224412,-0.0737294729142712,-0.2321662800000001,-0.0540148926358839,-0.0066231463480475,-0.232102741025777,0.16780565305805037,-0.7093355380764221,0.38447270114728127,-0.0002781792861781371,0.999849366258279,0.012132765481928024,0.012408199344106545
1752572683.8949924,-1.9362556852074029,-1.7251028173405318,-1.103159663208066,-1.0615081410314415,1.6038764369517475,0.4669070587635814,0.1256482502239648,-0.074234469304095,-0.2337564600000001,-0.0543848576539379,-0.00666851036413,-0.2336924858273234,0.167526938747475,-0.7095196541833174,0.38450885498252,-0.00027810139371599275,0.9998494607136557,0.012126634073552457,0.012406583585867433
1752572683.8953407,-1.9362556852074029,-1.7251028173405318,-1.103159663208066,-1.0615081410314415,1.6038764369517475,0.4669070587635814,0.1256482502239648,-0.074234469304095,-0.2337564600000001,-0.0543848576539379,-0.00666851036413,-0.2336924858273234,0.167526938747475,-0.7095196541833174,0.38450885498252,-0.00027810139371599275,0.9998494607136557,0.012126634073552457,0.012406583585867433
1752572683.8972712,-1.9357496732065016,-1.7254017752033075,-1.1041010497680652,-1.06172716032213,1.6038495814542266,0.465965929841066,0.1273577502270119,-0.0752444620837425,-0.2369368200000001,-0.0551247876900459,-0.0067592383962951,-0.2368719754304163,0.1669633803128327,-0.7098913140700984,0.3845818717311956,-0.00027794413371660275,0.9998496513970764,0.012114258329175395,0.012403309773494275
1752572683.899159,-1.9354941029560455,-1.7255527691238646,-1.104576513588066,-1.061837779862528,1.603836017613418,0.4654905961454036,0.1282125002285355,-0.0757494584735663,-0.2385270000000001,-0.0554947527080999,-0.0068046024123776,-0.2384617202319627,0.16667853055838752,-0.7100788530107821,0.3846187342201095,-0.00027786476780563706,0.99984974762293,0.01210801416752477,0.0124016516018254
1752572683.9010267,-1.935236823205587,-1.7257047730372015,-1.1050551577680654,-1.0619491393329614,1.6038223630445771,0.4650120829601381,0.1290672502300591,-0.0762544548633901,-0.2401171800000001,-0.0558647177261539,-0.0068499664284601,-0.2400514650335091,0.16639162999672522,-0.7102675280242071,0.3846558324999877,-0.000277784912382148,0.9998498444367394,0.012101732596865209,0.01239997917435667
1752572683.9030938,-1.9349778339551251,-1.725857786943318,-1.105536982308066,-1.062061238733432,1.6038086177477042,0.4645303902852695,0.1299220002315826,-0.0767594512532139,-0.2417073600000001,-0.0562346827442079,-0.0068953304445426,-0.2416412098350555,0.16610267576938428,-0.710457336641697,0.38469316635496364,-0.00027770456827191415,0.9998499418373907,0.01209541370597087,0.012398292431642626
1752572683.905095,-1.9347171352046608,-1.7260118108422144,-1.1060219872080657,-1.062174078063939,1.603794781722799,0.4640455181207979,0.1307767502331062,-0.0772644476430376,-0.2432975400000001,-0.0566046477622619,-0.0069406944606251,-0.243230954636602,0.16581166500066535,-0.7106482763748276,0.38473073556772813,-0.0002776237363090034,0.9998500398237626,0.01208905758425633,0.012396591313971105
1752572683.907155,-1.9347171352046608,-1.7260118108422144,-1.1060219872080657,-1.062174078063939,1.603794781722799,0.4640455181207979,0.1307767502331062,-0.0772644476430376,-0.2432975400000001,-0.0566046477622619,-0.0069406944606251,-0.243230954636602,0.16581166500066535,-0.7106482763748276,0.38473073556772813,-0.0002776237363090034,0.9998500398237626,0.01208905758425633,0.012396591313971105
1752572683.90916,-1.9344547269541932,-1.726166844733891,-1.1065101724680655,-1.0622876573244815,1.6037808549698618,0.4635574664667231,0.1316315002346298,-0.0777694440328614,-0.2448877200000001,-0.0569746127803159,-0.0069860584767077,-0.2448206994381484,0.1655185947976636,-0.710840344715365,0.3847685399195293,-0.00027754241733091503,0.9998501383947266,0.012082664321776841,0.01239487576136653
1752572683.9110937,-1.9341906092037224,-1.7263228886183457,-1.107001538088066,-1.0624019765150603,1.6037668374888925,0.4630662353230453,0.1324862502361533,-0.0782744404226852,-0.2464779000000001,-0.0573445777983699,-0.0070314224927902,-0.2464104442396948,0.16522346225030962,-0.7110335391351942,0.384806579190174,-0.0002774606121812864,0.9998502375491465,0.01207623400923093,0.012393145713591881
1752572683.9131615,-1.933924781953248,-1.7264799424955817,-1.1074960840680657,-1.0625170356356746,1.6037527292798903,0.4625718246897644,0.1333410002376769,-0.078779436812509,-0.2480680800000001,-0.0577145428164239,-0.0070767865088727,-0.2480001890412412,0.16492626443140943,-0.7112278570862595,0.3848448531580243,-0.0002773783217100731,0.9998503372858786,0.012069766737961127,0.012391401110150411
1752572683.9152455,-1.9336572452027712,-1.7266380063655955,-1.1079938104080655,-1.062632834686326,1.6037385303428566,0.4620742345668803,0.1341957502392005,-0.0792844332023327,-0.2496582600000001,-0.0580845078344779,-0.0071221505249552,-0.2495899338427876,0.1646269983966791,-0.7114232960004915,0.38488336160000086,-0.0002772955467715227,0.9998504376037721,0.012063262599954015,0.012389641890290737
1752572683.9172077,-1.9333879989522915,-1.7267970802283903,-1.1084947171080657,-1.062749373667013,1.6037242406777907,0.4615734649543932,0.1350505002407241,-0.0797894295921565,-0.2512484400000002,-0.0584544728525319,-0.0071675145410377,-0.251179678644334,0.16432566118478864,-0.7116198532897459,0.38492210429157947,-0.00027721228822579863,0.9998505385016688,0.012056721687841302,0.012387867993006918
1752572683.919538,-1.9331170432018083,-1.7269571640839647,-1.108998804168066,-1.0628666525777355,1.6037098602846926,0.461069515852303,0.1359052502422476,-0.0802944259819803,-0.2528386200000002,-0.0588244378705859,-0.0072128785571203,-0.2527694234458805,0.16402224981739927,-0.7118175263457325,0.384961081006795,-0.00027712854693873033,0.9998506399784028,0.01205014409489983,0.012386079357043236
1752572683.9214618,-1.932844377951323,-1.727118257932318,-1.1095060715880658,-1.0629846714184952,1.603695389163562,0.4605623872606097,0.1367600002437712,-0.0807994223718041,-0.2544288000000002,-0.0591944028886399,-0.0072582425732028,-0.2543591682474269,0.16371676129920434,-0.712016312539948,0.3850002915182378,-0.00027704432378196586,0.9998507420328011,0.012043529915055359,0.012384275920894703
1752572683.9234607,-1.9325700032008333,-1.7272803617734516,-1.1100165193680658,-1.0631034301892903,1.6036808273143996,0.4600520791793133,0.1376147502452948,-0.0813044187616278,-0.2560189800000002,-0.0595643679066939,-0.0073036065892853,-0.2559489130489733,0.16340919261796924,-0.7122162092236101,0.38503973559705523,-0.000276959619631806,0.9998508446636831,0.012036879242879505,0.012382457622812868
1752572683.9283912,-1.9322939189503407,-1.727443475607365,-1.110530147508066,-1.0632229288901218,1.6036661747372052,0.4595385916084138,0.1384695002468183,-0.0818094151514516,-0.2576091600000001,-0.0599343329247479,-0.0073489706053678,-0.2575386578505197,0.16309954074457247,-0.7124172137275866,0.38507941301294957,-0.00027687443537049506,0.9998509478698611,0.012030192173594413,0.012380624400804889
1752572683.9288042,-1.932016125199846,-1.7276075994340578,-1.1110469560080656,-1.0633431675209897,1.6036514314319783,0.4590219245479112,0.1393242502483419,-0.0823144115412754,-0.2591993400000001,-0.0603042979428019,-0.0073943346214503,-0.2591284026520661,0.16278780263304715,-0.7126193233623267,0.38511932353418105,-0.0002767887718861515,0.9998510516501394,0.012023468803070956,0.012378776192638783
1752572683.9304683,-1.932016125199846,-1.7276075994340578,-1.1110469560080656,-1.0633431675209897,1.6036514314319783,0.4590219245479112,0.1393242502483419,-0.0823144115412754,-0.2591993400000001,-0.0603042979428019,-0.0073943346214503,-0.2591284026520661,0.16278780263304715,-0.7126193233623267,0.38511932353418105,-0.0002767887718861515,0.9998510516501394,0.012023468803070956,0.012378776192638783
1752572683.9313838,-1.931736621949348,-1.7277727332535298,-1.1115669448680665,-1.063464146081893,1.6036365973987192,0.4585020779978055,0.1401790002498655,-0.0828194079310992,-0.2607895200000001,-0.0606742629608559,-0.0074396986375328,-0.2607181474536126,0.1624739752206213,-0.7128225354177937,0.38515946692756553,-0.0002767026300711577,0.9998511560033156,0.01201670922782989,0.012376912935846123
1752572683.9331083,-1.931455409198847,-1.7279388770657818,-1.1120901140880657,-1.0635858645728329,1.6036216726374282,0.4579790519580967,0.1410337502513891,-0.083324404320923,-0.2623797000000001,-0.0610442279789099,-0.0074850626536154,-0.262307892255159,0.16215805542776346,-0.7130268471633932,0.38519984295847376,-0.00027661601082568576,0.9998512609281797,0.01200991354504557,0.012375034567723174
1752572683.935094,-1.9311724869483424,-1.7281060308708138,-1.1126164636680658,-1.063708322993809,1.603606657148105,0.4574528464287849,0.1418885002529126,-0.0838294007107467,-0.2639698800000001,-0.0614141929969639,-0.0075304266696979,-0.2638976370567054,0.1618400401582188,-0.7132322558479048,0.38524045139083357,-0.00027652891505254763,0.9998513664235137,0.012003081852542747,0.012373141025335467
1752572683.9370997,-1.9308878551978343,-1.728274194668625,-1.1131459936080663,-1.0638315213448202,1.6035915509307497,0.4569234614098699,0.1427432502544362,-0.0843343971005705,-0.2655600600000001,-0.0617841580150179,-0.0075757906857804,-0.2654873818582518,0.16151992629905731,-0.7134387586994106,0.3852812919871285,-0.0002764413436618867,0.999851472488093,0.011996214248799356,0.012371232245520178
1752572683.9390495,-1.930601513947325,-1.7284433684592155,-1.1136787039080662,-1.063955459625869,1.6035763539853618,0.4563908969013519,0.1435980002559598,-0.0848393934903943,-0.2671502400000002,-0.0621541230330719,-0.0076211547018629,-0.2670771266597982,0.16119771072071465,-0.7136463529252233,0.38532236450839524,-0.0002763532975693044,0.9998515791206852,0.01198931083295028,0.012369308164886877
1752572683.9412234,-1.9303134631968104,-1.728613552242587,-1.1142145945680657,-1.064080137836953,1.603561066311942,0.4558551529032307,0.1444527502574833,-0.0853443898802181,-0.2687404200000002,-0.0625240880511259,-0.0076665187179454,-0.2686668714613446,0.16087339027703662,-0.7138550357118194,0.38536366871422867,-0.0002762647776955398,0.9998516863200506,0.011982371704781725,0.012367368719824764
1752572683.942993,-1.9300237029462952,-1.7287847460187369,-1.114753665588066,-1.0642055559780736,1.60354568791049,0.4553162294155065,0.1453075002590069,-0.0858493862700418,-0.2703306000000002,-0.0628940530691799,-0.007711882734028,-0.2702566162628911,0.16054696180531916,-0.7140648042247614,0.3854052043627766,-0.0002761757849660408,0.9998517940849422,0.01197539696473894,0.012365413846501036
1752572683.944975,-1.9297322331957751,-1.7289569497876665,-1.1152959169680656,-1.0643317140492297,1.603530218781006,0.4547741264381791,0.1461622502605305,-0.0863543826598656,-0.2719207800000002,-0.0632640180872339,-0.0077572467501105,-0.2718463610644375,0.16021842212635987,-0.7142756556086323,0.38544697121074456,-0.0002760863203134753,0.999851902414105,0.011968386713920892,0.012363443480867601
1752572683.9469666,-1.929439053945252,-1.7291301635493763,-1.1158413487080656,-1.064458612050422,1.6035146589234894,0.4542288439712487,0.147017000262054,-0.0868593790496894,-0.2735109600000002,-0.0636339831052879,-0.007802610766193,-0.2734361058659839,0.1598877680444948,-0.7144875869869587,0.3854889690133897,-0.00027599638467440017,0.9998520113062778,0.011961341054087422,0.012361457558659857
1752572683.9491858,-1.9291441651947272,-1.7293043873038654,-1.116389960808066,-1.0645862499816507,1.603499008337941,0.4536803820147153,0.1478717502635776,-0.0873643754395132,-0.2751011400000002,-0.0640039481233419,-0.0078479747822755,-0.2750258506675303,0.1595549963476482,-0.7147005954621384,0.3855311975245249,-0.00027590597899138536,0.9998521207601905,0.011954260087656265,0.012359456015403465
1752572683.9510934,-1.9291441651947272,-1.7293043873038654,-1.116389960808066,-1.0645862499816507,1.603499008337941,0.4536803820147153,0.1478717502635776,-0.0873643754395132,-0.2751011400000002,-0.0640039481233419,-0.0078479747822755,-0.2750258506675303,0.1595549963476482,-0.7147005954621384,0.3855311975245249,-0.00027590597899138536,0.9998521207601905,0.011954260087656265,0.012359456015403465
1752572683.9530478,-1.9288475669441985,-1.7294796210511345,-1.1169417532680654,-1.0647146278429158,1.6034832670243604,0.4531287405685786,0.1487265002651012,-0.0878693718293369,-0.2766913200000002,-0.0643739131413959,-0.007893338798358,-0.2766155954690767,0.15922010380737828,-0.7149146781153708,0.3855736564965192,-0.0002758151042135963,0.999852230774567,0.011947143917703393,0.012357438786415558
1752572683.9554513,-1.9285492591936668,-1.7296558647911828,-1.1174967260880653,-1.0648437456342164,1.6034674349827476,0.4525739196328389,0.1495812502666248,-0.0883743682191607,-0.2782815000000002,-0.0647438781594499,-0.0079387028144405,-0.2782053402706232,0.15888308717891877,-0.7151298320065803,0.38561634568029474,-0.00027572376129387935,0.9998523413481227,0.011939992647965737,0.012355405806807959
1752572683.9576054,-1.9282492419431316,-1.7298331185240112,-1.1180548792680651,-1.0649736033555532,1.6034515122131026,0.4520159192074961,0.1504360002681483,-0.0888793646089845,-0.2798716800000002,-0.0651138431775039,-0.0079840668305231,-0.2797950850721696,0.15854394320122936,-0.7153460541743437,0.38565926482532786,-0.0002756319511916488,0.9998524524795666,0.011932806382842468,0.0123533570114897
1752572683.9590645,-1.927947515192594,-1.7300113822496188,-1.1186162128080657,-1.0651042010069265,1.6034354987154256,0.4514547392925502,0.1512907502696719,-0.0893843609988083,-0.2814618600000002,-0.0654838081955579,-0.0080294308466056,-0.281384829873716,0.15820266859703971,-0.7155633416358153,0.385702413679649,-0.0002755396748713045,0.9998525641675992,0.011925585227394586,0.012351292335170787
1752572683.961194,-1.9276440789420528,-1.7301906559680065,-1.1191807267080662,-1.065235538588336,1.6034193944897162,0.4508903798880013,0.1521455002711955,-0.089889357388632,-0.2830520400000001,-0.0658537732136119,-0.0080747948626881,-0.2829745746752624,0.15785926007289866,-0.7157816913866537,0.38574579198984255,-0.0002754469333032729,0.9998526764109142,0.011918329287346024,0.012349211712364666
1752572683.9630556,-1.9273389331915087,-1.730370939679173,-1.1197484209680653,-1.0653676160997811,1.6034031995359748,0.4503228409938492,0.153000250272719,-0.0903943537784558,-0.2846422200000001,-0.0662237382316659,-0.0081201588787706,-0.2845643194768089,0.15751371431922068,-0.7160011004009446,0.38578939950104735,-0.00027535372746421483,0.9998527892081983,0.011911038669084436,0.012347115077392161
1752572683.965065,-1.9270320779409629,-1.7305522333831205,-1.1203192955880663,-1.0655004335412626,1.6033869138542012,0.449752122610094,0.1538550002742426,-0.0908993501682796,-0.2862324000000002,-0.0665937032497199,-0.0081655228948531,-0.2861540642783552,0.15716602801032972,-0.716221565631129,0.3858332359569534,-0.0002752600583333481,0.9998529025581302,0.011903713479664482,0.012345002364382579
1752572683.9669745,-1.926723513190412,-1.7307345370798464,-1.1208933505680658,-1.0656339909127794,1.6033705374443954,0.4491782247367358,0.1547097502757662,-0.0914043465581034,-0.2878225800000002,-0.0669636682677739,-0.0082108869109356,-0.2877438090799017,0.1568161978045166,-0.7164430840079249,0.3858773010998094,-0.0002751659268992618,0.9998530164593812,0.01189635382680227,0.012342873507280328
1752572683.9690266,-1.9264132389398592,-1.7309178507693526,-1.1214705859080656,-1.0657682882143336,1.6033540703065574,0.4486011473737744,0.1555645002772898,-0.0919093429479271,-0.2894127600000002,-0.0673336332858279,-0.0082562509270182,-0.2893335538814481,0.15646422034407764,-0.7166656524402506,0.3859215946704112,-0.0002750713341532682,0.9998531309106153,0.011888959818886647,0.012340728439842937
1752572683.9710083,-1.9261012551893035,-1.731102174451638,-1.1220510016080656,-1.0659033254459231,1.6033375124406872,0.4480208905212099,0.1564192502788133,-0.0924143393377509,-0.2910029400000002,-0.0677035983038819,-0.0083016149431007,-0.2909232986829945,0.15611009225536973,-0.716889267815151,0.3859661164081113,-0.00027497628109303895,0.9998532459104894,0.011881531564969247,0.01233856709564941
1752572683.973085,-1.925787561938744,-1.7312875081267034,-1.1226345976680658,-1.066039102607549,1.603320863846785,0.4474374541790424,0.1572740002803369,-0.0929193357275747,-0.2925931200000002,-0.0680735633219359,-0.0083469789591832,-0.2925130434845409,0.15575381014885828,-0.7171139269977206,0.38601086605081514,-0.00027488076872159227,0.9998533614576527,0.011874069174772179,0.012336389408100133
1752572683.97505,-1.9254721591881816,-1.731473851794549,-1.1232213740880663,-1.0661756196992105,1.6033041245248505,0.4468508383472718,0.1581287502818605,-0.0934243321173985,-0.2941833000000002,-0.0684435283399899,-0.0083923429752657,-0.2941027882860874,0.1553953706191668,-0.7173396268310225,0.3860558433349794,-0.0002747847980478059,0.9998534775507468,0.01186657275868704,0.012334195310420636
1752572683.977044,-1.9251550469376169,-1.7316612054551728,-1.1238113308680653,-1.0663128767209091,1.603287294474884,0.4462610430258981,0.158983500283384,-0.0939293285072222,-0.2957734800000002,-0.0688134933580439,-0.0084377069913482,-0.2956925330876337,0.1550347702451283,-0.7175663641360156,0.38610104799561534,-0.0002746883700866814,0.9998535941884066,0.011859042427775695,0.012331984735665444
1752572683.9789956,-1.9248362251870488,-1.7318495691085776,-1.1244044680080665,-1.0664508736726432,1.6032703736968852,0.4456680682149213,0.1598382502849076,-0.094434324897046,-0.2973636600000002,-0.0691834583760979,-0.0084830710074307,-0.2972822778891802,0.1546720055898318,-0.7177941357114759,0.3861464797662847,-0.0002745914858559433,0.9998537113692587,0.011851478293770996,0.012329757616720696
1752572683.985728,-1.9245156939364767,-1.7320389427547616,-1.1250007855080657,-1.0665896105544128,1.6032533621908542,0.4450719139143413,0.1606930002864312,-0.0949393212868698,-0.2989538400000002,-0.0695534233941519,-0.0085284350235133,-0.2988720226907266,0.15430707320068224,-0.7180229383339156,0.3861921383791044,-0.0002744941463830344,0.9998538290919231,0.011843880469076952,0.012327513886308084
1752572683.9870548,-1.9235438431847447,-1.7326131236499904,-1.1268088201680655,-1.0670102607799403,1.6032017833045684,0.4432643740749831,0.1632572502910019,-0.0964543104563411,-0.3037243800000002,-0.0706633184483139,-0.0086645270717608,-0.3036412570953659,0.15319923486986203,-0.7187154999126562,0.3863304725698915,-0.000274199406837631,0.9998541854968747,0.011820885985016294,0.01232068235106518
1752572683.9890769,-1.9232164739341613,-1.7328065372672938,-1.127417859108066,-1.0671519573818555,1.603184408886409,0.4426555018159908,0.1641120002925254,-0.0969593068461649,-0.3053145600000002,-0.0710332834663679,-0.0087098910878433,-0.3052310018969123,0.15282559670733176,-0.7189483940401458,0.38637703584350064,-0.0002741002567526852,0.999854305372836,0.01181315453509334,0.012318371498804824
1752572683.9909549,-1.922887395183574,-1.7330009608773755,-1.1280300784080657,-1.067294393913806,1.603166943740217,0.4420434500673954,0.164966750294049,-0.0974643032359887,-0.3069047400000002,-0.0714032484844219,-0.0087552551039259,-0.3068207466984587,0.15244977331443169,-0.7191823027604877,0.38642382459811675,-0.0002740006566331349,0.999854425783597,0.011805389966618462,0.012316043696321742
1752572683.9929218,-1.922556606932985,-1.733196394480237,-1.1286454780680657,-1.0674375703757928,1.603149387865993,0.4414282188291969,0.1658215002955726,-0.0979692996258125,-0.3084949200000002,-0.0717732135024759,-0.0088006191200084,-0.3084104915000051,0.1520717611455232,-0.7194172227149611,0.38647083855716324,-0.0002739006075366956,0.9998545467277324,0.011797592396049966,0.012313698875415125
1752572683.9949515,-1.922224109182392,-1.7333928380758792,-1.129264058088066,-1.067581486767816,1.603131741263737,0.4408098081013954,0.1666762502970962,-0.0984742960156362,-0.3100851000000002,-0.0721431785205299,-0.0088459831360909,-0.3100002363015515,0.15169155663964906,-0.7196531505220272,0.38651807744261835,-0.00027380011052701196,0.9998546682038105,0.011789761940521924,0.012311336967742925
1752572683.9970126,-1.922224109182392,-1.7333928380758792,-1.129264058088066,-1.067581486767816,1.603131741263737,0.4408098081013954,0.1666762502970962,-0.0984742960156362,-0.3100851000000002,-0.0721431785205299,-0.0088459831360909,-0.3100002363015515,0.15169155663964906,-0.7196531505220272,0.38651807744261835,-0.00027380011052701196,0.9998546682038105,0.011789761940521924,0.012311336967742925
1752572683.9988778,-1.921889901931796,-1.7335902916643002,-1.1298858184680656,-1.0677261430898757,1.6031140039334486,0.4401882178839907,0.1675310002986197,-0.09897929240546,-0.3116752800000002,-0.0725131435385839,-0.0088913471521734,-0.311589981103098,0.15130915622058713,-0.7198900827772442,0.3865655409750113,-0.0002736991666737129,0.9998547902103914,0.011781898717847879,0.012308957904824596
1752572684.000941,-1.9215539851811971,-1.7337887552455005,-1.1305107592080663,-1.0678715393419704,1.6030961758751283,0.439563448176983,0.1683857503001433,-0.0994842887952838,-0.3132654600000002,-0.0728831085566379,-0.0089367111682559,-0.3131797259046444,0.15092455629690402,-0.7201280160531918,0.3866132288734215,-0.0002735977770504414,0.9998549127460282,0.01177400284652085,0.012306561618044718
1752572684.002921,-1.921216358930596,-1.7339882288194808,-1.1311388803080655,-1.0680176755241018,1.6030782570887756,0.4389354989803722,0.1692405003016669,-0.0999892851851076,-0.3148556400000002,-0.0732530735746919,-0.0089820751843384,-0.3147694707061908,0.15053775326201474,-0.7203669468993841,0.38666114085547765,-0.0002734959427388372,0.9998550358092667,0.011766074445717077,0.012304148038654613
1752572684.0049517,-1.9208770231799912,-1.7341887123862412,-1.131770181768066,-1.0681645516362694,1.603060247574391,0.4383043702941582,0.1700952503031904,-0.1004942815749313,-0.3164458200000002,-0.0736230385927459,-0.009027439200421,-0.3163592155077372,0.15014874349423246,-0.7206068718421917,0.38670927663736154,-0.00027339366482311017,0.9998551593986449,0.011758113635292278,0.01230171709777882
1752572684.007033,-1.920535977929383,-1.7343902059457807,-1.1324046635880656,-1.0683121676784726,1.603042147331974,0.4376700621183412,0.170950000304714,-0.1009992779647551,-0.3180360000000002,-0.0739930036107999,-0.0090728032165035,-0.3179489603092836,0.14975752335683182,-0.7208477873847566,0.3867576359338055,-0.00027329094439548107,0.9998552835126939,0.011750120535784649,0.01229926872641663
1752572684.0094445,-1.920535977929383,-1.7343902059457807,-1.1324046635880656,-1.0683121676784726,1.603042147331974,0.4376700621183412,0.170950000304714,-0.1009992779647551,-0.3180360000000002,-0.0739930036107999,-0.0090728032165035,-0.3179489603092836,0.14975752335683182,-0.7208477873847566,0.3867576359338055,-0.00027329094439548107,0.9998552835126939,0.011750120535784649,0.01229926872641663
1752572684.0113597,-1.9198487589281577,-1.7347962230431992,-1.1336831683080657,-1.068609619552988,1.6030056746630437,0.4363919072978979,0.1726595003077612,-0.1020092707444027,-0.3212163600000002,-0.0747329336469079,-0.0091635312486685,-0.3211284499123765,0.14896843735139562,-0.721332576165091,0.38685502392204735,-0.0002730841803947173,0.9998555333088902,0.011734037955098456,0.012294319415623896
1752572684.0129263,-1.9195025851775416,-1.7350007465810773,-1.134327191208066,-1.0687594553853,1.6029873022365302,0.4357480606532716,0.1735142503092847,-0.1025142671342264,-0.3228065400000002,-0.0751028986649619,-0.009208895264751,-0.3227181947139229,0.14857056413521025,-0.7215764422922599,0.3869040520360591,-0.00027298013903146324,0.9998556589880622,0.011725948718418828,0.012291818337597965
1752572684.015165,-1.9191547019269208,-1.7352062801117365,-1.134974394468066,-1.0689100311476478,1.6029688390819847,0.4351010345190422,0.1743690003108083,-0.1030192635240502,-0.3243967200000002,-0.0754728636830159,-0.0092542592808336,-0.3243079395154693,0.14817046585322285,-0.7218212847978195,0.386953302509057,-0.0002728756595755551,0.9998557851859543,0.011717827681656677,0.012289299551901736
1752572684.016998,-1.918805109176298,-1.7354128236351745,-1.135624778088066,-1.0690613468400318,1.6029502851994069,0.4344508288952097,0.1752237503123319,-0.103524259913874,-0.3259869000000002,-0.0758428287010699,-0.0092996232969161,-0.3258976843170157,0.14776813879435807,-0.7220671000675236,0.3870027750485228,-0.0002727707431454717,0.99985591190106,0.011709674968777329,0.012286762988961506
1752572684.0192423,-1.918453806925672,-1.7356203771513918,-1.136278342068065,-1.0692134024624522,1.602931640588797,0.4337974437817742,0.1760785003138554,-0.1040292563036978,-0.3275770800000002,-0.0762127937191239,-0.0093449873129986,-0.3274874291185621,0.14736357923284857,-0.7223138844634003,0.38705246936048743,-0.00027266539086573133,0.9998560391318662,0.011701490704433421,0.012284208579100344
1752572684.0210395,-1.9181007951750424,-1.7358289406603884,-1.1369350864080658,-1.069366198014908,1.602912905250155,0.4331408791787355,0.176933250315379,-0.1045342526935215,-0.3291672600000002,-0.0765827587371779,-0.0093903513290811,-0.3290771739201086,0.1469567834282903,-0.7225616343236634,0.38710238514953144,-0.0002725596038648247,0.9998561668768515,0.011693275013965578,0.012281636252540949
1752572684.0233526,-1.9177460739244097,-1.736038514162166,-1.1375950111080655,-1.0695197334974011,1.6028940791834807,0.4324811350860937,0.1777880003169026,-0.1050392490833453,-0.3307574400000002,-0.0769527237552319,-0.0094357153451636,-0.330666918721655,0.14654774762570896,-0.7228103459626263,0.38715252211878315,-0.0002724533832792804,0.9998562951344878,0.011685028023406535,0.01227904593940817
1752572684.0253253,-1.9173896431737747,-1.7362490976567226,-1.1382581161680658,-1.0696740089099297,1.6028751623887745,0.4318182115038488,0.1786427503184262,-0.1055442454731691,-0.3323476200000002,-0.0773226887732859,-0.0094810793612461,-0.3322566635232014,0.1461364680556135,-0.7230600156706188,0.3872028799699217,-0.00027234673024868316,0.9998564239032393,0.011676749859476133,0.012276437569735317
1752572684.0273256,-1.9170315029231368,-1.7364606911440583,-1.1389244015880653,-1.0698290242524937,1.6028561548660356,0.4311521084320009,0.1794975003199497,-0.1060492418629929,-0.3339378000000002,-0.0776926537913399,-0.0095264433773287,-0.3338464083247478,0.1457229409340633,-0.7233106397139011,0.3872534584031752,-0.00027223964591990645,0.9998565531815627,0.011668440649586028,0.012273811073465438
1752572684.0292675,-1.9166716531724948,-1.7366732946241736,-1.139593867368066,-1.069984779525095,1.602837056615265,0.4304828258705498,0.1803522503214733,-0.1065542382528166,-0.3355279800000002,-0.0780626188093939,-0.0095718073934112,-0.3354361531262942,0.14530716246272482,-0.7235622143345771,0.3873042571173201,-0.00027213213144383733,0.9998566829679075,0.011660100521840926,0.012271166380456085
1752572684.0311732,-1.916310093921851,-1.7368869080970697,-1.1402665135080658,-1.0701412747277317,1.602817867636462,0.4298103638194958,0.1812070003229969,-0.1070592346426404,-0.3371181600000002,-0.0784325838274479,-0.0096171714094937,-0.3370258979278406,0.14488912882893837,-0.7238147357505074,0.3873552758096791,-0.00027202418797815165,0.9998568132607157,0.01165172960503835,0.01226850342048173
1752572684.0337996,-1.9159468251712035,-1.737101531562745,-1.140942340008066,-1.0702985098604048,1.602798587929627,0.4291347222788385,0.1820617503245204,-0.1075642310324642,-0.3387083400000002,-0.0788025488455019,-0.0096625354255762,-0.3386156427293871,0.1444688362057762,-0.7240682001552239,0.3874065141761272,-0.00027191581668526083,0.9998569440584222,0.011643328028667618,0.012265822123239812
1752572684.0352623,-1.9155818469205528,-1.7373171650211994,-1.1416213468680656,-1.0704564849231133,1.6027792174947595,0.4284559012485782,0.182916500326044,-0.108069227422288,-0.3402985200000002,-0.0791725138635559,-0.0097078994416587,-0.3402053875309335,0.14404628075210943,-0.7243226037178423,0.38745797191108655,-0.00027180701873364354,0.9998570753594536,0.01163489592291302,0.012263122418352281
1752572684.043569,-1.9148467619192424,-1.7377514619164476,-1.1429889016680654,-1.0707746548386403,1.602740204440929,0.4270887207192483,0.1846260003290911,-0.1090792202019355,-0.3434788800000002,-0.0799124438996639,-0.0097986274738238,-0.3433848771340263,0.14319436591810777,-0.7248342128706405,0.38756154425696165,-0.0002715881475527908,0.9998573394651643,0.011617940647471032,0.012257667503776113
1752572684.0440054,-1.9148467619192424,-1.7377514619164476,-1.1429889016680654,-1.0707746548386403,1.602740204440929,0.4270887207192483,0.1846260003290911,-0.1090792202019355,-0.3434788800000002,-0.0799124438996639,-0.0097986274738238,-0.3433848771340263,0.14319436591810777,-0.7248342128706405,0.38756154425696165,-0.0002715881475527908,0.9998573394651643,0.011617940647471032,0.012257667503776113
1752572684.0451982,-1.914476655168582,-1.7379701253532414,-1.1436774496080655,-1.070934849691458,1.602720561821965,0.4264003612201786,0.1854807503306147,-0.1095842165917593,-0.3450690600000002,-0.0802824089177179,-0.0098439914899063,-0.3449746219355727,0.14276499878507337,-0.7250914106761827,0.38761365824946126,-0.0002714780766875189,0.9998574722666609,0.011609417741631232,0.01225491215299133
1752572684.0471857,-1.91410483891792,-1.7381897987828143,-1.1443691779080662,-1.071095784474311,1.602700828474969,0.4257088222315059,0.1863355003321383,-0.1100892129815831,-0.3466592400000002,-0.0806523739357719,-0.0098893555059888,-0.3465643667371191,0.14233335331626287,-0.7253495320701734,0.38766599037363636,-0.0002713675838902953,0.9998576055651176,0.011600864834107057,0.012252138112375738
1752572684.0490987,-1.9137313131672544,-1.7384104822051685,-1.145064086568066,-1.0712574591872004,1.602681004399941,0.4250141037532302,0.1871902503336618,-0.1105942093714068,-0.3482494200000002,-0.0810223389538259,-0.0099347195220713,-0.3481541115386656,0.1418994256004968,-0.7256085730983308,0.38771854031664704,-0.0002712566703575348,0.9998577393589247,0.011592282058567424,0.012249345311233716
1752572684.0510786,-1.9133560779165852,-1.7386321756203005,-1.1457621755880665,-1.0714198738301262,1.602661089596881,0.4243162057853513,0.1880450003351854,-0.1110992057612306,-0.3498396000000002,-0.0813923039718799,-0.0099800835381538,-0.349743856340212,0.14146321171277781,-0.7258685297814264,0.3877713077642036,-0.00027114533728951216,0.9998578736464651,0.011583669549378622,0.012246533678818177
1752572684.053023,-1.912979133165913,-1.7388548790282128,-1.1464634449680655,-1.0715830284030885,1.6026410840657883,0.4236151283278693,0.188899750336709,-0.1116042021510544,-0.3514297800000002,-0.0817622689899339,-0.0100254475542364,-0.3513336011417584,0.14102470771436473,-0.7261293981151976,0.38782429240055927,-0.0002710335858939442,0.9998580084261138,0.011575027441609547,0.012243703144332405
1752572684.0550904,-1.9126004789152384,-1.7390785924289052,-1.1471678947080657,-1.071746922906086,1.602620987806664,0.4229108713807843,0.1897545003382326,-0.1121091985408782,-0.3530199600000002,-0.0821322340079879,-0.0100708115703189,-0.3529233459433049,0.14058390965283207,-0.7263911740702585,0.3878774939085155,-0.00027092141738163054,0.9998581436962393,0.011566355871028387,0.012240853636936564
1752572684.0570843,-1.91222011516456,-1.739303315822376,-1.1478755248080663,-1.0719115573391198,1.6026008008195072,0.4222034349440961,0.1906092503397561,-0.1126141949307019,-0.3546101400000002,-0.0825021990260419,-0.0101161755864014,-0.3545130907448512,0.14014081356214358,-0.7266538535920085,0.3879309119694238,-0.0002708088329705208,0.9998582794552018,0.011557654974103763,0.012237985085749878
1752572684.0591886,-1.911838041913879,-1.7395290492086275,-1.1485863352680656,-1.07207693170219,1.6025805231043182,0.4214928190178049,0.1914640003412797,-0.1131191913205257,-0.3562003200000002,-0.0828721640440959,-0.0101615396024839,-0.3561028355463977,0.13969541546271902,-0.7269174326005429,0.3879845462631769,-0.00027069583388460405,0.9998584157013548,0.011548924888009501,0.01223509741985409
1752572684.060995,-1.911454259163195,-1.7397557925876583,-1.149300326088066,-1.0722430459952967,1.6025601546610972,0.4207790236019105,0.1923187503428033,-0.1136241877103495,-0.3577905000000002,-0.0832421290621499,-0.0102069036185664,-0.3576925803479441,0.13924771136149894,-0.727181906990563,0.3880383964682184,-0.0002705824213512163,0.999858552433044,0.011540165750619781,0.012232190568299457
1752572684.0632496,-1.911068766912508,-1.7399835459594692,-1.150017497268066,-1.0724099002184388,1.602539695489844,0.4200620486964131,0.1931735003443268,-0.1141291841001733,-0.3593806800000003,-0.0836120940802039,-0.0102522676346489,-0.3592823251494905,0.13879769725201982,-0.7274472726312842,0.3880924622615367,-0.00027046859660528747,0.9998586896486078,0.011531377700513329,0.012229264460106805
1752572684.0650012,-1.910681565161818,-1.7402123093240591,-1.150737848808066,-1.072577494371617,1.6025191455905583,0.4193418943013126,0.1940282503458504,-0.1146341804899971,-0.3609708600000003,-0.0839820590982579,-0.0102976316507315,-0.3608720699510369,0.13834536911447884,-0.7277135253663457,0.38814674331866694,-0.0002703543608861909,0.9998588273463772,0.011522560876973037,0.01222631902427218
1752572684.0686212,-1.909902033160428,-1.740672866031579,-1.152188092968066,-1.0729149024680824,1.6024777736078917,0.4178920470423022,0.1957377503488976,-0.1156441732696446,-0.3641512200000003,-0.0847219891343659,-0.0103883596828965,-0.3640515595541297,0.13743375460973759,-0.7282486753656171,0.3882559499192324,-0.00027012466151418566,0.99985910418182,0.011504841470252162,0.012220369885561909
1752572684.0712466,-1.9095097029097283,-1.7409046593745074,-1.1529179855880658,-1.073084716411369,1.6024569515245095,0.4171623541783924,0.1965925003504211,-0.1161491696594684,-0.3657414000000002,-0.0850919541524199,-0.010433723698979,-0.3656413043556762,0.13697446013687994,-0.7285175641883992,0.38831087480646775,-0.0002700092003680832,0.9998592433161183,0.011495939169166304,0.0122173660405898
1752572684.0730522,-1.9091156631590265,-1.741137462710216,-1.153651058568066,-1.073255270284692,1.6024360387130954,0.4164294818248795,0.1974472503519447,-0.1166541660492922,-0.3673315800000002,-0.0854619191704739,-0.0104790877150615,-0.3672310491572226,0.13651283542478893,-0.7287873232224816,0.3883660136451128,-0.00026989333326198105,0.9998593829258723,0.011487008658840142,0.012214342583791435
1752572684.075332,-1.908719913908321,-1.7413712760387048,-1.1543873119080654,-1.0734265640880514,1.6024150351736492,0.4156934299817635,0.1983020003534683,-0.1171591624391159,-0.3689217600000002,-0.0858318841885279,-0.010524451731144,-0.368820793958769,0.1360488763880396,-0.7290579481822459,0.38842136610343214,-0.0002697770614633675,0.9998595230093759,0.011478050082089693,0.012211299444098942
1752572684.0771751,-1.908322455157613,-1.741606099359973,-1.155126745608066,-1.0735985978214462,1.602393940906171,0.4149541986490445,0.1991567503549918,-0.1176641588289397,-0.3705119400000002,-0.0862018492065819,-0.0105698157472266,-0.3704105387603154,0.13558257892829673,-0.7293294347559433,0.3884769318482352,-0.00026966038624410426,0.9998596635649156,0.01146906358243995,0.012208236550443629
1752572684.0790422,-1.9079232869069007,-1.7418419326740209,-1.155869359668066,-1.0737713714848771,1.6023727559106604,0.4142117878267223,0.2000115003565154,-0.1181691552187635,-0.3721021200000002,-0.0865718142246359,-0.0106151797633091,-0.3720002835618619,0.13511393893439286,-0.7296017786056028,0.38853271054487626,-0.00026954330888303684,0.999859804590771,0.01146004930412583,0.012205153831760145
1752572684.081304,-1.9075224091561864,-1.7420787759808478,-1.1566151540880654,-1.0739448850783448,1.6023514801871177,0.413466197514797,0.200866250358039,-0.1186741516085873,-0.3736923000000002,-0.0869417792426899,-0.0106605437793916,-0.3735900283634083,0.13464295228239792,-0.729874975366937,0.38858870185725464,-0.00026942583066375865,0.9998599460852134,0.011451007392093239,0.012202051216990162
